!!!!SEGMENT: pl-cz--i-51_maader-ludwik--sexaginta-jam-anni-g.krn
!!!cenid: 17xx:237
!!!COM: Maader, Ludwik
!!!COM-rismID: pe30020328
!!!CDT: <1794->1798
!!!CNT:
!!!OTL: Sexaginta jam anni g
!!!PDT:
!!!AGN:
!!!SMS-siglum: PL-CZ
!!!SMS-shelfmark: I-51
!!!SMS-shelfwork: W
!!!NIFC-rismSourceID:
!!!NIFC-islandoraID: pl-cz:31654
!!!URL-pdf-islandora: https://repozytorium.nifc.pl/islandora/object/pl-cz%3A31654/datastream/PDF/view
!!!URL-scan:
!!!ONB-nifc:
!!!AIN: 1 bass 2 flt 2 violn 2 vox
!!!key:
**kern	**fb	**dynam	**kern	**dynam	**kern	**dynam	**kern	**text	**kern	**text	**kern	**dynam	**kern	**dynam
*part7	*	*	*part4	*	*part3	*	*part6	*part6	*part5	*part5	*part2	*	*part1	*
*staff7	*	*	*staff4	*	*staff3	*	*staff6	*staff6	*staff5	*staff5	*staff2	*	*staff1	*
*group4	*	*	*group3	*	*group3	*	*group2	*	*group2	*	*group1	*	*group1	*
*Ibass	*	*	*Ivioln	*	*Ivioln	*	*Ivox	*	*Ivox	*	*Iflt	*	*Iflt	*
*I"Basso.	*	*	*I"Violino II	*	*I"Violino I	*	*I"Canto Secondo	*	*I"Canto Primo.	*	*I"Flauto Secondo	*	*I"Flauto Primo solo.	*
*I'B	*	*	*I'Vln II	*	*I'Vln I	*	*I'C II	*	*I'C I	*	*I'Fl II	*	*I'Fl I	*
*clefF4	*	*	*clefG2	*	*clefG2	*	*clefC1	*	*clefC1	*	*clefG2	*	*clefG2	*
*k[b-e-]	*	*	*k[b-e-]	*	*k[b-e-]	*	*k[b-e-]	*	*k[b-e-]	*	*k[b-e-]	*	*k[b-e-]	*
*g:	*	*	*g:	*	*g:	*	*g:	*	*g:	*	*g:	*	*g:	*
*M4/4	*	*	*M4/4	*	*M4/4	*	*M4/4	*	*M4/4	*	*M4/4	*	*M4/4	*
*met(c)	*	*	*met(c)	*	*met(c)	*	*met(c)	*	*met(c)	*	*met(c)	*	*met(c)	*
=1	=1	=1	=1	=1	=1	=1	=1	=1	=1	=1	=1	=1	=1	=1
*>A	*	*	*>A	*	*>A	*	*>A	*	*>A	*	*>A	*	*>A	*
*	*	*	*	*	*	*	*	*	*	*	*	*below	*	*below
!LO:TX:a:B:t=Adagio non molto	!	!	!LO:TX:a:B:t=Adagio	!	!LO:TX:a:B:t=Adagio, non molto.	!	!LO:TX:a:B:t=Adagio	!	!LO:TX:a:B:t=Adagio.	!	!LO:TX:a:B:t=Adagio non molto	!	!LO:TX:a:B:t=Adagio.	!
4G\	.	.	16G/LL	.	8g\L	.	00r	.	00r	.	4b-\	.	4gg\	.
.	.	.	16d/	.	.	.	.	.	.	.	.	.	.	.
!	!	!	!LO:TX:a:t=Tutti	!	!LO:TX:a:t=Tutti	!	!	!	!	!	!	!	!	!
.	.	.	16B-/	.	32b-\LL	.	.	.	.	.	.	.	.	.
.	.	.	.	.	32a\	.	.	.	.	.	.	.	.	.
!	!	!	!	!	!	!LO:DY:t=for.	!	!	!	!	!	!	!	!
.	.	.	16d/JJ	.	32b-\	f	.	.	.	.	.	.	.	.
.	.	.	.	.	32cc\JJJ	.	.	.	.	.	.	.	.	.
!	!	!	!	!	!LO:TX:a:t=problem:mixed beam	!	!	!	!	!	!	!	!	!
8r	.	.	16G/LL	.	8dd\L	.	.	.	.	.	8r	.	8r	.
.	.	.	16d/	.	.	.	.	.	.	.	.	.	.	.
8G\	.	.	16B-/	.	8g/J	.	.	.	.	.	8dd\	.	8gg\	.
.	.	.	16d/JJ	.	.	.	.	.	.	.	.	.	.	.
4A\	7	.	16A/LL	.	8g/L	.	.	.	.	.	4cc\	.	4gg\	.
.	.	.	16d/	.	.	.	.	.	.	.	.	.	.	.
.	.	.	16c/	.	(32a/LL	.	.	.	.	.	.	.	.	.
.	.	.	.	.	32g/	.	.	.	.	.	.	.	.	.
.	.	.	16d/JJ	.	32f#X/	.	.	.	.	.	.	.	.	.
.	.	.	.	.	32g/JJJ)	.	.	.	.	.	.	.	.	.
4A\	6|	.	16A/LL	.	4f#/	.	.	.	.	.	4cc\	.	4ff#X\	.
.	.	.	16d/	.	.	.	.	.	.	.	.	.	.	.
.	.	.	16c/	.	.	.	.	.	.	.	.	.	.	.
.	.	.	16d/JJ	.	.	.	.	.	.	.	.	.	.	.
=2	=2	=2	=2	=2	=2	=2	=2	=2	=2	=2	=2	=2	=2	=2
4F#X\	.	.	16A/LL	.	(8.cc\L	.	.	.	.	.	4cc\	.	4aa\	.
.	.	.	16f#X/	.	.	.	.	.	.	.	.	.	.	.
.	.	.	16c/	.	.	.	.	.	.	.	.	.	.	.
.	.	.	16f#/JJ	.	16ee-\Jk	.	.	.	.	.	.	.	.	.
*	*	*	*rep	*	*	*	*	*	*	*	*	*	*	*
8r	.	.	16A/LL	.	16ee-\LL	.	.	.	.	.	8r	.	8r	.
.	.	.	16f#/	.	16dd\)	.	.	.	.	.	.	.	.	.
8F#\	.	.	16c/	.	16dd\	.	.	.	.	.	8cc\	.	8aa\	.
.	.	.	16f#/JJ	.	16cc\JJ	.	.	.	.	.	.	.	.	.
*	*	*	*Xrep	*	*	*	*	*	*	*	*	*	*	*
4G\	9 4	.	16G/LL	.	(8cc\L	.	.	.	.	.	4cc\	.	4aa\	.
.	.	.	16d/	.	.	.	.	.	.	.	.	.	.	.
.	.	.	16B-/	.	32dd\LL	.	.	.	.	.	.	.	.	.
.	.	.	.	.	32cc\	.	.	.	.	.	.	.	.	.
.	.	.	16d/JJ	.	32b-\	.	.	.	.	.	.	.	.	.
.	.	.	.	.	32cc\JJJ)	.	.	.	.	.	.	.	.	.
*	*	*	*rep	*	*	*	*	*	*	*	*	*	*	*
4GG/	8 3	.	16G/LL	.	8.b-\L	.	.	.	.	.	4b-\	.	4gg\	.
.	.	.	16d/	.	.	.	.	.	.	.	.	.	.	.
.	.	.	16B-/	.	.	.	.	.	.	.	.	.	.	.
.	.	.	16d/JJ	.	16dd\Jk	.	.	.	.	.	.	.	.	.
*	*	*	*Xrep	*	*	*	*	*	*	*	*	*	*	*
=3	=3	=3	=3	=3	=3	=3	=3	=3	=3	=3	=3	=3	=3	=3
!	!	!	!LO:LB:g=original	!	!	!	!	!	!	!	!	!	!	!
8G\	.	.	8B-/ 8d	.	8gg`\L	.	.	.	.	.	8b-\	.	8gg\	.
8r	.	.	8r	.	(32gg\LL	.	.	.	.	.	8r	.	8r	.
.	.	.	.	.	32ff#X\	.	.	.	.	.	.	.	.	.
.	.	.	.	.	32gg\	.	.	.	.	.	.	.	.	.
.	.	.	.	.	32aa\JJJ)	.	.	.	.	.	.	.	.	.
8r	.	.	8r	.	8bb-`\L	.	.	.	.	.	4r	.	4r	.
8g`\	.	.	8b-'/	.	8cc#X`\J	.	.	.	.	.	.	.	.	.
!	!	!	!	!	!LO:LB:g=original	!	!	!	!	!	!LO:TX:a:t=Solo	!	!	!
16f#X`\LL	.	.	16a'/LL	.	16dd`\LL	.	.	.	.	.	4r	.	4r	.
16g'\	.	.	16b-'/	.	(32een\L	.	.	.	.	.	.	.	.	.
.	.	.	.	.	32cc#\JJJ)	.	.	.	.	.	.	.	.	.
16f#'\	.	.	16a'/	.	16dd`\LL	.	.	.	.	.	.	.	.	.
16g'\JJ	.	.	16b-'/JJ	.	(32ee\L	.	.	.	.	.	.	.	.	.
.	.	.	.	.	32cc#\JJJ)	.	.	.	.	.	.	.	.	.
8f#`\	.	.	8a/L	.	8dd\L	.	.	.	.	.	8r	.	8r	.
!	!	!	!	!LO:DY:t=po:	!	!	!	!	!	!	!	!	!	!
8r	.	.	8g/J	p	8b-\J	.	.	.	.	.	8een\	.	8ccc#X`\	.
=4	=4	=4	=4	=4	=4	=4	=4	=4	=4	=4	=4	=4	=4	=4
!LO:LB:g=original	!	!	!	!	!	!	!	!	!	!	!	!	!LO:LB:g=original	!
4r	.	.	16f#X/LL	.	16a`/LL	p	.	.	.	.	16ff#X\LL	.	16ddd`\LL	.
.	.	.	16g/	.	16b-X`/	.	.	.	.	.	16gg\	.	(32eeen\L	.
.	.	.	.	.	.	.	.	.	.	.	.	.	32ccc#X\JJJ)	.
.	.	.	16f#/	.	16a`/	.	.	.	.	.	16ff#\	.	16ddd`\LL	.
.	.	.	16g/JJ	.	16b-`/JJ	.	.	.	.	.	16gg\JJ	.	(32eee\L	.
.	.	.	.	.	.	.	.	.	.	.	.	.	32ccc#\JJJ)	.
!	!	!	!	!	!LO:TX:a:t=problem:mixed beam	!	!	!	!	!	!	!	!	!
8r	.	.	8f#/L	.	8a/L	.	.	.	.	.	8ff#\	.	8ddd`\	.
8fn`\	.	.	8a/J	.	8dd\J	.	.	.	.	.	8r	.	8r	.
8f`\	.	.	8a-X/	.	8dd\L	.	.	.	.	.	2r	.	2r	.
8r	.	.	8r	.	(32ffn\LL	f	.	.	.	.	.	.	.	.
.	.	.	.	.	32een\	.	.	.	.	.	.	.	.	.
.	.	.	.	.	32ff\	.	.	.	.	.	.	.	.	.
.	.	.	.	.	32gg\JJJ)	.	.	.	.	.	.	.	.	.
8r	.	.	8r	.	8aa-X\L	.	.	.	.	.	.	.	.	.
8f`\	.	.	8a-/	f	8bn\J	.	.	.	.	.	.	.	.	.
=5	=5	=5	=5	=5	=5	=5	=5	=5	=5	=5	=5	=5	=5	=5
!	!	!	!	!	!	!	!	!	!	!	!LO:LB:g=original	!	!	!
16en'\LL	.	.	16g/LL	.	16cc`\LL	.	00r	.	00r	.	4r	.	4r	.
16f'\	.	.	16a-X/	.	(32dd\L	.	.	.	.	.	.	.	.	.
.	.	.	.	.	32bn\JJJ)	.	.	.	.	.	.	.	.	.
16e'\	.	.	16g/	.	16cc`\LL	.	.	.	.	.	.	.	.	.
16f'\JJ	.	.	16a-/JJ	.	(32dd\L	.	.	.	.	.	.	.	.	.
.	.	.	.	.	32b\JJJ)	.	.	.	.	.	.	.	.	.
8e`\	.	.	8g/L	.	8cc`\L	.	.	.	.	.	8r	.	8r	.
8r	.	.	8f/J	.	8a-X`\J	.	.	.	.	.	8dd\	.	8bbn`\	.
!	!	!	!LO:LB:g=original	!	!LO:LB:g=original	!LO:DY:t=po::	!	!	!	!	!	!	!	!
4r	.	.	16en/LL	.	16g`/LL	p	.	.	.	.	16een\LL	.	16cccn`\LL	.
.	.	.	16f/	.	16a-`/	.	.	.	.	.	16ffn\	.	(32ddd\L	.
.	.	.	.	.	.	.	.	.	.	.	.	.	32bb\JJJ)	.
.	.	.	16e/	.	16g`/	.	.	.	.	.	16ee\	.	16ccc`\LL	.
.	.	.	16f/JJ	.	16a-`/JJ	.	.	.	.	.	16ff\JJ	.	(32ddd\L	.
.	.	.	.	.	.	.	.	.	.	.	.	.	32bb\JJJ)	.
!	!	!	!	!	!LO:TX:a:t=problem:mixed beam	!	!	!	!	!	!	!	!	!
8r	.	.	8e/L	.	8g/L	.	.	.	.	.	8ee\	.	8ccc`\	.
!	!	!	!	!LO:DY:t=po:	!	!	!	!	!	!	!	!	!	!
8e-X'\	.	.	8g/J	p	8cc\J	.	.	.	.	.	8r	.	8r	.
=6	=6	=6	=6	=6	=6	=6	=6	=6	=6	=6	=6	=6	=6	=6
8e-`\	.	.	8g-X/	.	8cc`\L	.	.	.	.	.	2r	.	2r	.
8r	.	.	8r	.	(32ee-\LL	.	.	.	.	.	.	.	.	.
.	.	.	.	.	32dd\	.	.	.	.	.	.	.	.	.
.	.	.	.	.	32ee-\	f	.	.	.	.	.	.	.	.
.	.	.	.	.	32ff\JJJ)	.	.	.	.	.	.	.	.	.
!	!	!	!	!	!LO:TX:a:t=problem:mixed beam	!	!	!	!	!	!	!	!	!
8r	.	.	8r	.	8gg-X`\L	.	.	.	.	.	.	.	.	.
8e-`\	.	.	8g-/	.	8an`/J	.	.	.	.	.	.	.	.	.
16d`\LL	.	.	16f/LL	f	16b-`\LL	.	.	.	.	.	4r	.	4r	.
16e-`\	.	.	16g-/	.	(32cc\L	.	.	.	.	.	.	.	.	.
.	.	.	.	.	32a\JJJ)	.	.	.	.	.	.	.	.	.
16d`\	.	.	16f/	.	16b-`\LL	.	.	.	.	.	.	.	.	.
16e-'\JJ	.	.	16g-/JJ	.	(32cc\L	.	.	.	.	.	.	.	.	.
.	.	.	.	.	32a\JJJ)	.	.	.	.	.	.	.	.	.
8d\	.	.	8f/L	.	8b-`/L	.	.	.	.	.	8r	.	8r	.
!	!	!	!	!LO:DY:t=po:	!	!	!	!	!	!	!	!	!	!
8r	.	.	8e-/J	p	8g-X`/J	p	.	.	.	.	8cc\	.	8aa\	.
=7	=7	=7	=7	=7	=7	=7	=7	=7	=7	=7	=7	=7	=7	=7
!LO:LB:g=original	!	!	!	!	!	!	!	!	!	!	!	!	!LO:LB:g=original	!
2r	.	.	16d/LL	.	16f`/LL	.	.	.	.	.	16dd\LL	.	16bb-X`\LL	.
.	.	.	16e-/	.	16g-X`/	.	.	.	.	.	16ee-X\	.	(32ccc\L	.
.	.	.	.	.	.	.	.	.	.	.	.	.	32aa\JJJ)	.
.	.	.	16d/	.	16f`/	.	.	.	.	.	16dd\	.	16bb-`\LL	.
.	.	.	16e-/JJ	.	16g-`/JJ	.	.	.	.	.	16ee-\JJ	.	(32ccc\L	.
.	.	.	.	.	.	.	.	.	.	.	.	.	32aa\JJJ)	.
.	.	.	8d/	.	8f/	.	.	.	.	.	16dd\LL	.	16bb-\LL	.
.	.	.	.	.	.	.	.	.	.	.	16dd\	.	16bb-\	.
.	.	.	8r	.	8r	.	.	.	.	.	16cc\	.	16aa\	.
.	.	.	.	.	.	.	.	.	.	.	16b-\JJ	.	16gg\JJ	.
!	!	!	!LO:TX:a:t=problem:mixed beam	!	!	!	!	!	!	!	!	!	!	!
!	!	!	!	!	!LO:TX:a:t=problem:mixed beam	!	!	!	!	!	!	!	!	!
8D\	#_	f	16dd`\LL	f	16ff#X`\LL	.	.	.	.	.	8a\	.	8ff#X\	.
.	.	.	32d/L	.	(32d/L	.	.	.	.	.	.	.	.	.
.	.	.	(32c#X/JJJ	.	32c#X/JJJ)	.	.	.	.	.	.	.	.	.
8r	.	.	32d/LLL	.	(32d/LLL	.	.	.	.	.	8r	.	8r	.
.	.	.	32c#/	.	32c#/	.	.	.	.	.	.	.	.	.
.	.	.	32d/)	.	32d/	.	.	.	.	.	.	.	.	.
.	.	.	32c#/JJJ	.	32c#/JJJ)	.	.	.	.	.	.	.	.	.
!	!	!	!	!	!LO:TX:a:t=problem:mixed beam	!	!	!	!	!	!	!	!	!
8r	.	.	16d'/LL	.	16d`/LL	.	.	.	.	.	8r	.	8r	.
.	.	.	16d'/	.	(16dd\	.	.	.	.	.	.	.	.	.
8D\	.	.	16d'/	.	16ff#\	.	.	.	.	.	8a\	.	8ff#\	.
.	.	.	16d'/JJ	.	16aa\JJ)	.	.	.	.	.	.	.	.	.
=8	=8	=8	=8	=8	=8	=8	=8	=8	=8	=8	=8	=8	=8	=8
!	!	!	!LO:LB:g=original	!	!LO:LB:g=original	!	!	!	!	!	!	!	!	!
!	!	!	!	!	!LO:TX:a:t=problem:mixed beam	!	!	!	!	!	!LO:LB:g=original	!	!	!
8D\	6_ 4_	.	16d/LL	.	16ggn\LL	.	.	.	.	.	8b-\	.	8gg\	.
.	.	.	32d/L	.	(32d/L	.	.	.	.	.	.	.	.	.
.	.	.	32c#X/JJJ	.	32c#X/JJJ)	.	.	.	.	.	.	.	.	.
8r	.	.	32d/LLL	.	(32d/LLL	.	.	.	.	.	8r	.	8r	.
.	.	.	32c#/	.	32c#/	.	.	.	.	.	.	.	.	.
.	.	.	32d/	.	32d/	.	.	.	.	.	.	.	.	.
.	.	.	32c#/JJJ	.	32c#/JJJ)	.	.	.	.	.	.	.	.	.
8r	.	.	16d/LL	.	16d`\LL	.	.	.	.	.	8r	.	8r	.
.	.	.	16d/	.	(16dd\	.	.	.	.	.	.	.	.	.
8D\	.	.	16d/	.	16gg\)	.	.	.	.	.	8b-\	.	8gg\	.
.	.	.	16d/JJ	.	16bb-\JJ	.	.	.	.	.	.	.	.	.
!	!	!	!	!	!LO:TX:a:t=problem:mixed beam	!	!	!	!	!	!	!	!	!
8D\	#_	.	16d/LL	.	16aa`\LL	.	.	.	.	.	8cc\	.	8aa\	.
.	.	.	32d/L	.	(32d/L	.	.	.	.	.	.	.	.	.
.	.	.	32c#/JJJ	.	32c#/JJJ)	.	.	.	.	.	.	.	.	.
8r	.	.	32d/LLL	.	(32d/LLL	.	.	.	.	.	8r	.	8r	.
.	.	.	32c#/	.	32c#/	.	.	.	.	.	.	.	.	.
.	.	.	32d/	.	32d/	.	.	.	.	.	.	.	.	.
.	.	.	32c#/JJJ	.	32c#/JJJ)	.	.	.	.	.	.	.	.	.
!	!	!	!	!	!LO:TX:a:t=problem:mixed beam	!	!	!	!	!	!	!	!	!
8r	.	.	16d/LL	.	16d/LL	.	.	.	.	.	8r	.	8r	.
.	.	.	16d/	.	16dd\	.	.	.	.	.	.	.	.	.
8D\	.	.	16d/	.	16aa\	.	.	.	.	.	8ff#X\	.	8aa\	.
.	.	.	16d/JJ	.	16ccc\JJ	.	.	.	.	.	.	.	.	.
=9	=9	=9	=9	=9	=9	=9	=9	=9	=9	=9	=9	=9	=9	=9
*	*	*	*tremolo	*	*Xtuplet	*	*	*	*	*	*	*	*	*
!	!	!	!	!	!LO:TX:a:t=problem:triole oznaczone kropką pod klamrą łukową	!	!	!	!	!	!	!	!	!
8G\L	3	.	16d/LL	.	24bb-\LL	.	00r	.	00r	.	16gg\LL	.	8bb-\L	.
.	.	.	.	.	24gg\	.	.	.	.	.	.	.	.	.
.	.	.	16d/	.	.	.	.	.	.	.	16dd\	.	.	.
.	.	.	.	.	24dd\JJ	.	.	.	.	.	.	.	.	.
8B-\	3	.	16d/	.	24ddd\LL	.	.	.	.	.	16dd\	.	16ddd\L	.
.	.	.	.	.	24bb-\	.	.	.	.	.	.	.	.	.
.	.	.	16d/	.	.	.	.	.	.	.	16dd\JJ	.	16ddd\JJ	.
.	.	.	.	.	24dd\JJ	.	.	.	.	.	.	.	.	.
*	*	*	*	*	*	*	*	*	*	*	*tremolo	*	*	*
8A\	3	.	16d/	.	24ccc\LL	.	.	.	.	.	16dd\LL	.	16ccc\LL	.
.	.	.	.	.	24aa\	.	.	.	.	.	.	.	.	.
.	.	.	16d/	.	.	.	.	.	.	.	16dd\	.	16ccc\	.
.	.	.	.	.	24dd\JJ	.	.	.	.	.	.	.	.	.
8D\J	5 #	.	16d/	.	24aa\LL	.	.	.	.	.	16dd\	.	16aa\	.
.	.	.	.	.	24ff#X\	.	.	.	.	.	.	.	.	.
.	.	.	16d/JJ	.	.	.	.	.	.	.	16dd\JJ	.	16aa\JJ	.
.	.	.	.	.	24dd\JJ	.	.	.	.	.	.	.	.	.
!	!	!	!	!	!LO:LB:g=original	!	!	!	!	!	!	!	!LO:LB:g=original	!
8G\L	3	.	16d/LL	.	24bb-\LL	.	.	.	.	.	16dd\LL	.	16bb-\LL	.
.	.	.	.	.	24gg\	.	.	.	.	.	.	.	.	.
.	.	.	16d/	.	.	.	.	.	.	.	16dd\	.	16bb-\	.
.	.	.	.	.	24dd\JJ	.	.	.	.	.	.	.	.	.
8B-\	3	.	16d/	.	24ddd\LL	.	.	.	.	.	16dd\	.	16ddd\	.
.	.	.	.	.	24bb-\	.	.	.	.	.	.	.	.	.
*	*	*	*	*	*	*	*	*	*	*	*	*	*	*
.	.	.	16d/	.	.	.	.	.	.	.	16dd\	.	16ddd\JJ	.
.	.	.	.	.	24dd\JJ	.	.	.	.	.	.	.	.	.
8A\	3	.	16d/	.	24ccc\LL	.	.	.	.	.	16dd\	.	16ccc\LL	.
.	.	.	.	.	24aa\	.	.	.	.	.	.	.	.	.
.	.	.	16d/	.	.	.	.	.	.	.	16dd\	.	16ccc\	.
.	.	.	.	.	24dd\JJ	.	.	.	.	.	.	.	.	.
8D\J	5 #	.	16d/	.	24aa\LL	.	.	.	.	.	16dd\	.	16aa\	.
.	.	.	.	.	24ff#X\	.	.	.	.	.	.	.	.	.
.	.	.	16d/JJ	.	.	.	.	.	.	.	16dd\JJ	.	16aa\JJ	.
.	.	.	.	.	24dd\JJ	.	.	.	.	.	.	.	.	.
*	*	*	*Xtremolo	*	*	*	*	*	*	*	*Xtremolo	*	*	*
=10	=10	=10	=10	=10	=10	=10	=10	=10	=10	=10	=10	=10	=10	=10
*	*	*	*Xtuplet	*	*	*	*	*	*	*	*	*	*	*
!	!	!	!LO:TX:a:t=problem:triole oznaczone kropką pod klamrą łukową	!	!	!	!	!	!	!	!	!	!	!
8G\L	.	.	24b-\LL	.	24bb-\LL	.	.	.	.	.	8dd\	.	8bb-\	.
.	.	.	24a\	.	24aa\	.	.	.	.	.	.	.	.	.
.	.	.	24b-\JJ	.	24bb-\JJ	.	.	.	.	.	.	.	.	.
8d\	.	.	24dd\LL	.	24ddd\LL	.	.	.	.	.	8r	.	8r	.
.	.	.	24b-\	.	24bb-\	.	.	.	.	.	.	.	.	.
.	.	.	24f#X\JJ	.	24ff#X\JJ	.	.	.	.	.	.	.	.	.
8e-\	.	.	24g/LL	.	24gg\LL	.	.	.	.	.	4r	.	4r	.
.	.	.	24f#/	.	24ff#\	.	.	.	.	.	.	.	.	.
.	.	.	24g/JJ	.	24gg\JJ	.	.	.	.	.	.	.	.	.
8B-\J	.	.	24b-/LL	.	24bb-\LL	.	.	.	.	.	.	.	.	.
.	.	.	24g/	.	24gg\	.	.	.	.	.	.	.	.	.
.	.	.	24d/JJ	.	24dd\JJ	.	.	.	.	.	.	.	.	.
!LO:TX:a:t=problem:mixed beam	!	!	!LO:LB:g=original	!	!	!	!	!	!	!	!	!	!	!
8c\L	.	.	24e-/LL	.	24ee-\LL	.	.	.	.	.	4r	.	4r	.
.	.	.	24d/	.	24dd\	.	.	.	.	.	.	.	.	.
.	.	.	24e-/JJ	.	24ee-\JJ	.	.	.	.	.	.	.	.	.
!	!	!	!LO:TX:a:t=problem: nieczyt. przednut.	!	!	!	!	!	!	!	!	!	!	!
.	.	.	16qqdd/	.	.	.	.	.	.	.	.	.	.	.
8A\	.	.	16cc\LL	.	32ffn\LLL	.	.	.	.	.	.	.	.	.
.	.	.	.	.	32ee-\	.	.	.	.	.	.	.	.	.
.	.	.	32b-\L	.	32dd\	.	.	.	.	.	.	.	.	.
.	.	.	32a\JJJ	.	32cc\JJJ	.	.	.	.	.	.	.	.	.
8d\	6 4	.	8g/L	.	8b-/L	.	.	.	.	.	8b-/L	.	8gg\L	.
!	!	!	!	!	!	!	!	!	!	!	!LO:TX:a:t=Solo	!	!	!
8D/J	5 #	.	8f#/J	.	8a/J	.	.	.	.	.	8a/J	.	8ff#X\J	.
=11	=11	=11	=11	=11	=11	=11	=11	=11	=11	=11	=11	=11	=11	=11
!LO:LB:g=original	!LO:DY:t=po:	!	!	!	!LO:LB:g=original	!LO:DY:t=po:.	!	!	!	!	!	!	!	!
8G`\	.	.	8g/	.	8g/	p	.	.	.	.	16b-'\LL	.	16gg`\LL	.
.	.	.	.	.	.	.	.	.	.	.	16bb-'\	.	16ddd`\	.
8r	.	.	8r	.	8r	.	.	.	.	.	16bb-'\	.	16ddd`\	.
.	.	.	.	.	.	.	.	.	.	.	16bb-'\JJ	.	16ddd`\JJ	.
8r	.	.	8r	.	8r	.	.	.	.	.	16bb-'\LL	.	16ddd`\LL	.
.	.	.	.	.	.	.	.	.	.	.	(32aa\L	.	(32ccc\L	.
.	.	.	.	.	.	.	.	.	.	.	32bb-\JJJ)	.	32ddd\JJJ)	.
!	!	!	!	!LO:DY:t=po:	!	!	!	!	!	!	!	!	!	!
8G`\	.	.	8b-\	p	8dd\	.	.	.	.	.	(16ccc\LL	.	(16eee-\LL	.
.	.	.	.	.	.	.	.	.	.	.	16bb-\JJ)	.	16ddd\JJ)	.
!	!	!	!	!	!	!	!	!	!	!	!LO:LB:g=original	!	!	!
.	.	.	.	.	.	.	.	.	.	.	8qbb-/	.	8qddd/	.
8D`\	.	.	8a\	.	8cc\	.	.	.	.	.	16aa\LL	.	16ccc\LL	.
.	.	.	.	.	.	.	.	.	.	.	16aa'\	.	16ccc\	.
8r	.	.	8r	.	8r	.	.	.	.	.	16aa'\	.	16ccc\	.
.	.	.	.	.	.	.	.	.	.	.	16aa'\JJ	.	16ccc\JJ	.
8r	.	.	8r	.	8r	.	.	.	.	.	(16aa\LL	.	16ccc\LL	.
.	.	.	.	.	.	.	.	.	.	.	32gg\L	.	32bb-\L	.
.	.	.	.	.	.	.	.	.	.	.	32aa\JJJ)	.	32ccc\JJJ	.
8D`\	.	.	8a/	.	8cc\	.	.	.	.	.	(16bb-\LL	.	16ddd\LL	.
.	.	.	.	.	.	.	.	.	.	.	16aa\JJ)	.	16ccc\JJ	.
=12	=12	=12	=12	=12	=12	=12	=12	=12	=12	=12	=12	=12	=12	=12
!	!	!	!	!	!	!	!	!	!	!	!LO:TX:a:t=problem:SIC:s=aa	!	!LO:LB:g=original	!
.	.	.	.	.	.	.	.	.	.	.	8qgg/	.	16qqccc/	.
8G`\	.	.	8g/	.	8b-\	.	.	.	.	.	16gg\LL	.	16bb-\LL	.
.	.	.	.	.	.	.	.	.	.	.	16gg\	.	16bb-\	.
8r	.	.	8r	.	8r	.	.	.	.	.	16dd\	.	16bb-\	.
.	.	.	.	.	.	.	.	.	.	.	16dd\JJ	.	16bb-\JJ	.
8r	.	.	8r	.	8r	.	.	.	.	.	16dd\LL	.	16bb-\LL	.
.	.	.	.	.	.	.	.	.	.	.	32cc\L	.	32aa\L	.
.	.	.	.	.	.	.	.	.	.	.	32dd\JJJ	.	32bb-\JJJ	.
8G`\	.	.	8g/	.	8b-\	.	.	.	.	.	16ee-\LL	.	16ccc\LL	.
.	.	.	.	.	.	.	.	.	.	.	16dd\JJ	.	16bb-\JJ	.
.	.	.	.	.	.	.	.	.	.	.	8qdd/	.	8qbb-/	.
8d`\	.	.	8f#X/	.	8a/	.	.	.	.	.	16cc\LL	.	16aa\LL	.
.	.	.	.	.	.	.	.	.	.	.	16cc\	.	16aa\	.
8r	.	.	8r	.	8r	.	.	.	.	.	16cc\	.	16aa\	.
.	.	.	.	.	.	.	.	.	.	.	16cc\JJ	.	16aa\JJ	.
8r	.	.	8r	.	8r	.	.	.	.	.	16cc\LL	.	16aa\LL	.
.	.	.	.	.	.	.	.	.	.	.	32b-\L	.	32gg\L	.
.	.	.	.	.	.	.	.	.	.	.	32cc\JJJ	.	32aa\JJJ	.
8d'\	.	.	8f#/	.	8a/	.	.	.	.	.	16dd\LL	.	16bb-\LL	.
.	.	.	.	.	.	.	.	.	.	.	16cc\JJ	.	16aa\JJ	.
=13	=13	=13	=13	=13	=13	=13	=13	=13	=13	=13	=13	=13	=13	=13
8G`\	.	.	8g/	.	8b-/	.	00r	.	00r	.	(16b-\LL	.	16gg\LL	.
.	.	.	.	.	.	.	.	.	.	.	16dd\	.	16bb-\	.
8r	.	.	8r	.	8r	.	.	.	.	.	16cc\	.	16aa\	.
.	.	.	.	.	.	.	.	.	.	.	16b-\JJ)	.	16gg\JJ	.
8D`\	.	.	8f#X/	.	8a/	.	.	.	.	.	(16a\LL	.	16ff#X\LL	.
.	.	.	.	.	.	.	.	.	.	.	16cc\	.	16aa\	.
8r	.	.	8r	.	8r	.	.	.	.	.	16b-\	.	16gg\	.
.	.	.	.	.	.	.	.	.	.	.	16a\JJ)	.	16ff#\JJ	.
!	!	!	!	!	!	!	!	!	!	!	!LO:LB:g=original	!	!	!
8G`\	.	.	8g/	.	8b-/	.	.	.	.	.	16b-\LL	.	16gg\LL	.
.	.	.	.	.	.	.	.	.	.	.	16bb-\	.	16ddd\	.
8r	.	.	8r	.	8r	.	.	.	.	.	16aa\	.	16ccc\	.
.	.	.	.	.	.	.	.	.	.	.	16gg\JJ	.	16bb-\JJ	.
8D\	.	.	8f#/	.	8a/	.	.	.	.	.	16ff#X\LL	.	16aa\LL	.
.	.	.	.	.	.	.	.	.	.	.	16aa\	.	16ccc\	.
8r	.	.	8r	.	8r	.	.	.	.	.	16gg\	.	16bb-\	.
.	.	.	.	.	.	.	.	.	.	.	16ff#\JJ	.	16aa\JJ	.
=14	=14	=14	=14	=14	=14	=14	=14	=14	=14	=14	=14	=14	=14	=14
!LO:TX:b:t=Senza org:	!	!	!LO:LB:g=original	!	!	!	!	!	!	!	!	!	!LO:LB:g=original	!
8G`\	.	.	8g/	.	8b-\	.	.	.	.	.	16gg\LL	.	16bb-\LL	.
.	.	.	.	.	.	.	.	.	.	.	16bb-\	.	16ddd\	.
8r	.	.	8r	.	8r	.	.	.	.	.	16aa\	.	16ccc\	.
.	.	.	.	.	.	.	.	.	.	.	16gg\JJ	.	16bb-\JJ	.
(16c\LL	.	.	16f#X\LL	.	(16a\LL	.	.	.	.	.	16ff#X\LL	.	16aa\LL	.
16B-\	.	.	16g\	.	16b-\	.	.	.	.	.	16gg\	.	16bb-\	.
16A\	.	.	16a\	.	16cc\	.	.	.	.	.	16aa\	.	16ccc\	.
16G\JJ)	.	.	16b-\JJ	.	16dd\JJ)	.	.	.	.	.	16bb-\JJ	.	16ddd\JJ	.
!LO:LB:g=original	!	!	!	!	!LO:LB:g=original	!	!	!	!	!	!	!	!	!
(16F#X\LL	.	.	[4cc\	.	[4ee-\	.	.	.	.	.	[4ccc\	.	[4eee-\	.
32c\L	.	.	.	.	.	.	.	.	.	.	.	.	.	.
32B-\JJJ)	.	.	.	.	.	.	.	.	.	.	.	.	.	.
(32A\LLL	.	.	.	.	.	.	.	.	.	.	.	.	.	.
32B-\	.	.	.	.	.	.	.	.	.	.	.	.	.	.
32A\	.	.	.	.	.	.	.	.	.	.	.	.	.	.
32G\JJJ)	.	.	.	.	.	.	.	.	.	.	.	.	.	.
4F#\	.	.	16cc\LL]	.	16ee-\LL]	.	.	.	.	.	16ccc\LL]	.	16eee-\LL]	.
.	.	.	16cc\	.	16ee-`\	.	.	.	.	.	16ccc\	.	16eee-\	.
.	.	.	16b-\	.	(16dd\	.	.	.	.	.	16bb-\	.	16ddd\	.
.	.	.	16a\JJ	.	16cc\JJ)	.	.	.	.	.	16aa\JJ	.	16ccc\JJ	.
=15	=15	=15	=15	=15	=15	=15	=15	=15	=15	=15	=15	=15	=15	=15
*	*	*	*	*	*	*	*	*	*	*	*Xtuplet	*	*Xtuplet	*
!LO:TX:a:t=problem:mixed beam	!	!	!	!	!	!	!	!	!	!	!	!	!	!
!LO:TX:b:t=con Org:	!	!	!	!	!	!	!	!	!	!	!LO:TX:a:t=problem:triole oznaczone kropką pod klamrą łukową	!	!LO:TX:a:t=problem:triole oznaczone kropką pod klamrą łukową	!
8G\L	.	.	24g\LL	.	24b-\LL	.	.	.	.	.	24gg\LL	.	24bb-\LL	.
.	.	.	24a\	.	24cc\	.	.	.	.	.	24aa\	.	24ccc\	.
.	.	.	24b-\JJ	.	24dd\JJ	.	.	.	.	.	24bb-\JJ	.	24ddd\JJ	.
8c\	.	.	24cc\LL	.	24ee-\LL	.	.	.	.	.	24ccc\LL	.	24eee-\LL	.
.	.	.	24b-\	.	24dd\	.	.	.	.	.	24bb-\	.	24ddd\	.
.	.	.	24a\JJ	.	24cc\JJ	.	.	.	.	.	24aa\JJ	.	24ccc\JJ	.
8d\	6 4	.	8g/L	.	8b-/L	.	.	.	.	.	8gg\L	.	8bb-\L	.
!	!	!	!	!	!	!	!	!	!	!	!	!	!	!
8D/J	5 #	.	8f#X/J	.	8a/J	.	.	.	.	.	8ff#X\J	.	8aa\J	.
8G\	.	.	8g/	.	8g/	.	.	.	.	.	16gg\	.	(16gg\LL	.
.	.	.	.	.	.	.	.	.	.	.	16r	.	32gg'\L	.
.	.	.	.	.	.	.	.	.	.	.	.	.	32aa'\	.
8r	.	.	8r	.	8r	.	.	.	.	.	8r	.	32bb-'\	.
.	.	.	.	.	.	.	.	.	.	.	.	.	32bbn'\	.
.	.	.	.	.	.	.	.	.	.	.	.	.	32ccc'\	.
.	.	.	.	.	.	.	.	.	.	.	.	.	32ccc#X'\JJJ)	.
8r	.	.	8r	.	8r	.	.	.	.	.	8r	.	8ddd\L	.
8D\	#	.	8d/ 8a	.	8d/ 8a 8ff#X	.	.	.	.	.	8cc\	.	8ff#X\J	.
=16	=16	=16	=16	=16	=16	=16	=16	=16	=16	=16	=16	=16	=16	=16
!	!	!	!	!	!	!	!	!	!	!	!LO:LB:g=original	!	!LO:LB:g=original	!
8G\	.	.	8G/ 8g	.	8G/ 8d 8b- 8gg	.	.	.	.	.	8b-\	.	(16gg\LL	.
.	.	.	.	.	.	.	.	.	.	.	.	.	32gg'\L	.
.	.	.	.	.	.	.	.	.	.	.	.	.	32aa'\	.
8r	.	.	8r	.	8r	.	.	.	.	.	8r	.	32bb-'\	.
.	.	.	.	.	.	.	.	.	.	.	.	.	32bbn'\	.
.	.	.	.	.	.	.	.	.	.	.	.	.	32ccc'\	.
.	.	.	.	.	.	.	.	.	.	.	.	.	32ccc#X'\JJJ)	.
8r	.	.	8r	.	8r	.	.	.	.	.	8r	.	8ddd\L	.
!	!	!	!	!	!	!LO:DY:t=for:	!	!	!	!	!	!	!	!
8D\	#	.	8d/ 8a	.	8d/ 8a 8ff#X	f	.	.	.	.	8cc\	.	8ff#X\J	.
8G\L	.	.	8G/L 8g	.	8G/L 8d 8b- 8gg	.	.	.	.	.	8b-\L	.	8gg\L	.
8G\J	.	.	8G/J 8g	.	8G/J 8d 8b- 8gg	.	.	.	.	.	8b-\J	.	8gg\J	.
!LO:TX:b:t=Fine	!	!	!LO:TX:b:t=Fine	!	!LO:TX:b:t=Fine	!	!	!	!	!	!	!	!LO:TX:b:t=Fine	!
4GG;/	.	.	4G;/ 4g	.	4G;/ 4d 4b- 4gg	.	.	.	.	.	4b-\	.	4gg;\	.
=17||	=17||	=17	=17||	=17||	=17||	=17||	=17	=17||	=17|	=17||	=17	=17||	=17||	=17||
!LO:LB:g=original	!	!	!LO:LB:g=original	!	!	!	!	!	!	!	!	!	!	!
!	!	!	!	!LO:DY:t=pianiſsimo	!LO:TX:a:t=Solo	!	!	!	!	!	!	!	!	!
!LO:TX:a:t=Solo	!	!	!LO:TX:a:t=Solo	!	!	!LO:DY:t=po::	!	!	!	!	!	!	!	!
8G`\	p	.	8B-/	pp	8d`>/	p	1r	.	8g`\	Sex-	0r	.	0r	.
8r	.	.	8r	.	8r	.	.	.	(16g\LL	-ta-	.	.	.	.
.	.	.	.	.	.	.	.	.	16a\JJ)	.	.	.	.	.
8G`\	.	.	8B-/	.	8d`>/	.	.	.	(16cc\LL	-gin-	.	.	.	.
.	.	.	.	.	.	.	.	.	16b-\JJ)	.	.	.	.	.
8r	.	.	8r	.	8r	.	.	.	16a`\	-ta	.	.	.	.
.	.	.	.	.	.	.	.	.	16g`\	jam	.	.	.	.
8F#X`\	.	.	8A/	.	8d`>/	.	.	.	8a`\	An-	.	.	.	.
8r	.	.	8r	.	8r	.	.	.	8a`\	-ni	.	.	.	.
8F#`\	.	.	8A/	.	8d`>/	.	.	.	4d`/	Sunt	.	.	.	.
8r	.	.	8r	.	8r	.	.	.	.	.	.	.	.	.
=18	=18	=18	=18	=18	=18	=18	=18	=18	=18	=18	=18	=18	=18	=18
!LO:TX:a:t=problem: art. nad pauzą	!	!	!	!	!	!	!	!	!LO:LB:g=original	!	!	!	!	!
8F#X`\	.	.	8A/	.	8d`>/	.	0r	.	8a\	cum	.	.	.	.
8r	.	.	8r	.	8r	.	.	.	8a\	ac-	.	.	.	.
8F#`\	.	.	8A/	.	8d`>/	.	.	.	16a\	-ci-	.	.	.	.
.	.	.	.	.	.	.	.	.	16a\	-pi-	.	.	.	.
8r	.	.	8r	.	8r	.	.	.	16.dd\	-o	.	.	.	.
.	.	.	.	.	.	.	.	.	32cc\k	quo-	.	.	.	.
!LO:TX:a:t=problem: art. nad pauzą	!	!	!	!	!	!	!	!	!	!	!	!	!	!
8G`\	.	.	8B-/	.	8d`>/	.	.	.	8.b-\	-ti-	.	.	.	.
8r	.	.	8r	.	8r	.	.	.	.	.	.	.	.	.
.	.	.	.	.	.	.	.	.	16a\k	-di-	.	.	.	.
8G`\	.	.	8B-/	.	8d`>/	.	.	.	8g\	-e	.	.	.	.
8r	.	.	8r	.	8r	.	.	.	8dd\	quo-	.	.	.	.
=19	=19	=19	=19	=19	=19	=19	=19	=19	=19	=19	=19	=19	=19	=19
.	.	.	.	.	.	.	.	.	8qqcc/	.	.	.	.	.
!	!	!	!	!	!	!	!	!	!	!	!	!	!LO:TX:a:t=VS:	!
8G`\	.	.	8B-/	.	8d`>/	.	.	.	8.b-\	.	1r	.	1r	.
8r	.	.	8r	.	8r	.	.	.	.	.	.	.	.	.
.	.	.	.	.	.	.	.	.	16a\k	-di-	.	.	.	.
8G`\	.	.	8B-/	.	8d`>/	.	.	.	8g\	-e	.	.	.	.
8r	.	.	8r	.	8r	.	.	.	8dd\	di-	.	.	.	.
!	!	!	!	!	!	!	!	!	!LO:LB:g=original	!	!	!	!	!
8r	.	.	8r	.	8r	.	.	.	16.gg\	-mi-	.	.	.	.
.	.	.	.	.	.	.	.	.	32cc#X\K	-di-	.	.	.	.
8E-X\L	6|	.	8g/L	.	8cc#X\L	.	.	.	8cc#\	-i	.	.	.	.
8E-\	.	.	8g/	.	8cc#\	.	.	.	8cc#\	Pa-	.	.	.	.
8E-\J	.	.	8g/J	.	8cc#\J	.	.	.	16cc#\	-nis	.	.	.	.
.	.	.	.	.	.	.	.	.	16cc#\	frag-	.	.	.	.
=20	=20	=20	=20	=20	=20	=20	=20	=20	=20	=20	=20	=20	=20	=20
!	!	!	!	!	!LO:TX:a:t=problem:mixed beam	!	!	!	!	!	!	!	!LO:PB:g=original	!
8D'\L	.	.	8f#X/L 8a	.	8dd\L	.	2r	.	8dd\	-men-	8r	.	8r	.
16d'\L	.	.	8f#/J 8a	.	8d/J	.	.	.	8d\	-tum.	16dd`\LL	.	16ddd`\LL	f
!	!	!	!	!	!	!	!	!	!	!	!	!LO:DY:t=for.	!	!
16e-'\JJ	.	.	.	.	.	.	.	.	.	.	16ee-`\JJ	f	16eee-`\JJ	.
!	!	!	!LO:TX:a:t=VS:	!	!	!	!	!	!	!	!	!	!	!
16d'\LL	.	.	4r	.	4r	.	.	.	4r	.	16dd`\LL	.	16ddd`\LL	.
16cn'\	.	.	.	.	.	.	.	.	.	.	16cc`\	.	16ccc`\	.
16B-'\	.	.	.	.	.	.	.	.	.	.	16b-`\	.	16bb-`\	.
16A'\JJ	.	.	.	.	.	.	.	.	.	.	16a`\JJ	.	16aa`\JJ	.
!LO:LB:g=original	!	!	!	!	!	!	!	!	!	!	!	!	!	!
!	!	!	!LO:PB:g=original	!LO:DY:t=po:	!	!	!	!	!	!	!	!	!	!
8G`\	.	.	8B-/	p	8d`>/	.	8g`\	Sex-	2r	.	8g`/	.	8gg`\	.
8r	.	.	8r	.	8r	.	(16g\LL	-ta-	.	.	8r	.	8r	.
.	.	.	.	.	.	.	16a\JJ)	.	.	.	.	.	.	.
8G`\	.	.	8B-/	.	8d`>/	.	(16cc\LL	-gin-	.	.	4r	.	4r	.
.	.	.	.	.	.	.	16b-\JJ)	.	.	.	.	.	.	.
8r	.	.	8r	.	8r	.	16a`\	-ta	.	.	.	.	.	.
.	.	.	.	.	.	.	16g`\	jam	.	.	.	.	.	.
=21	=21	=21	=21	=21	=21	=21	=21	=21	=21	=21	=21	=21	=21	=21
8F#X`\	.	.	8A/	.	8d`>/	.	8a`\	An-	0r	.	0r	.	0r	.
8r	.	.	8r	.	8r	.	8a`\	-ni	.	.	.	.	.	.
8F#`\	.	.	8A/	.	8d`>/	.	4d`/	Sunt	.	.	.	.	.	.
8r	.	.	8r	.	8r	.	.	.	.	.	.	.	.	.
!	!	!	!	!	!	!	!LO:LB:g=original	!	!	!	!	!	!	!
8F#`\	.	.	8A/	.	8d`>/	.	8a\	cum	.	.	.	.	.	.
8r	.	.	8r	.	8r	.	8a\	ac-	.	.	.	.	.	.
8F#`\	.	.	8A/	.	8d`>/	.	16a\	-ci-	.	.	.	.	.	.
.	.	.	.	.	.	.	16a\	-pi-	.	.	.	.	.	.
8r	.	.	8r	.	8r	.	16.dd\	-o	.	.	.	.	.	.
.	.	.	.	.	.	.	32cc\k	quo-	.	.	.	.	.	.
=22	=22	=22	=22	=22	=22	=22	=22	=22	=22	=22	=22	=22	=22	=22
8G\	.	.	8B-/	.	8d`>/	.	8.b-\	-ti-	.	.	.	.	.	.
8r	.	.	8r	.	8r	.	.	.	.	.	.	.	.	.
.	.	.	.	.	.	.	16a\k	-di-	.	.	.	.	.	.
8G\	.	.	8B-/	.	8d`>/	.	8g\	-e	.	.	.	.	.	.
8r	.	.	8r	.	8r	.	8dd\	quo-	.	.	.	.	.	.
.	.	.	.	.	.	.	16qqcc/	.	.	.	.	.	.	.
8G\	.	.	8B-/	.	8d`>/	.	8.b-\	.	.	.	.	.	.	.
8r	.	.	8r	.	8r	.	.	.	.	.	.	.	.	.
.	.	.	.	.	.	.	16a\k	-di-	.	.	.	.	.	.
8G\	.	.	8B-/	.	8d`>/	.	8g\	-e	.	.	.	.	.	.
8r	.	.	8r	.	8r	.	8dd\	di-	.	.	.	.	.	.
=23	=23	=23	=23	=23	=23	=23	=23	=23	=23	=23	=23	=23	=23	=23
!	!	!	!	!	!	!	!LO:LB:g=original	!	!LO:LB:g=original	!	!	!	!	!
8r	.	.	8r	.	8r	.	16.gg\	-mi-	2r	.	1r	.	1r	.
.	.	.	.	.	.	.	32cc#X\K	-di-	.	.	.	.	.	.
8E-X\L	6|	.	8g/L	.	8cc#X\L	.	8cc#\	-i	.	.	.	.	.	.
8E-\	.	.	8g/	.	8cc#\	.	8cc#\	Pa-	.	.	.	.	.	.
8E-\J	.	.	8g/J	.	8cc#\J	.	16cc#\	-nis	.	.	.	.	.	.
.	.	.	.	.	.	.	16cc#\	frag-	.	.	.	.	.	.
8D\L	#	.	8f#X/L 8a	.	8dd\L	.	8dd\	-men-	4r	.	.	.	.	.
8D\	.	.	16f#/L	.	16a\L	.	8d/	-tum	.	.	.	.	.	.
.	.	.	16f#/JJ	.	16a\JJ	.	.	.	.	.	.	.	.	.
8D\J	.	.	8f#/	.	8a\	.	4r	.	8r	.	.	.	.	.
8r	.	.	8r	.	8r	.	.	.	8dd\	frag-	.	.	.	.
=24	=24	=24	=24	=24	=24	=24	=24	=24	=24	=24	=24	=24	=24	=24
*	*	*	*	*	*2\right	*	*	*	*2\right	*	*2\right	*	*2\right	*
!	!	!	!LO:LB:g=original	!	!	!	!	!	!	!	!	!	!	!
!	!	!	!	!	!	!	!	!	!	!	!	!LO:DY:t=pianiſs:	!	!LO:DY:t=pianiſsimo
0r	.	.	[2.d/	.	2dd\	.	(16f#X\LL	Pa-	[2.dd\	-men-	[2.dd\	pp	[2.ddd\	pp
.	.	.	.	.	.	.	16a\	.	.	.	.	.	.	.
.	.	.	.	.	.	.	16f#\	.	.	.	.	.	.	.
.	.	.	.	.	.	.	16a\JJ)	.	.	.	.	.	.	.
.	.	.	.	.	.	.	(16g\LL	.	.	.	.	.	.	.
.	.	.	.	.	.	.	16b-\	.	.	.	.	.	.	.
.	.	.	.	.	.	.	16g\	.	.	.	.	.	.	.
.	.	.	.	.	.	.	16b-\JJ)	.	.	.	.	.	.	.
!	!	!	!	!	!	!	!LO:LB:g=original	!	!	!	!	!	!	!
.	.	.	.	.	[4dd\	.	(16a\LL	.	.	.	.	.	.	.
.	.	.	.	.	.	.	16cc\	.	.	.	.	.	.	.
.	.	.	.	.	.	.	16a\	.	.	.	.	.	.	.
.	.	.	.	.	.	.	16cc\JJ)	.	.	.	.	.	.	.
.	.	.	8d/]	.	8dd\]	.	8b-\	-nis	32dd\LLL]	.	8dd\]	.	8ddd\]	.
.	.	.	.	.	.	.	.	.	32gg\	.	.	.	.	.
.	.	.	.	.	.	.	.	.	32ff#X\	.	.	.	.	.
.	.	.	.	.	.	.	.	.	32gg\JJJ	.	.	.	.	.
!	!	!	!	!	!LO:TX:a:t=V&colon;S&colon;	!	!	!	!	!	!	!	!	!
.	.	.	8r	.	8r	.	16b-\LL	frag-	16dd\	-tum	8r	.	8r	.
.	.	.	.	.	.	.	16g\JJ	.	16dd\	frag-	.	.	.	.
=25	=25	=25	=25	=25	=25	=25	=25	=25	=25	=25	=25	=25	=25	=25
!	!	!	!	!	!LO:PB:g=original	!	!	!	!	!	!LO:LB:g=original	!	!	!
!LO:TX:b:t=VS:	!	!	!	!	!	!	!	!	!	!	!	!	!	!
.	.	.	[2.d/	.	(2dd\	p	16f#X\LL	-men-	[2.dd\	-men-	[2.dd\	.	[2.ddd\	.
.	.	.	.	.	.	.	16a\	.	.	.	.	.	.	.
.	.	.	.	.	.	.	16f#\	.	.	.	.	.	.	.
.	.	.	.	.	.	.	16a\JJ	.	.	.	.	.	.	.
.	.	.	.	.	.	.	16g\LL	.	.	.	.	.	.	.
.	.	.	.	.	.	.	16b-\	.	.	.	.	.	.	.
.	.	.	.	.	.	.	16g\	.	.	.	.	.	.	.
.	.	.	.	.	.	.	16b-\JJ	.	.	.	.	.	.	.
.	.	.	.	.	4dd\	.	16a\LL	.	.	.	.	.	.	.
.	.	.	.	.	.	.	16cc\	.	.	.	.	.	.	.
.	.	.	.	.	.	.	16a\	.	.	.	.	.	.	.
.	.	.	.	.	.	.	16cc\JJ	.	.	.	.	.	.	.
.	.	.	8d/]	.	8dd\)	.	8b-\	-tum	32dd\LLL]	.	8dd\]	.	8ddd\]	.
.	.	.	.	.	.	.	.	.	32gg\	.	.	.	.	.
.	.	.	.	.	.	.	.	.	32ff#X\	.	.	.	.	.
.	.	.	.	.	.	.	.	.	32gg\JJJ	.	.	.	.	.
.	.	.	16r	.	16r	.	8b-\	frag-	16dd\	-tum	8r	.	8r	.
.	.	.	16g/	.	16b-\	.	.	.	16gg\	frag-	.	.	.	.
=26	=26	=26	=26	=26	=26	=26	=26	=26	=26	=26	=26	=26	=26	=26
!LO:PB:g=original	!	!	!	!	!	!	!LO:LB:g=original	!	!LO:LB:g=original	!	!	!	!	!
2r	.	.	8a/L	.	8cc\L	.	8a\L	-men-	16ff#X\	-men-	8r	.	8r	.
.	.	.	.	.	.	.	.	.	16dd\	-tum	.	.	.	.
.	.	.	8g/	.	8b-\	.	8b-\	.	16r	.	8dd\	.	8ddd\	.
.	.	.	.	.	.	.	.	.	16gg\	frag-	.	.	.	.
.	.	.	8a/	.	8cc\	.	8a\	.	16ff#\	-men-	8r	.	8r	.
.	.	.	.	.	.	.	.	.	16dd\	-tum	.	.	.	.
.	.	.	8g/J	.	8b-\J	.	8b-\J	.	16r	.	8dd\	.	8ddd\	.
.	.	.	.	.	.	.	.	.	16gg\	frag-	.	.	.	.
8r	.	.	16a/LL	.	4r	.	16a/LL	.	16ff#\LL	-men-	2r	.	2r	.
.	.	.	16g/	.	.	.	16g/	.	16een\	.	.	.	.	.
8A\L	.	.	16f#X/	.	.	.	16f#X/	.	16dd\	.	.	.	.	.
.	.	.	16en/JJ	.	.	.	16en/JJ	.	16cc#X\JJ	.	.	.	.	.
8D\J	.	.	8f#/L	.	8r	.	8f#/	-tum	8dd\	-tum	.	.	.	.
8r	.	.	8b-X/J	.	8dd\	.	8b-\	frag-	16r	.	.	.	.	.
.	.	.	.	.	.	.	.	.	[16dd\	frag-	.	.	.	.
=27	=27	=27	=27	=27	=27	=27	=27	=27	=27	=27	=27	=27	=27	=27
!	!	!	!	!	!	!	!	!	!LO:LB:g=original	!	!	!	!LO:LB:g=original	!
2r	.	.	8cc\L	.	16dd\KL	.	8cc\L	-men-	16dd\KL]	-men-	00r	.	00r	.
.	.	.	.	.	8ee-\	.	.	.	8ee-X\	.	.	.	.	.
.	.	.	8a\	.	.	.	8a\J	.	.	.	.	.	.	.
.	.	.	.	.	8cc\	.	.	.	8ccn\	.	.	.	.	.
.	.	.	8b-\	.	.	.	8b-\L	.	.	.	.	.	.	.
.	.	.	.	.	8dd\	.	.	.	(8dd\	.	.	.	.	.
.	.	.	8g\J	.	.	.	8g\J	.	.	.	.	.	.	.
.	.	.	.	.	8b-\	.	.	.	8b-\	.	.	.	.	.
4r	.	.	8a/L	.	.	.	8a\L	.	.	.	.	.	.	.
.	.	.	.	.	8cc\	.	.	.	8cc\)	.	.	.	.	.
.	.	.	8f#X/J	.	.	.	8f#X\J	.	.	.	.	.	.	.
.	.	.	.	.	16a\Jk	.	.	.	16a\Jk	.	.	.	.	.
!LO:TX:a:t=problem:mixed beam	!	!	!	!	!	!	!	!	!	!	!	!	!	!
8G\L	.	.	8g/L	.	8b-\L	.	16g\KL	.	16b-\LL	.	.	.	.	.
.	.	.	.	.	.	.	8b-\	.	16dd\	.	.	.	.	.
8C#X/J	.	.	8g/J	.	8b-\J	.	.	.	16gg\	.	.	.	.	.
.	.	.	.	.	.	.	16g\Jk	.	16b-\JJ	.	.	.	.	.
=28	=28	=28	=28	=28	=28	=28	=28	=28	=28	=28	=28	=28	=28	=28
*2\right	*	*	*tremolo	*	*tremolo	*	*	*	*	*	*	*	*	*
!	!	!	!LO:LB:g=original	!	!	!	!LO:LB:g=original	!	!	!	!	!	!	!
.	.	.	.	.	.	.	8qg/	.	8qb-/	.	.	.	.	.
8D\L	#_	.	8f#X/L	.	8a\L	.	8f#X/	.	8a\	-tum	.	.	.	.
8D\	.	.	8f#X/	.	8a\	.	16r	.	16r	.	.	.	.	.
.	.	.	.	.	.	.	16f#/	frag-	16a\	frag-	.	.	.	.
8D\	.	.	8f#X/	.	8a\	.	16f#/LL	-men-	16a\LL	-men-	.	.	.	.
.	.	.	.	.	.	.	16a/JJ	.	16cc\JJ	.	.	.	.	.
.	.	.	.	.	.	.	8qb-/	.	8qdd/	.	.	.	.	.
8D\J	.	.	8f#X/J	.	8a\J	.	16a/LL	.	16cc\LL	.	.	.	.	.
.	.	.	.	.	.	.	32g/L	.	32b-\L	.	.	.	.	.
.	.	.	.	.	.	.	32f#/JJJ	.	32a\JJJ	.	.	.	.	.
*tremolo	*	*	*	*	*	*	*	*	*	*	*	*	*	*
8D\L	6 4	.	8g/L	.	8b-\L	.	8g/	-tum	8b-\	-tum	.	.	.	.
*	*	*	*	*	*	*	*	*	*	*	*	*	*	*
8D\	.	.	8g/	.	8b-\	.	16r	.	16r	.	.	.	.	.
.	.	.	.	.	.	.	16g\	frag-	16b-\	Frag-	.	.	.	.
8D\	.	.	8g/	.	8b-\	.	16g\LL	-men-	16b-\LL	-men-	.	.	.	.
.	.	.	.	.	.	.	16b-\JJ	.	16dd\JJ	.	.	.	.	.
.	.	.	.	.	.	.	8qcc/	.	8qee-/	.	.	.	.	.
8D\J	.	.	8g/J	.	8b-\J	.	16b-\LL	.	16dd\LL	.	.	.	.	.
.	.	.	.	.	.	.	32a\L	.	32cc\L	.	.	.	.	.
.	.	.	.	.	.	.	32g\JJJ	.	32b-\JJJ	.	.	.	.	.
*	*	*	*Xtremolo	*	*Xtremolo	*	*	*	*	*	*	*	*	*
=29	=29	=29	=29	=29	=29	=29	=29	=29	=29	=29	=29	=29	=29	=29
!	!	!	!	!	!	!	!	!	!LO:LB:g=original	!	!	!	!	!
8D\L	7 5	.	8a/L	.	8cc\L	.	8a\	-tum	8cc\	-tum	.	.	.	.
8d`\J	.	.	8a/J	.	8cc\J	.	8r	.	8r	.	.	.	.	.
16c`\LL	.	.	16f#X/LL	.	16a\LL	.	16f#X/LL	Pa-	16a\LL	Pa-	.	.	.	.
16B-'\	.	.	16g/	.	16b-\	.	16g/	.	16b-\	.	.	.	.	.
16A'\	.	.	16a/	.	16cc\	.	16a/	.	16cc\	.	.	.	.	.
16G'\JJ	.	.	16b-/JJ	.	16dd\JJ	.	16b-/JJ	.	16dd\JJ	.	.	.	.	.
!	!	!	!	!	!LO:LB:g=original	!	!LO:LB:g=original	!	!	!	!	!	!	!
8F#X\L	.	.	4cc/	.	4ee-\	.	4cc\	.	4ee-\	.	.	.	.	.
8F#X\	.	.	.	.	.	.	.	.	.	.	.	.	.	.
8F#X\	.	.	8b-/L	.	8dd\L	.	8b-\	-nis	8dd\	-nis	.	.	.	.
8F#X\J	.	.	8a/J	.	8cc\J	.	8a\	Frag-	8cc\	Frag-	.	.	.	.
*Xtremolo	*	*	*	*	*	*	*	*	*	*	*	*	*	*
=30	=30	=30	=30	=30	=30	=30	=30	=30	=30	=30	=30	=30	=30	=30
!LO:LB:g=original	!	!	!	!	!	!	!	!	!	!	!	!	!	!
!LO:TX:a:t=problem:mixed beam	!	!	!	!	!	!	!	!	!	!	!	!	!	!
8G\L	.	.	8g\L	.	8b-\L	.	16g\LL	-men-	16b-\LL	-men-	.	.	.	.
.	.	.	.	.	.	.	16b-\	.	16gg\	.	.	.	.	.
8c\	.	.	16cc\L	.	16ee-\L	.	16cc\	.	16ee-\	.	.	.	.	.
.	.	.	16a\JJ	.	16cc\JJ	.	16a\JJ	.	16cc\JJ	.	.	.	.	.
8d\	.	.	8g/L	.	8b-/L	.	8g/L	.	8b-\L	.	.	.	.	.
8D/J	.	.	8f#X/J	.	8a/J	.	8f#X/J	.	8a\J	.	.	.	.	.
!!LO:TX:a:t=problem:mixed beam	!	!	!	!	!	!	!	!	!	!	!	!	!	!
8G\L	.	.	4g/	.	4g/	.	4g/	-tum	4g\	-tum	.	.	.	.
8GG/	.	.	.	.	.	.	.	.	.	.	.	.	.	.
8G\	5 n	.	4d/	.	4bn\	.	8.d/L	Pa-	8.bn\L	Pa-	.	.	.	.
8G\J	.	.	.	.	.	.	.	.	.	.	.	.	.	.
.	.	.	.	.	.	.	32e-/LL	.	32cc\LL	.	.	.	.	.
!	!	!	!	!	!	!	!LO:TX:a:t=VS:	!	!LO:TC:b:t=VS.	!	!	!	!	!
.	.	.	.	.	.	.	32fn/JJJ	.	32dd\JJJ	.	.	.	.	.
=31	=31	=31	=31	=31	=31	=31	=31	=31	=31	=31	=31	=31	=31	=31
!	!	!	!	!	!	!	!LO:PB:g=original	!	!LO:PB:g=original	!	!	!	!	!
8G\L	6 4	.	4e-/	.	4cc\	.	4e-/	-nis	4cc\	-nis	0r	.	0r	.
8G\J	.	.	.	.	.	.	.	.	.	.	.	.	.	.
8G\L	7: 5:	.	4bn\	.	4dd\	.	8.bn\L	Pa-	(8.dd\L	Pa-	.	.	.	.
8G\J	.	.	.	.	.	.	.	.	.	.	.	.	.	.
.	.	.	.	.	.	.	32cc\LL	.	32ee-\LL	.	.	.	.	.
.	.	.	.	.	.	.	32dd\JJJ	.	32ff\JJJ)	.	.	.	.	.
8C\	3	.	8cc\	.	8ee-\	.	16cc\LL	.	16ee-\LL	.	.	.	.	.
.	.	.	.	.	.	.	16dd\	.	16ff\	.	.	.	.	.
8r	.	.	8r	.	8r	.	16ee-\	.	16gg\	.	.	.	.	.
.	.	.	.	.	.	.	16dd\JJ	.	16ff\JJ	.	.	.	.	.
4r	.	.	4r	.	4r	.	16cc\LL	.	16ee-\LL	.	.	.	.	.
!	!	!	!	!	!	!	!LO:TX:a:t=SIC:s=b-	!	!	!	!	!	!	!
.	.	.	.	.	.	.	16b\	.	16dd\	.	.	.	.	.
.	.	.	.	.	.	.	16a\	.	16cc\	.	.	.	.	.
.	.	.	.	.	.	.	16g\JJ	.	16b-\JJ	.	.	.	.	.
=32	=32	=32	=32	=32	=32	=32	=32	=32	=32	=32	=32	=32	=32	=32
.	.	.	.	.	.	.	8qqg/	.	8qqb-/	.	.	.	.	.
4r	.	.	4r	.	4r	.	4f\	.	4a\	-nis	.	.	.	.
8F\L	5: 3:	.	4c/	.	4a\	.	8.c/L	Pa-	8.a\L	Pa-	.	.	.	.
8F\J	.	.	.	.	.	.	.	.	.	.	.	.	.	.
.	.	.	.	.	.	.	32d/LL	.	32b-\LL	.	.	.	.	.
.	.	.	.	.	.	.	32e-/JJJ	.	32cc\JJJ	.	.	.	.	.
!	!	!	!LO:LB:g=original	!	!	!	!	!	!	!	!	!	!	!
8F\L	6: 4:	.	4d/	.	4b-X\	.	4d/	-nis	4b-\	-nis	.	.	.	.
8F\J	.	.	.	.	.	.	.	.	.	.	.	.	.	.
8F\L	7: 5:	.	4a\	.	4cc\	.	8.a\L	Pa-	8.cc\L	Pa-	.	.	.	.
8F\J	.	.	.	.	.	.	.	.	.	.	.	.	.	.
.	.	.	.	.	.	.	32b-\LL	.	32dd\LL	.	.	.	.	.
.	.	.	.	.	.	.	32cc\JJJ	.	32ee-\JJJ	.	.	.	.	.
=33	=33	=33	=33	=33	=33	=33	=33	=33	=33	=33	=33	=33	=33	=33
!	!	!	!	!	!	!	!LO:LB:g=original	!	!LO:LB:g=original	!	!LO:TX:a:t=VS:	!	!	!
8BB-/	.	.	8b-\	.	8dd\	.	16b-\LL	.	16dd\LL	.	1r	.	1r	.
.	.	.	.	.	.	.	16cc\	.	16ee-\	.	.	.	.	.
8r	.	.	8r	.	8r	.	16dd\	.	16ff\	.	.	.	.	.
.	.	.	.	.	.	.	16cc\JJ	.	16ee-\JJ	.	.	.	.	.
8r	.	.	4r	.	4r	.	16b-\LL	.	16dd\LL	.	.	.	.	.
.	.	.	.	.	.	.	16a-X\	.	16cc\	.	.	.	.	.
8D/	.	.	.	.	.	.	16g\	.	16b-\	.	.	.	.	.
.	.	.	.	.	.	.	16f\JJ	.	16a-X\JJ	.	.	.	.	.
8E-\	.	.	8r	.	8r	.	8e-\L	.	8g\L	.	.	.	.	.
8r	.	.	8ee-\L	.	8gg\L	.	8ee-\	.	8gg\	.	.	.	.	.
4r	.	.	8dd\	.	8ff\	.	8dd\	.	8ff\	.	.	.	.	.
.	.	.	8cc\J	.	8ee-\J	.	8cc\J	.	8ee-\J	.	.	.	.	.
=34	=34	=34	=34	=34	=34	=34	=34	=34	=34	=34	=34	=34	=34	=34
!LO:LB:g=original	!	!	!	!	!	!	!	!	!	!	!	!	!	!
!LO:TX:a:t=problem:mixed beam	!	!	!	!	!	!	!	!	!	!	!LO:PB:g=original	!	!	!
8F\L	.	.	8.b-\L	.	8.dd\L	.	8.b-\L	.	8.dd\L	.	2r	.	2r	.
8F\	.	.	.	.	.	.	.	.	.	.	.	.	.	.
.	.	.	16dd\Jk	.	16ff\Jk	.	16dd\Jk	.	16ff\Jk	.	.	.	.	.
8FF/	.	.	16dd\LL	.	(16ff\LL	.	16dd\LL	.	16ff\LL	.	.	.	.	.
.	.	.	16cc\	.	16ee-\	.	16cc\JJ	.	16ee-\	.	.	.	.	.
8FF/J	.	.	16b-\	.	16dd\	.	16f/LL	.	16dd\	.	.	.	.	.
.	.	.	16a\JJ	.	16cc\JJ)	.	16e-/JJ	.	16cc\JJ	.	.	.	.	.
!	!	!	!	!	!LO:LB:g=original	!LO:DY:t=for:	!	!	!	!	!	!	!	!
8D\	6	f	16f/LL 16dd	f	16d/LL 16b- 16bb-	f	8d/	-nis.	8b-\	-nis	16ff\LL	.	16ddd'\LL	.
!	!	!	!	!	!	!	!	!	!	!	!	!	!	!LO:DY:t=fortiſsimo
.	.	.	32dd/L	.	32bb-/L	.	.	.	.	.	32ff\L	f	32ddd'\L	ff
.	.	.	32dd/JJJ	.	32bb-/JJJ	.	.	.	.	.	32ff\JJJ	.	32ddd'\JJJ	.
8r	.	.	16dd/LL	.	16bb-/LL	.	8r	.	8r	.	16ff\LL	.	16ddd'\LL	.
.	.	.	16dd/JJ	.	16bb-/JJ	.	.	.	.	.	16ff\JJ	.	16ddd'\JJ	.
8E-\	.	.	16g/LL 16ee-	.	16e-/LL 16b- 16bb-	.	8r	.	8r	.	16gg\LL	.	16eee-'\LL	.
.	.	.	32ee-/L	.	32bb-/L	.	.	.	.	.	32gg\L	.	32eee-'\L	.
.	.	.	32ee-/JJJ	.	32bb-/JJJ	.	.	.	.	.	32gg\JJJ	.	32eee-'\JJJ	.
8r	.	.	16ee-/LL	.	16bb-/LL	.	16r	.	16r	.	16gg\LL	.	16eee-'\LL	.
.	.	.	16ee-/JJ	.	16bb-/JJ	.	16ee-\	Frag-	16gg\	Frag-	16gg\JJ	.	16eee-'\JJ	.
=35	=35	=35	=35	=35	=35	=35	=35	=35	=35	=35	=35	=35	=35	=35
!	!	!	!	!LO:DY:t=po:	!	!LO:DY:t=po:	!	!	!LO:LB:g=original	!	!	!	!	!
8r	.	.	8.dd\L	p	8.ff\L	p	8.dd\L	-men-	8.ff\L	-men-	8ff\	.	8ddd\	.
!LO:TX:a:t=problem:mixed beam	!	!	!	!	!	!	!	!	!	!	!	!	!	!
8BB-/L	.	p	.	.	.	.	.	.	.	.	8r	.	8r	.
.	.	.	16b-\Jk	.	16dd\Jk	.	16b-\Jk	.	16dd\Jk	.	.	.	.	.
8F\	.	.	(16dd\LL	.	(16ff\LL	.	16dd\LL	.	16ff\LL	.	4r	.	4r	.
.	.	.	16cc\	.	16ee-\	.	16cc\	.	16ee-\	.	.	.	.	.
8FF/J	.	.	16b-\	.	16dd\	.	16b-\	.	16dd\	.	.	.	.	.
.	.	.	16a\JJ)	.	16cc\JJ)	.	16a\JJ	.	16cc\JJ	.	.	.	.	.
!	!	!	!LO:LB:g=original	!	!	!	!LO:LB:g=original	!	!	!	!	!	!	!
8D\	6	f	16f/LL 16dd	f	16d/LL 16b- 16bb-	f	8b-\	-tum	8dd\	-tum	16ff\LL	.	16ddd'\LL	.
.	.	.	32dd/L	.	32bb-/L	.	.	.	.	.	32ff\L	.	32ddd'\L	.
.	.	.	32dd/JJJ	.	32bb-/JJJ	.	.	.	.	.	32ff\JJJ	.	32ddd'\JJJ	.
8r	.	.	16dd/LL	.	16bb-/LL	.	8r	.	8r	.	16ff\LL	.	16ddd'\LL	.
.	.	.	16dd/JJ	.	16bb-/JJ	.	.	.	.	.	16ff\JJ	.	16ddd'\JJ	.
8E-\	.	.	16g/LL 16ee-	.	16e-\LL 16b- 16bb-	.	8r	.	8r	.	16gg\LL	.	16eee-'\LL	.
.	.	.	32ee-/L	.	32bb-\L	.	.	.	.	.	32gg\L	.	32eee-'\L	.
.	.	.	32ee-/JJJ	.	32bb-\JJJ	.	.	.	.	.	32gg\JJJ	.	32eee-'\JJJ	.
8r	.	.	16ee-/LL	.	16bb-\LL	.	16r	.	16r	.	16gg\LL	.	16eee-'\LL	.
.	.	.	16ee-/JJ	.	16bb-\JJ	.	16ee-\	frag-	16gg\	frag-	16gg\JJ	.	16eee-'\JJ	.
=36	=36	=36	=36	=36	=36	=36	=36	=36	=36	=36	=36	=36	=36	=36
!	!	!	!	!	!	!	!	!	!	!	!	!	!LO:LB:g=original	!
8r	.	.	8.dd\L	p	8.ff\L	.	8.dd\L	-men-	8.ff\L	-men-	8ff\	.	8ddd\	.
!LO:TX:a:t=problem:mixed beam	!	!	!	!	!	!	!	!	!	!	!	!	!	!
8BB-/L	.	p	.	.	.	.	.	.	.	.	8r	.	8r	.
!	!	!	!	!	!	!LO:DY:t=po:	!	!	!	!	!	!	!	!
.	.	.	16b-\Jk	.	16d\Jk	p	16b-\Jk	.	16dd\Jk	.	.	.	.	.
8F\	.	.	16dd\LL	.	(16ff\LL	.	16dd\LL	.	16ff\LL	.	4r	.	4r	.
.	.	.	16cc\	.	16ee-\	.	16cc\	.	16ee-\	.	.	.	.	.
8FF/J	.	.	16b-\	.	16dd\	.	16b-\	.	16dd\	.	.	.	.	.
.	.	.	16a\JJ	.	16cc\JJ)	.	16a\JJ	.	16cc\JJ	.	.	.	.	.
!	!	!	!	!	!	!	!	!	!	!	!LO:TX:a:t=Tutti	!	!	!
8BB-/	.	.	16B-/LL	.	8b-\L	.	8b-\	-tum.	8b-\	-tum.	4dd\	.	4bb-\	.
!	!	!	!LO:TX:a:t=Tutti	!	!	!	!	!	!	!	!	!	!	!
.	.	.	16f/	.	.	.	.	.	.	.	.	.	.	.
!LO:TX:a:t=Tutti	!	!	!	!	!	!	!	!	!	!	!	!	!	!
!	!	!	!	!	!	!	!	!	!	!	!	!	!	!
8r	.	.	16d/	.	(32dd\LL	.	8r	.	8r	.	.	.	.	.
!	!	!	!	!	!LO:TX:a:t=Tutti	!	!	!	!	!	!	!	!	!
.	.	.	.	.	32cc\	.	.	.	.	.	.	.	.	.
!	!	!	!	!	!	!	!	!	!	!	!	!	!	!
.	.	.	16f/JJ	.	32dd\	.	.	.	.	.	.	.	.	.
.	.	.	.	.	32ee-\JJJ)	f	.	.	.	.	.	.	.	.
8BB-/	.	f	16B-/LL	.	8ff\L	.	4r	.	4r	.	8r	.	8r	.
.	.	.	16f/	.	.	.	.	.	.	.	.	.	.	.
8r	.	.	16d/	.	8b-\J	.	.	.	.	.	8dd\	.	8bb-\	.
.	.	.	16f/JJ	.	.	.	.	.	.	.	.	.	.	.
=37	=37	=37	=37	=37	=37	=37	=37	=37	=37	=37	=37	=37	=37	=37
!	!	!	!	!	!LO:LB:g=original	!	!	!	!	!	!LO:LB:g=original	!	!	!
8C/	7	.	16c/LL	.	(8b-\L	.	00r	.	00r	.	4cc\	.	4bb-\	.
.	.	.	16f/	.	.	.	.	.	.	.	.	.	.	.
8r	.	.	16e-/	.	32cc\LL	.	.	.	.	.	.	.	.	.
.	.	.	.	.	32b-\	.	.	.	.	.	.	.	.	.
.	.	.	16f/JJ	.	32a\	.	.	.	.	.	.	.	.	.
.	.	.	.	.	32b-\JJJ)	.	.	.	.	.	.	.	.	.
*	*	*	*rep	*	*	*	*	*	*	*	*	*	*	*
8C/	6	.	16c/LL	.	4a\	.	.	.	.	.	4cc\	.	4aa\	.
.	.	.	16f/	.	.	.	.	.	.	.	.	.	.	.
8r	.	.	16e-/	.	.	.	.	.	.	.	.	.	.	.
.	.	.	16f/JJ	.	.	.	.	.	.	.	.	.	.	.
*	*	*	*Xrep	*	*	*	*	*	*	*	*	*	*	*
!LO:LB:g=original	!	!	!	!	!	!	!	!	!	!	!	!	!	!
8AA/	.	.	16A/LL	.	(16cc\LL	.	.	.	.	.	4r	.	4r	.
.	.	.	16f/	.	16ee-\	.	.	.	.	.	.	.	.	.
8r	.	.	16c/	.	16ee-\	.	.	.	.	.	.	.	.	.
.	.	.	16f/JJ	.	16gg\JJ	.	.	.	.	.	.	.	.	.
*	*	*	*rep	*	*	*	*	*	*	*	*	*	*	*
8AA/	.	.	16A/LL	.	16gg\LL	.	.	.	.	.	8r	.	8r	.
.	.	.	16f/	.	16ff\	.	.	.	.	.	.	.	.	.
8r	.	.	16c/	.	16ff\	.	.	.	.	.	16r	.	16r	.
.	.	.	16f/JJ	.	16ee-\JJ)	.	.	.	.	.	16ee-\	.	16ccc\	.
*	*	*	*Xrep	*	*	*	*	*	*	*	*	*	*	*
=38	=38	=38	=38	=38	=38	=38	=38	=38	=38	=38	=38	=38	=38	=38
!	!	!	!LO:LB:g=original	!	!	!	!	!	!	!	!	!	!	!
8BB-/	9:	.	16B-/LL	.	8ee-\L	.	.	.	.	.	4ee-\	.	4ccc\	.
.	.	.	16f/	.	.	.	.	.	.	.	.	.	.	.
8r	.	.	16d/	.	32ff\LL	.	.	.	.	.	.	.	.	.
.	.	.	.	.	32ee-\	.	.	.	.	.	.	.	.	.
.	.	.	16f/JJ	.	32dd\	.	.	.	.	.	.	.	.	.
.	.	.	.	.	32ee-\JJJ	.	.	.	.	.	.	.	.	.
*	*	*	*rep	*	*	*	*	*	*	*	*	*	*	*
8BB-/L	8	.	16B-/LL	.	16dd'\LL	.	.	.	.	.	4dd\	.	4bb-\	.
.	.	.	16f/	.	16bb-'\	.	.	.	.	.	.	.	.	.
8D/J	.	.	16d/	.	16bb-'\	.	.	.	.	.	.	.	.	.
.	.	.	16f/JJ	.	16bb-'\JJ	.	.	.	.	.	.	.	.	.
*tremolo	*	*	*Xrep	*	*	*	*	*	*	*	*	*	*	*
8E-\L	.	.	16B-/LL	.	24bb-\LL	.	.	.	.	.	8r	.	8r	.
.	.	.	.	.	24aa\	.	.	.	.	.	.	.	.	.
.	.	.	16g/	.	.	.	.	.	.	.	.	.	.	.
.	.	.	.	.	24gg\J	.	.	.	.	.	.	.	.	.
8E-\	.	.	16e-/	.	[8gg\J	.	.	.	.	.	8b-\L	.	8gg\L	.
.	.	.	16g/JJ	.	.	.	.	.	.	.	.	.	.	.
*	*	*	*rep	*	*	*	*	*	*	*	*	*	*	*
8E-\	.	.	16B-/LL	.	16gg\LL]	.	.	.	.	.	8b-\	.	8gg\	.
.	.	.	16g/	.	16bb-'\	.	.	.	.	.	.	.	.	.
8E-\J	.	.	16e-/	.	16bb-'\	.	.	.	.	.	8b-\J	.	8gg\J	.
.	.	.	16g/JJ	.	16bb-'\JJ	.	.	.	.	.	.	.	.	.
*	*	*	*Xrep	*	*	*	*	*	*	*	*	*	*	*
=39	=39	=39	=39	=39	=39	=39	=39	=39	=39	=39	=39	=39	=39	=39
8D\L	6	.	16B-/LL	.	32bb-\LLL	.	.	.	.	.	8r	.	8r	.
.	.	.	.	.	32aa\	.	.	.	.	.	.	.	.	.
.	.	.	16f/	.	32gg\	.	.	.	.	.	.	.	.	.
.	.	.	.	.	32ff\JJ	.	.	.	.	.	.	.	.	.
8D\	.	.	16d/	.	[8ff\J	.	.	.	.	.	8b-\L	.	8ff\L	.
.	.	.	16f/JJ	.	.	.	.	.	.	.	.	.	.	.
*	*	*	*rep	*	*	*	*	*	*	*	*	*	*	*
8D\	.	.	16B-/LL	.	16ff\LL]	.	.	.	.	.	8b-\	.	8ff\	.
.	.	.	16f/	.	16bb-\	.	.	.	.	.	.	.	.	.
8d\J	.	.	16d/	.	16bb-\	.	.	.	.	.	8b-\J	.	8ff\J	.
.	.	.	16f/JJ	.	16dd\JJ	.	.	.	.	.	.	.	.	.
*	*	*	*Xrep	*	*	*	*	*	*	*	*	*	*	*
!	!	!	!	!	!LO:LB:g=original	!	!	!	!	!	!	!	!	!
8e-'\L	.	.	8g/L	.	16dd\LL	.	.	.	.	.	2r	.	2r	.
.	.	.	.	.	16cc\	.	.	.	.	.	.	.	.	.
8f'\	.	.	8a-X/	.	16cc\	.	.	.	.	.	.	.	.	.
.	.	.	.	.	16bn\JJ	.	.	.	.	.	.	.	.	.
8e-'\	.	.	8g/	.	16b\LL	.	.	.	.	.	.	.	.	.
.	.	.	.	.	16cc\	.	.	.	.	.	.	.	.	.
8Bn'\J	.	.	8g/J	.	16cc\	.	.	.	.	.	.	.	.	.
.	.	.	.	.	16dd\JJ	.	.	.	.	.	.	.	.	.
=40	=40	=40	=40	=40	=40	=40	=40	=40	=40	=40	=40	=40	=40	=40
*	*	*	*tremolo	*	*	*	*	*	*	*	*	*	*	*
8c\L	3	.	8g/L	.	16dd\LL	.	.	.	.	.	1r	.	1r	.
.	.	.	.	.	16ee-\	.	.	.	.	.	.	.	.	.
8Bn\	3	.	8g/	.	16ee-\	.	.	.	.	.	.	.	.	.
.	.	.	.	.	16dd\JJ	.	.	.	.	.	.	.	.	.
8c\	3	.	8g/	.	16dd\LL	.	.	.	.	.	.	.	.	.
.	.	.	.	.	16ee-\	.	.	.	.	.	.	.	.	.
8d\J	3	.	8g/J	.	16ee-\	.	.	.	.	.	.	.	.	.
.	.	.	.	.	16ff\JJ	.	.	.	.	.	.	.	.	.
.	.	.	.	.	16qqff#X/	.	.	.	.	.	.	.	.	.
!LO:TX:a:t=problem:mixed beam	!	!	!	!	!	!	!	!	!	!	!	!	!	!
8e-\L	3	.	8g/L	.	16gg\LL	.	.	.	.	.	.	.	.	.
.	.	.	.	.	16qqdd/	.	.	.	.	.	.	.	.	.
.	.	.	.	.	16ee-\J	.	.	.	.	.	.	.	.	.
*	*	*	*	*	*	*	*	*	*	*	*	*	*	*
!	!	!	!	!	!	!	!	!	!	!	!	!	!	!
8e-\	3	.	8g/	.	8cc\J	.	.	.	.	.	.	.	.	.
8E-/	6	.	8g/	.	(32gg\LLL	.	.	.	.	.	.	.	.	.
.	.	.	.	.	32ffn\	.	.	.	.	.	.	.	.	.
.	.	.	.	.	32ee-\	.	.	.	.	.	.	.	.	.
.	.	.	.	.	32dd\	.	.	.	.	.	.	.	.	.
8En/J	5	.	8g/J	.	32cc\	.	.	.	.	.	.	.	.	.
.	.	.	.	.	32b-X\	.	.	.	.	.	.	.	.	.
.	.	.	.	.	32a\	.	.	.	.	.	.	.	.	.
.	.	.	.	.	32b-\JJJ)	.	.	.	.	.	.	.	.	.
*	*	*	*Xtremolo	*	*	*	*	*	*	*	*	*	*	*
=41	=41	=41	=41	=41	=41	=41	=41	=41	=41	=41	=41	=41	=41	=41
!LO:LB:g=original	!	!	!	!	!	!	!	!	!	!	!	!	!LO:LB:g=original	!
8F\L	7_	.	8an/L	.	16a\LL	.	00r	.	00r	.	2r	.	2r	.
.	.	.	.	.	16cc\	.	.	.	.	.	.	.	.	.
8F\	.	.	8a/	.	16cc\	.	.	.	.	.	.	.	.	.
.	.	.	.	.	16ee-\JJ	.	.	.	.	.	.	.	.	.
.	.	.	.	.	16qqff/	.	.	.	.	.	.	.	.	.
8F#X\	.	.	8a/	.	16ee-\LL	.	.	.	.	.	.	.	.	.
.	.	.	.	.	32dd\L	.	.	.	.	.	.	.	.	.
.	.	.	.	.	32ee-\JJ	.	.	.	.	.	.	.	.	.
8G\J	5	.	8b-/J	.	8dd\J	.	.	.	.	.	.	.	.	.
!	!	!	!	!	!LO:LB:g=original	!	!	!	!	!	!	!	!	!
4E-\	.	.	4g/	.	(32dd\LLL	.	.	.	.	.	4r	.	4r	.
.	.	.	.	.	32cc\	.	.	.	.	.	.	.	.	.
.	.	.	.	.	32ee-\	.	.	.	.	.	.	.	.	.
.	.	.	.	.	32dd\	.	.	.	.	.	.	.	.	.
.	.	.	.	.	32ff\	.	.	.	.	.	.	.	.	.
.	.	.	.	.	32ee-\	.	.	.	.	.	.	.	.	.
.	.	.	.	.	32dd\	.	.	.	.	.	.	.	.	.
.	.	.	.	.	32cc\JJJ)	.	.	.	.	.	.	.	.	.
!LO:TX:a:t=problem:mixed beam	!	!	!	!	!	!	!	!	!	!	!	!	!	!
!LO:TX:a:t=SIC:s=Fn	!	!	!	!	!	!	!	!	!	!	!	!	!LO:TX:a:t=Solo	!
8F#\L	6 4	.	8d/L	.	8b-\L	.	.	.	.	.	8dd\L	.	8bb-\L	.
8FF/J	5 3	.	8c/J	.	8a\J	.	.	.	.	.	8cc\J	.	8aa\J	.
=42	=42	=42	=42	=42	=42	=42	=42	=42	=42	=42	=42	=42	=42	=42
!	!	!	!LO:LB:g=original	!	!	!	!	!	!	!	!	!	!	!
8BB-/	.	.	8d/	.	8b-\	.	.	.	.	.	16dd\	.	16bb-`\LL	.
.	.	.	.	.	.	.	.	.	.	.	16r	.	32fff`\L	.
.	.	.	.	.	.	.	.	.	.	.	.	.	32ddd'\	.
8r	.	.	8r	.	8r	.	.	.	.	.	8r	.	32bb-'\	.
.	.	.	.	.	.	.	.	.	.	.	.	.	32ff'\	.
.	.	.	.	.	.	.	.	.	.	.	.	.	32dd'\	.
.	.	.	.	.	.	.	.	.	.	.	.	.	32b-'\JJJ	.
!	!	!	!	!	!	!	!	!	!	!	!	!	!LO:TX:a:t=problem:mixed beam	!
8r	.	.	16r	.	16r	.	.	.	.	.	16r	.	16f`/LL	.
!	!	!	!	!LO:DY:t=po:	!	!	!	!	!	!	!	!	!	!
.	.	.	16dd\LL	p	16ff\LL	p	.	.	.	.	(16ddd\LL	.	16fff`\	.
!	!	!LO:DY:t=po:	!	!	!	!	!	!	!	!	!	!	!	!
8BB-/	.	p	16cc\	.	16ee-\	.	.	.	.	.	16ccc\	.	(16eee-\	.
.	.	.	16b-\JJ	.	16dd\JJ	.	.	.	.	.	16bb-\JJ)	.	16ddd\JJ)	.
!	!	!	!	!	!	!	!	!	!	!	!LO:LB:g=original	!	!	!
8F\	.	.	8cc\	.	8ee-\	.	.	.	.	.	16ccc\	.	16r	.
.	.	.	.	.	.	.	.	.	.	.	16r	.	32eee-'\LLL	.
.	.	.	.	.	.	.	.	.	.	.	.	.	32ccc'\	.
8r	.	.	8r	.	8r	.	.	.	.	.	8r	.	32aa'\	.
.	.	.	.	.	.	.	.	.	.	.	.	.	32ff'\	.
.	.	.	.	.	.	.	.	.	.	.	.	.	32ee-'\	.
.	.	.	.	.	.	.	.	.	.	.	.	.	32cc'\JJJ	.
!	!	!	!	!	!	!	!	!	!	!	!	!	!LO:TX:a:t=problem:mixed beam	!
8r	.	.	16r	.	16r	.	.	.	.	.	16r	.	16a'/LL	.
.	.	.	16cc\LL	.	16ee-\LL	.	.	.	.	.	(16ccc\LL	.	16eee-'\	.
8F\	.	.	16b-\	.	16dd\	.	.	.	.	.	16bb-\	.	(16ddd\	.
.	.	.	16a\JJ	.	16cc\JJ	.	.	.	.	.	16aa\JJ)	.	16ccc\JJ)	.
=43	=43	=43	=43	=43	=43	=43	=43	=43	=43	=43	=43	=43	=43	=43
!	!	!	!	!	!	!	!	!	!	!	!	!	!LO:LB:g=original	!
!	!	!	!	!	!	!	!	!	!	!	!	!	!LO:TX:a:t=problem:troiole oznaczone kropką pod klamrą łukową	!
8B-\	.	.	8b-\	.	8dd\	.	.	.	.	.	24bb-\LL	.	24ddd\LL	.
.	.	.	.	.	.	.	.	.	.	.	24aa\	.	24ccc#X\	.
.	.	.	.	.	.	.	.	.	.	.	24bb-\JJ	.	24ddd\JJ	.
8r	.	.	8r	.	8r	.	.	.	.	.	24bb-\LL	.	24ddd\LL	.
.	.	.	.	.	.	.	.	.	.	.	24aa\	.	24ccc#\	.
.	.	.	.	.	.	.	.	.	.	.	24bb-\JJ	.	24ddd\JJ	.
!	!	!	!	!	!	!	!	!	!	!	!	!	!LO:TX:a:t=problem:triole bez oznaczenia	!
8G\	.	.	8b-\	.	8dd\	.	.	.	.	.	24bb-\LL	.	24ddd\LL	.
.	.	.	.	.	.	.	.	.	.	.	24aa\	.	24ccc#\	.
.	.	.	.	.	.	.	.	.	.	.	24bb-\JJ	.	24ddd\JJ	.
8r	.	.	8r	.	8r	.	.	.	.	.	24bb-\LL	.	24ddd\LL	.
.	.	.	.	.	.	.	.	.	.	.	24aa\	.	24ccc#\	.
.	.	.	.	.	.	.	.	.	.	.	24bb-\JJ	.	24ddd\JJ	.
!LO:TX:a:t=problem:mixed beam	!	!	!	!	!	!	!	!	!	!	!	!	!	!
8E-\L	.	.	4r	.	4r	.	.	.	.	.	16gg`\LL	.	16cccn\LL	.
.	.	.	.	.	.	.	.	.	.	.	(16gg\	.	16eee-\	.
8E-\	.	.	.	.	.	.	.	.	.	.	16ff\	.	16ddd\	.
.	.	.	.	.	.	.	.	.	.	.	16ee-\JJ)	.	16ccc\JJ	.
8F\	.	.	16e-/LL	.	16cc\LL	.	.	.	.	.	(16ee-\LL	.	16ccc\LL	.
.	.	.	16d/	.	16b-\	.	.	.	.	.	16dd\	.	16bb-\	.
8FF/J	.	.	16d/	.	16b-\	.	.	.	.	.	16dd\	.	16bb-\	.
.	.	.	16c/JJ	.	16a\JJ	.	.	.	.	.	16cc\JJ)	.	16aa\JJ	.
=44	=44	=44	=44	=44	=44	=44	=44	=44	=44	=44	=44	=44	=44	=44
8BB-/	.	.	8d/	.	8b-\	.	.	.	.	.	24bb-\LL	.	24ddd\LL	.
.	.	.	.	.	.	.	.	.	.	.	24aa\	.	24ccc#X\	.
.	.	.	.	.	.	.	.	.	.	.	24bb-\JJ	.	24ddd\JJ	.
8r	.	.	8r	.	8r	.	.	.	.	.	24bb-\LL	.	24ddd\LL	.
.	.	.	.	.	.	.	.	.	.	.	24aa\	.	24ccc#\	.
.	.	.	.	.	.	.	.	.	.	.	24bb-\JJ	.	24ddd\JJ	.
*	*	*	*	*	*	*	*	*	*	*	*rep	*	*	*
8G\	.	.	8b-\	.	8dd\	.	.	.	.	.	24bb-\LL	.	24ddd\LL	.
.	.	.	.	.	.	.	.	.	.	.	24aa\	.	24ccc#\	.
.	.	.	.	.	.	.	.	.	.	.	24bb-\JJ	.	24ddd\JJ	.
*	*	*	*	*	*	*	*	*	*	*	*Xrep	*	*	*
*	*	*	*	*	*	*	*	*	*	*	*rep	*	*	*
8r	.	.	8r	.	8r	.	.	.	.	.	24bb-\LL	.	24ddd\LL	.
.	.	.	.	.	.	.	.	.	.	.	24aa\	.	24ccc#\	.
.	.	.	.	.	.	.	.	.	.	.	24bb-\JJ	.	24ddd\JJ	.
*	*	*	*	*	*	*	*	*	*	*	*Xrep	*	*	*
!LO:LB:g=original	!	!	!	!	!LO:LB:g=original	!	!	!	!	!	!LO:LB:g=original	!	!LO:LB:g=original	!
!LO:TX:a:t=problem:mixed beam	!	!	!	!	!	!	!	!	!	!	!	!	!	!
8E-\L	.	.	4r	.	4r	.	.	.	.	.	16gg'\LL	.	16cccn\LL	.
.	.	.	.	.	.	.	.	.	.	.	(16gg\	.	16eee-\	.
8E-\	.	.	.	.	.	.	.	.	.	.	16ff\	.	16ddd\	.
.	.	.	.	.	.	.	.	.	.	.	16ee-\JJ)	.	16ccc\JJ	.
8F\	.	.	(16e-/LL	.	(16cc\LL	.	.	.	.	.	(16ee-\LL	.	16ccc\LL	.
.	.	.	16d/)	.	16b-\	.	.	.	.	.	16dd\	.	16bb-\	.
8FF/J	.	.	(16d/	.	16b-\	.	.	.	.	.	16dd\	.	16bb-\	.
.	.	.	16c/JJ)	.	16a\JJ)	.	.	.	.	.	16cc\JJ)	.	16aa\JJ	.
=45	=45	=45	=45	=45	=45	=45	=45	=45	=45	=45	=45	=45	=45	=45
!	!	!	!LO:PB:g=original	!	!	!	!	!	!	!	!	!	!	!
8BB-/	.	.	8d/	.	8b-\	.	0r	.	0r	.	16dd\	.	16bb-`\LL	.
.	.	.	.	.	.	.	.	.	.	.	16r	.	32fff`\L	.
.	.	.	.	.	.	.	.	.	.	.	.	.	32ddd'\	.
8r	.	.	8r	.	8r	.	.	.	.	.	8r	.	32bb-'\	.
.	.	.	.	.	.	.	.	.	.	.	.	.	32ff'\	.
.	.	.	.	.	.	.	.	.	.	.	.	.	32dd'\	.
.	.	.	.	.	.	.	.	.	.	.	.	.	32b-'\JJJ	.
8r	.	.	16r	.	16r	.	.	.	.	.	4r	.	8f`/	.
.	.	.	16dd\LL	.	16ff\LL	.	.	.	.	.	.	.	.	.
8F\	.	.	16cc\	.	16ee-\	.	.	.	.	.	.	.	8r	.
.	.	.	16a\JJ	.	16cc\JJ	.	.	.	.	.	.	.	.	.
8BB-/	.	.	8b-\	.	8dd\	.	.	.	.	.	2r	.	16r	.
.	.	.	.	.	.	.	.	.	.	.	.	.	32fff`\LLL	.
.	.	.	.	.	.	.	.	.	.	.	.	.	32ddd`\	.
8r	.	.	8r	.	8r	.	.	.	.	.	.	.	32bb-'\	.
.	.	.	.	.	.	.	.	.	.	.	.	.	32ff'\	.
.	.	.	.	.	.	.	.	.	.	.	.	.	32dd'\	.
.	.	.	.	.	.	.	.	.	.	.	.	.	32b-\JJJ	.
8r	.	.	16r	.	16r	.	.	.	.	.	.	.	8f/	.
.	.	.	16f/LL	.	16dd\LL	.	.	.	.	.	.	.	.	.
8F\	.	.	16e-/	.	16cc\	.	.	.	.	.	.	.	8r	.
.	.	.	16c/JJ	.	16a\JJ	.	.	.	.	.	.	.	.	.
=46	=46	=46	=46	=46	=46	=46	=46	=46	=46	=46	=46	=46	=46	=46
!	!	!LO:DY:t=for:	!	!	!	!LO:DY:t=forte	!	!	!	!	!	!	!LO:LB:g=original	!
8BB-/L	.	f	(8d/L	f	8b-\L	f	.	.	.	.	8r	.	8r	.
8BB-/	.	.	16d/L	.	(16b-\L	.	.	.	.	.	(16dd\LL	.	(16bb-\LL	.
.	.	.	16f/JJ)	.	16dd\JJ	.	.	.	.	.	16ff\JJ)	.	16ddd\JJ)	.
8BB-/	.	.	(16d/LL	.	16b-\LL	.	.	.	.	.	(16dd\LL	.	(16bb-\LL	.
.	.	.	16f/	.	16dd\	.	.	.	.	.	16ff\	.	16ddd\	.
8BB-/J	.	.	16e-/	.	16cc\	.	.	.	.	.	16ee-\	f	16ccc\	.
.	.	.	16f/JJ)	.	16dd\JJ)	.	.	.	.	.	16ff\JJ)	.	16ddd\JJ)	.
*Xtremolo	*	*	*	*	*	*	*	*	*	*	*	*	*	*
8BB-/L	9: 4:	.	(4e-/	.	(4cc\	.	.	.	.	.	(4ee-\	.	(4ccc\	.
8BB-/	.	.	.	.	.	.	.	.	.	.	.	.	.	.
8BB-/J	8 3	.	8d/)	.	8b-\)	.	.	.	.	.	8dd\)	.	8bb-\)	.
8r	.	.	8r	.	8r	.	.	.	.	.	8r	.	8r	.
=47	=47	=47	=47	=47	=47	=47	=47	=47	=47	=47	=47	=47	=47	=47
!	!	!	!	!	!	!	!	!	!	!	!	!	!	!
!LO:TX:a:t=Solo	!	!	!	!	!LO:TX:a:t=Solo	!	!	!	!	!	!	!	!LO:TX:a:t=Tutti	!
4BB-/	.	p	2r	.	2r	.	1r	.	8b-\	Nunc	2r	.	2r	.
.	.	.	.	.	.	.	.	.	16b-\	ad	.	.	.	.
.	.	.	.	.	.	.	.	.	16b-\	Ad-	.	.	.	.
4BB-/	.	.	.	.	.	.	.	.	16b-\LL	-ven-	.	.	.	.
.	.	.	.	.	.	.	.	.	16f\JJ	.	.	.	.	.
.	.	.	.	.	.	.	.	.	16b-\LL	-tum	.	.	.	.
.	.	.	.	.	.	.	.	.	16dd\JJ	.	.	.	.	.
!LO:TX:a:t=problem:mixed beam	!	!	!	!	!	!	!	!	!	!	!	!	!	!
8F\L	.	.	4r	.	4r	.	.	.	(32dd\LLL	tu-	4r	.	4r	.
.	.	.	.	.	.	.	.	.	32cc\	.	.	.	.	.
.	.	.	.	.	.	.	.	.	32b-\	.	.	.	.	.
.	.	.	.	.	.	.	.	.	32cc\JJ	.	.	.	.	.
8BB-/J	.	.	.	.	.	.	.	.	8b-\J)	-um	.	.	.	.
!LO:TX:a:t=problem:mixed beam	!	!	!.	!	!.	!	!	!	!	!	!	!LO:DY:t=po::	!	!LO:DY:t=piano
8F\L	.	.	32f/LLL	p	(32dd\LLL	.	.	.	4r	.	(32ff\LLL	p	(32ddd\LLL	p
.	.	.	32e-/	.	32cc\	.	.	.	.	.	32ee-\	.	32ccc\	.
.	.	.	32d/	.	32b-\	.	.	.	.	.	32dd\	.	32bb-\	.
.	.	.	32e-/JJ	.	32cc\JJ	.	.	.	.	.	32ee-\JJ	.	32ccc\JJ	.
8BB-/J	.	.	8d/J	.	8b-\J)	.	.	.	.	.	8dd\J)	.	8bb-\J)	.
=48	=48	=48	=48	=48	=48	=48	=48	=48	=48	=48	=48	=48	=48	=48
!	!	!	!	!	!LO:LB:g=original	!	!	!	!	!	!	!	!	!
4B-\	.	.	2r	.	2r	.	8b-\	Nunc	8dd\	nunc	2r	.	2r	.
.	.	.	.	.	.	.	16b-\	ad	16dd\	ad	.	.	.	.
.	.	.	.	.	.	.	16b-\	Ad-	16dd\	Ad-	.	.	.	.
!	!	!	!	!	!	!	!LO:TX:a:t=problem:mixed beam	!	!	!	!	!	!	!
4B-\	.	.	.	.	.	.	(16b-\LL	-ven-	16dd\LL	-ven-	.	.	.	.
.	.	.	.	.	.	.	16d/JJ)	.	16b-\JJ	.	.	.	.	.
.	.	.	.	.	.	.	(16b-\LL	-tum	16dd\LL	-tum	.	.	.	.
.	.	.	.	.	.	.	16dd\JJ)	.	16ff\JJ	.	.	.	.	.
!LO:LB:g=original	!	!	!LO:LB:g=original	!	!	!	!LO:LB:g=original	!	!LO:LB:g=original	!	!LO:LB:g=original	!	!	!
8F\L	.	.	4r	.	4r	.	32dd\LLL	tu-	(32ff\LLL	tu-	4r	.	4r	.
.	.	.	.	.	.	.	32cc\	.	32ee-\	.	.	.	.	.
.	.	.	.	.	.	.	32b-\	.	32dd\	.	.	.	.	.
.	.	.	.	.	.	.	32cc\JJ	.	32ee-\JJJ)	.	.	.	.	.
8B-\	.	.	.	.	.	.	8b-\J	-um	8dd\	-um	.	.	.	.
8F\	.	.	32dd\LLL	.	(32ff\LLL	.	4r	.	4r	.	32ddd\LLL	.	(32fff\LLL	.
.	.	.	32cc\	.	32ee-\	.	.	.	.	.	32ccc\	.	32eee-\	.
.	.	.	32b-\	.	32dd\	.	.	.	.	.	32bb-\	.	32ddd\	.
.	.	.	32cc\JJ	.	32ee-\JJ	.	.	.	.	.	32ccc\JJ	.	32eee-\JJ	.
8B-\J	.	.	8b-\J	.	8dd\J)	.	.	.	.	.	8bb-\J	.	8ddd\J)	.
=49	=49	=49	=49	=49	=49	=49	=49	=49	=49	=49	=49	=49	=49	=49
*tremolo	*	*	*	*	*	*	*	*	*	*	*	*	*	*
!	!	!	!	!	!	!	!	!	!	!	!	!	!LO:PB:g=original	!
8F\L	.	.	8cc\L	.	8ee-\L	.	8cc\	nunc	8ee-\	nunc	00r	.	00r	.
8F\	.	.	16cc\L	.	16ee-\L	.	16cc\	ad	16ee-\	ad	.	.	.	.
.	.	.	16b-\JJ	.	16dd\JJ	.	16b-\	Ad-	16dd\	Ad-	.	.	.	.
8F\	.	.	8a\L	.	8cc\L	.	8a\	-ven-	8cc\	-ven-	.	.	.	.
8F\J	.	.	16b-\L	.	16dd\L	.	16b-\LL	-tum	16dd\LL	-tum	.	.	.	.
.	.	.	16g\JJ	.	16b-\JJ	.	16g\JJ	.	16b-\JJ	.	.	.	.	.
8F\L	.	.	16.f/LL	.	16.a\LL	.	16.f\LL	tu-	16.a\LL	tu-	.	.	.	.
.	.	.	32a/K	.	32cc\K	.	32a\JJk	.	32cc\JJk	.	.	.	.	.
8F\	.	.	16.g/	.	16.b-\	.	16.g\LL	.	16.b-\LL	.	.	.	.	.
.	.	.	32b-/JJk	.	32dd\JJk	.	32b-\JJk	.	32dd\JJk	.	.	.	.	.
8F\	.	.	8a/L	.	8cc\L	.	8a\	-um	8cc\	-um	.	.	.	.
8F\J	.	.	16a/L	.	16cc\L	.	8r	.	8r	.	.	.	.	.
.	.	.	16b-/JJ	.	16dd\JJ	.	.	.	.	.	.	.	.	.
=50	=50	=50	=50	=50	=50	=50	=50	=50	=50	=50	=50	=50	=50	=50
!	!	!	!	!	!	!	!LO:LB:g=original	!	!LO:LB:g=original	!	!	!	!	!
8F\L	.	.	8cc\L	.	8ee-\L	.	8cc\	nunc	8ee-\	nunc	.	.	.	.
8F\	.	.	16cc\L	.	16ee-\L	.	16cc\	ad	16ee-\	ad	.	.	.	.
.	.	.	16b-\JJ	.	16dd\JJ	.	16b-\	Ad-	16dd\	Ad-	.	.	.	.
8F\	.	.	8a\L	.	8cc\L	.	8a\	-ven-	8cc\	-ven-	.	.	.	.
8F\J	.	.	16b-\L	.	16dd\L	.	16b-\LL	-tum	16dd\LL	-tum	.	.	.	.
.	.	.	16g\JJ	.	16b-\JJ	.	16g\JJ	.	16b-\JJ	.	.	.	.	.
8F\L	.	.	16.f\LL	.	16.a\LL	.	16.f\LL	tu-	16.a\LL	tu-	.	.	.	.
.	.	.	32a\K	.	32cc\K	.	32a\JJk	.	32cc\JJk	.	.	.	.	.
8F\	.	.	16.g\	.	16.b-\	.	16.g\LL	.	16.b-\LL	.	.	.	.	.
.	.	.	32b-\JJk	.	32dd\JJk	.	32b-\JJk	.	32dd\JJk	.	.	.	.	.
8F\	.	.	8a\L	.	8cc\L	.	8a\	-um	8cc\	-um	.	.	.	.
8A\J	.	.	8cc\J	.	8ee-\J	.	16r	.	16r	.	.	.	.	.
.	.	.	.	.	.	.	16cc\	Mi-	16ee-\	Mi-	.	.	.	.
=51	=51	=51	=51	=51	=51	=51	=51	=51	=51	=51	=51	=51	=51	=51
!	!	!	!	!	!LO:LB:g=original	!	!	!	!	!	!	!	!	!
8B-\L	.	.	8b-\L	.	8dd\L	.	16.b-\	-li-	16.dd\	-li-	.	.	.	.
.	.	.	.	.	.	.	32b-\K	-ti-	32dd\K	-ti-	.	.	.	.
8B-\	.	.	8b-\J	.	8dd\J	.	8b-\	-bus	8dd\	-bus	.	.	.	.
8B-\	.	.	4r	.	4r	.	16ee-\LL	su-	16gg\LL	Su-	.	.	.	.
.	.	.	.	.	.	.	16dd\JJ	.	16ff\JJ	.	.	.	.	.
8B-\J	.	.	.	.	.	.	16cc\LL	-is	16ee-\LL	-is	.	.	.	.
.	.	.	.	.	.	.	16b-\JJ	.	16dd\JJ	.	.	.	.	.
!	!	!	!LO:LB:g=original	!	!	!	!LO:LB:g=original	!	!LO:LB:g=original	!	!	!	!	!
.	.	.	8qb-/	.	8qdd/	.	8qb-/	.	8qdd/	.	.	.	.	.
8F\L	.	.	8a\L	.	8cc\L	.	8a\	Chris-	8cc\L	Chris-	.	.	.	.
8F\	.	.	8a\J	.	8cc\J	.	8a\	-stus	8cc\J	-tus	.	.	.	.
8F\	.	.	4r	.	4r	.	16dd\LL	du-	16ff\LL	du-	.	.	.	.
.	.	.	.	.	.	.	16cc\JJ	.	16ee-\JJ	.	.	.	.	.
8F\J	.	.	.	.	.	.	16b-\LL	-pli-	16dd\LL	-pli-	.	.	.	.
.	.	.	.	.	.	.	16a\JJ	.	16cc\JJ	.	.	.	.	.
=52	=52	=52	=52	=52	=52	=52	=52	=52	=52	=52	=52	=52	=52	=52
!LO:TX:a:t=problem:mixed beam	!	!	!	!	!	!	!	!	!LO:LB:g=original	!	!	!	!	!
8B-\L	.	.	4r	.	4r	.	8b-\	-ca-	8dd\L	-ca-	.	.	.	.
8E-\	.	.	.	.	.	.	16g/LL	.	16ee-\L	.	.	.	.	.
.	.	.	.	.	.	.	16e-/JJ	.	16cc\JJ	.	.	.	.	.
!	!	!	!	!	!	!	!	!	!	!	!	!	!	!
8F\	.	.	16e-/LL	.	16cc\LL	.	16e-/LL	-vit	16cc\LL	-vit	.	.	.	.
.	.	.	16d/	.	16b-\	.	16d/JJ	.	16b-\JJ	.	.	.	.	.
8FF/J	.	.	16d/	.	16b-\	.	16d/LL	An-	16b-\LL	An-	.	.	.	.
.	.	.	16c/JJ	.	16a\JJ	.	16c/JJ	.	16a\JJ	.	.	.	.	.
!LO:TX:a:t=problem:mixed beam	!	!	!LO:TX:a:t=problem:mixed beam	!	!	!	!LO:TX:a:t=problem:mixed beam	!	!	!	!	!	!	!
8BB-/L	.	.	8.d/L	.	8.b-\L	.	8.d/L	-no-	8.b-\L	-no-	.	.	.	.
8BB-/	.	.	.	.	.	.	.	.	.	.	.	.	.	.
.	.	.	16b-\Jk	.	16dd\Jk	.	16b-\Jk	.	16dd\Jk	.	.	.	.	.
8F\	.	.	8a\L	.	8cc\L	.	8a\	-nam	8cc\	-nam	.	.	.	.
8A\J	.	.	8cc\J	.	8ee-\J	.	16r	.	16r	.	.	.	.	.
.	.	.	.	.	.	.	16cc\	Mi-	16ee-\	mi-	.	.	.	.
=53	=53	=53	=53	=53	=53	=53	=53	=53	=53	=53	=53	=53	=53	=53
!	!	!	!	!	!	!	!LO:LB:g=original	!	!LO:PB:g=original	!	!	!	!	!
8B-\L	.	.	8b-\L	.	8dd\L	.	16.b-\	-li-	16.dd\	-li-	0r	.	0r	.
.	.	.	.	.	.	.	32b-\K	-ti-	32dd\K	-ti-	.	.	.	.
8B-\	.	.	8b-\J	.	8dd\J	.	8b-\	-bus	8dd\	-bus	.	.	.	.
8B-\	.	.	4r	.	4r	.	16ee-\LL	su-	16gg\LL	su-	.	.	.	.
.	.	.	.	.	.	.	16dd\JJ	.	16ff\JJ	.	.	.	.	.
8B-\J	.	.	.	.	.	.	16cc\LL	-is	16ee-\LL	-is	.	.	.	.
.	.	.	.	.	.	.	16b-\JJ	.	16dd\JJ	.	.	.	.	.
.	.	.	8qb-/	.	8qdd/	.	8qb-/	.	8qdd/	.	.	.	.	.
*Xtremolo	*	*	*	*	*	*	*	*	*	*	*	*	*	*
8F\L	.	.	8a\L	.	8cc\L	.	8a\	X-	8cc\	X-	.	.	.	.
8F\	.	.	8a\J	.	8cc\J	.	8a\	-stus	8cc\	-tus	.	.	.	.
8F\	.	.	4r	.	4r	.	16dd\LL	du-	16ff\LL	du-	.	.	.	.
.	.	.	.	.	.	.	16cc\JJ	.	16ee-\JJ	.	.	.	.	.
8A\J	.	.	.	.	.	.	16b-\LL	-pli-	16dd\LL	-pli-	.	.	.	.
.	.	.	.	.	.	.	16a\JJ	.	16cc\JJ	.	.	.	.	.
=54	=54	=54	=54	=54	=54	=54	=54	=54	=54	=54	=54	=54	=54	=54
!LO:LB:g=original	!	!	!	!	!	!	!	!	!	!	!	!	!	!
!LO:TX:a:t=problem:mixed beam	!	!	!	!	!	!	!	!	!	!	!	!	!	!
8B-\L	.	.	8b-/L	.	8dd\L	.	8b-\	-ca-	8dd\	-ca-	.	.	.	.
8E-\	.	.	16g/L	.	16ee-\L	.	16g/	-vit	16ee-\	-vit	.	.	.	.
.	.	.	16e-/JJ	.	16cc\JJ	.	16e-/	An-	16cc\	An-	.	.	.	.
!	!	!	!	!	!	!	!	!	!LO:LB:g=original	!	!	!	!	!
8F\	.	.	16e-/LL	.	16cc\LL	.	16e-/LL	-no-	16cc\LL	-no-	.	.	.	.
.	.	.	16d/	.	16b-\	.	16d/JJ	.	16b-\	.	.	.	.	.
8FF/J	.	.	16d/	.	16b-\	.	16d/LL	.	16b-\	.	.	.	.	.
.	.	.	16c/JJ	.	16a\JJ	.	16c/JJ	.	16a\JJ	.	.	.	.	.
!	!	!	!	!	!	!	!LO:LB:g=original	!	!	!	!	!	!	!
4BB-/	.	.	4d/	.	4b-\	.	4d/	-nam	4b-\	-nam	.	.	.	.
4r	.	.	4r	.	4r	.	4r	.	8b-\	X-	.	.	.	.
.	.	.	.	.	.	.	.	.	8b-\	-tus	.	.	.	.
=55	=55	=55	=55	=55	=55	=55	=55	=55	=55	=55	=55	=55	=55	=55
!	!	!	!	!	!LO:PB:g=original	!	!	!	!	!	!	!	!	!
2r	.	.	8d/	.	8b-\	.	16d/LL	du-	4b-\	du-	1r	.	1r	.
.	.	.	.	.	.	.	16f/JJ	.	.	.	.	.	.	.
.	.	.	8r	.	8r	.	16d/LL	-pli-	.	.	.	.	.	.
.	.	.	.	.	.	.	16f/JJ	.	.	.	.	.	.	.
.	.	.	8e-/	.	8b-\	.	16e-/LL	-ca-	4b-\	-pli-	.	.	.	.
.	.	.	.	.	.	.	16g/	.	.	.	.	.	.	.
.	.	.	8r	.	8r	.	16e-/	.	.	.	.	.	.	.
.	.	.	.	.	.	.	16g/JJ	.	.	.	.	.	.	.
!	!	!	!LO:LB:g=original	!	!	!	!	!	!	!	!	!	!	!
4r	.	.	8f/	.	8b-\	.	16f/LL	.	8.b-\L	-ca-	.	.	.	.
.	.	.	.	.	.	.	16a-X/	.	.	.	.	.	.	.
.	.	.	8r	.	8r	.	16f/	.	.	.	.	.	.	.
.	.	.	.	.	.	.	16a-/JJ	.	32cc\	.	.	.	.	.
.	.	.	.	.	.	.	.	.	32dd\J	.	.	.	.	.
8r	.	.	8r	.	8r	.	8g/	-vit	8ee-\	-vit	.	.	.	.
8E-\	.	.	8g/	.	8r	.	8g/	An-	8b-\	An-	.	.	.	.
=56	=56	=56	=56	=56	=56	=56	=56	=56	=56	=56	=56	=56	=56	=56
.	.	.	8qg/	.	16qqb-/	.	8qg/	.	8qb-/	.	.	.	.	.
8BB-/L	.	.	8f/L	.	8a-X/L	.	8f/	-no-	8a-X\L	-no-	4r	.	4r	.
8E-/J	.	.	8e-/J	.	8g/J	.	8e-/	-nam.	8g\J	-nam	.	.	.	.
8E-/L	.	.	8g/L 8b-	.	16r	.	4r	.	4r	.	8r	.	8r	.
.	.	.	.	.	16b-`\LL	.	.	.	.	.	.	.	.	.
!	!	!	!	!LO:DY:t=modice forte	!	!LO:DY:t=modice forte	!	!	!	!	!	!	!	!LO:DY:t=modice forte
8E-/J	.	.	8g/J 8b-	mf	(16ee-\	mf	.	.	.	.	8ee-\	.	8gg\	f
.	.	.	.	.	16gg\JJ)	.	.	.	.	.	.	.	.	.
8BB-/L	.	.	8a-X/L 8b-	.	(16ff\LL	.	2r	.	2r	.	8ff\L	.	8aa-X\L	.
.	.	.	.	.	16dd\	.	.	.	.	.	.	.	.	.
8E-/	.	.	8g/ 8b-	.	16ee-\	.	.	.	.	.	8ee-\	.	8gg\	.
.	.	.	.	.	16gg\JJ)	.	.	.	.	.	.	.	.	.
8BB-/	.	.	8a-/ 8b-	.	(16ff\LL	.	.	.	.	.	8ff\	.	8aa-\	.
.	.	.	.	.	16dd\	.	.	.	.	.	.	.	.	.
8E-/J	.	.	8g/J 8b-	.	16ee-\	.	.	.	.	.	8ee-\J	.	8gg\J	.
.	.	.	.	.	16gg\JJ)	.	.	.	.	.	.	.	.	.
=57	=57	=57	=57	=57	=57	=57	=57	=57	=57	=57	=57	=57	=57	=57
!	!	!	!	!	!	!	!LO:PB:g=original	!	!	!	!	!	!	!
8D\L	.	.	8f/L 8b-	.	8.bb-\L	.	1r	.	1r	.	4ff\	.	8.bb-\L	.
8D\	.	.	8f/ 8b-	.	.	.	.	.	.	.	.	.	.	.
.	.	.	.	.	16aa-X\Jk	.	.	.	.	.	.	.	16aa-X\Jk	.
8E-\J	.	.	8g/ 8b-	.	16gg\LL	.	.	.	.	.	8ee-\L	.	8gg\L	.
.	.	.	.	.	16b-\	.	.	.	.	.	.	.	.	.
8r	.	.	8g/J 8b-	.	16ee-\	.	.	.	.	.	8ee-\J	.	8gg\J	.
.	.	.	.	.	16gg\JJ	.	.	.	.	.	.	.	.	.
8BB-\L	.	.	8a-X/L 8b-	.	16ff\LL	.	.	.	.	.	8ff\L	.	8aa-\L	.
.	.	.	.	.	16dd\	.	.	.	.	.	.	.	.	.
8E-\	.	.	8g/ 8b-	.	16ee-\	.	.	.	.	.	8ee-\	.	8gg\	.
.	.	.	.	.	16gg\JJ	.	.	.	.	.	.	.	.	.
8BB-\	.	.	8a-/ 8b-	.	16ff\LL	.	.	.	.	.	8ff\	.	8aa-\	.
.	.	.	.	.	16dd\	.	.	.	.	.	.	.	.	.
8E-\J	.	.	8g/J 8b-	.	16ee-\	.	.	.	.	.	8ee-\J	.	8gg\J	.
.	.	.	.	.	16gg\JJ	.	.	.	.	.	.	.	.	.
=58	=58	=58	=58	=58	=58	=58	=58	=58	=58	=58	=58	=58	=58	=58
!	!	!	!	!	!LO:LB:g=original	!	!	!	!LO:LB:g=original	!	!	!	!	!
8BB-\L	.	.	8a-X/L 8b-	.	16ff\LL	.	2r	.	4r	.	8ff\L	.	8aa-X\L	.
.	.	.	.	.	16dd\J	.	.	.	.	.	.	.	.	.
8E-\J	.	.	8g/J 8b-	.	8ee-\J	.	.	.	.	.	8ee-\J	.	8gg\J	.
4r	.	.	4r	.	4r	.	.	.	8cc\	Chri-	4r	.	4r	.
.	.	.	.	.	.	.	.	.	8cc\	-stus	.	.	.	.
!	!	!	!LO:LB:g=original	!	!	!LO:DY:t=po:	!	!	!	!	!	!	!	!
2r	.	.	8en/	.	8cc\	p	16en/LL	du-	4cc\	du-	2r	.	2r	.
.	.	.	.	.	.	.	16g/JJ	.	.	.	.	.	.	.
.	.	.	8r	.	8r	.	16e/LL	-pli-	.	.	.	.	.	.
.	.	.	.	.	.	.	16g/JJ	.	.	.	.	.	.	.
!	!	!	!	!LO:DY:t=po:	!	!	!	!	!	!	!	!	!	!
.	.	.	8f/	p	8cc\	.	16f/LL	-ca-	4cc\	-pli-	.	.	.	.
.	.	.	.	.	.	.	16an/	.	.	.	.	.	.	.
.	.	.	8r	.	8r	.	16f/	.	.	.	.	.	.	.
.	.	.	.	.	.	.	16a/JJ	.	.	.	.	.	.	.
=59	=59	=59	=59	=59	=59	=59	=59	=59	=59	=59	=59	=59	=59	=59
!LO:PB:g=original	!	!	!	!	!	!	!	!	!	!	!	!	!	!
4r	.	.	8g/	.	8cc\	.	16g\LL	.	8.cc\L	-ca-	2r	.	2r	.
.	.	.	.	.	.	.	16b-\	.	.	.	.	.	.	.
.	.	.	8r	.	8r	.	16g\	.	.	.	.	.	.	.
.	.	.	.	.	.	.	16b-\JJ	.	32dd\LL	.	.	.	.	.
.	.	.	.	.	.	.	.	.	32een\JJJ	.	.	.	.	.
8r	.	.	8r	.	8r	.	8a\	-vit	8ff\	-vit	.	.	.	.
8F\	.	.	8an/	.	8cc\	.	8a\	An-	8cc\	An-	.	.	.	.
.	.	.	8qa/	.	8qcc/	.	8qa/	.	8qcc/	.	.	.	.	.
!	!	!	!	!	!	!	!	!	!	!	!	!	!LO:LB:g=original	!
8C\L	.	.	8g/L	.	8b-\L	.	8g\	-no-	8b-\	-no-	4r	.	4r	.
8F\	.	.	8f/J	.	8a\J	.	8f\	-nam	8a\	-nam	.	.	.	.
!	!	!	!	!LO:DY:t=modice forte	!	!	!	!	!	!	!	!	!	!
8F\	.	.	8a/L 8cc	mf	16r	.	4r	.	4r	.	8r	.	8r	.
!	!	!	!	!	!LO:DY:t=modice forte	!	!	!	!	!	!	!	!	!
.	.	.	.	.	16cc`\LL	mf	.	.	.	.	.	.	.	.
8F\J	.	.	8a/J 8cc	.	(16ff\	.	.	.	.	.	8ff\	.	8aan\	.
.	.	.	.	.	16aa\JJ)	.	.	.	.	.	.	.	.	.
=60	=60	=60	=60	=60	=60	=60	=60	=60	=60	=60	=60	=60	=60	=60
!	!	!	!	!	!	!	!	!	!	!	!LO:LB:g=original	!	!	!
8C\L	.	.	8b-/L 8cc	.	(16gg\LL	.	1r	.	1r	.	8gg\L	.	8bb-\L	.
.	.	.	.	.	16een\	.	.	.	.	.	.	.	.	.
8F\	.	.	8a/ 8cc	.	16ff\	.	.	.	.	.	8ff\	.	8aa\	.
.	.	.	.	.	16aa\JJ)	.	.	.	.	.	.	.	.	.
8C\	.	.	8b-/ 8cc	.	(16gg\LL	.	.	.	.	.	8gg\	.	8bb-\	.
.	.	.	.	.	16ee\	.	.	.	.	.	.	.	.	.
8F\J	.	.	8a/J 8cc	.	16ff\	.	.	.	.	.	8ff\J	.	8aa\J	.
.	.	.	.	.	16aa\JJ)	.	.	.	.	.	.	.	.	.
8En\L	.	.	8g/L 8cc	.	8.ccc\L	.	.	.	.	.	4gg\	.	8.ccc\L	.
8E\	.	.	8g/ 8cc	.	.	.	.	.	.	.	.	.	.	.
.	.	.	.	.	16bb-\Jk	.	.	.	.	.	.	.	16bb-\Jk	.
8F\J	.	.	8a/ 8cc	.	(16aa\LL	.	.	.	.	.	8ff\L	.	8aa\L	.
.	.	.	.	.	16cc\	.	.	.	.	.	.	.	.	.
8r	.	.	8a/J 8cc	.	16ff\	.	.	.	.	.	8ff\J	.	8aa\J	.
.	.	.	.	.	16aa\JJ)	.	.	.	.	.	.	.	.	.
=61	=61	=61	=61	=61	=61	=61	=61	=61	=61	=61	=61	=61	=61	=61
!	!	!	!	!	!LO:LB:g=original	!	!LO:LB:g=original	!	!	!	!	!	!	!
8C\L	.	.	8b-/L 8cc	.	16gg\LL	.	2r	.	2r	.	8gg\L	.	8bb-\L	.
.	.	.	.	.	16een\	.	.	.	.	.	.	.	.	.
8F\	.	.	8a/ 8cc	.	16ff\	.	.	.	.	.	8ff\	.	8aa\	.
.	.	.	.	.	16aa\JJ	.	.	.	.	.	.	.	.	.
8C\	.	.	8b-/ 8cc	.	16gg\LL	.	.	.	.	.	8gg\	.	8bb-\	.
.	.	.	.	.	16ee\	.	.	.	.	.	.	.	.	.
8F\J	.	.	8a/J 8cc	.	16ff\	.	.	.	.	.	8ff\J	.	8aa\J	.
.	.	.	.	.	16aa\JJ	.	.	.	.	.	.	.	.	.
8C\L	.	.	8b-/L 8cc	.	16gg\LL	.	4r	.	4r	.	8gg\L	.	8bb-\L	.
.	.	.	.	.	16ee\J	.	.	.	.	.	.	.	.	.
8F\J	.	.	8a/J 8cc	.	8ff\J	.	.	.	.	.	8ff\J	.	8aa\J	.
4r	.	.	4r	.	4r	.	8dd\	Chri-	8ff\	Chri-	4r	.	4r	.
.	.	.	.	.	.	.	8dd\	-stus	8ff\	-stus	.	.	.	.
=62	=62	=62	=62	=62	=62	=62	=62	=62	=62	=62	=62	=62	=62	=62
!	!	!	!LO:LB:g=original	!	!	!	!	!	!O:LB:g=original	!	!	!	!	!
8r	.	.	8.cc\L	p	8.ee-\L	.	8.cc\	du-	8.ee-\	du-	00r	.	00r	.
8F\L	.	.	.	.	.	.	.	.	.	.	.	.	.	.
.	.	.	16b-\Jk	.	16dd\Jk	.	16b-Jk	-pli-	16dd\k	-pli-	.	.	.	.
.	.	.	8qb-/	.	8qdd/	.	8qb-	.	8qdd/	.	.	.	.	.
8F\	.	.	8a\L	.	8cc\L	.	8a\	-ca-	8cc\	-ca-	.	.	.	.
8F\J	.	.	8a\J	.	8cc\J	.	8aJ	-vit	8cc\	-vit	.	.	.	.
8r	.	.	8.dd\L	.	8.ff\L	.	8.ddL	{du-	8.ff\	{du-	.	.	.	.
8BB-/L	.	.	.	.	.	.	.	.	.	.	.	.	.	.
.	.	.	16cc\Jk	.	16ee-\Jk	.	16ccJk	-pli-	16ee-\k	-pli-	.	.	.	.
.	.	.	8qcc/	.	8qee-/	.	8qcc	.	8qee-/	.	.	.	.	.
8BB-/	.	.	8b-\L	.	8dd\L	.	8b-L	-ca-	8dd\	-ca-	.	.	.	.
8BB-/J	.	.	8b-\J	.	8dd\J	.	8b-J	-vit}	8dd\	-vit}	.	.	.	.
=63	=63	=63	=63	=63	=63	=63	=63	=63	=63	=63	=63	=63	=63	=63
!LO:LB:g=original	!	!	!	!	!	!	!	!	!	!	!	!	!	!
8E-\L	.	.	8b-\L	.	8gg\L	.	8b-\	du-	8gg\	du-	.	.	.	.
8D\	.	.	8b-\J	.	8ff\	.	8b-\	-pli-	8ff\	-pli-	.	.	.	.
8C\	.	.	16b-\LL	.	8ee-\	.	16b-\L	-ca-	8ee-\L	-ca-	.	.	.	.
.	.	.	16a\J	.	.	.	16a\J	.	.	.	.	.	.	.
8BB-\J	.	.	8b-\J	.	8dd\J	.	8b-\	-vit	8dd\J	-vit	.	.	.	.
!	!	!	!	!	!	!	!LO:LB:g=original	!	!	!	!	!	!	!
8E-\	.	.	8e-/L	.	8cc\L	.	8e-/	du-	8cc\L	du-	.	.	.	.
8r	.	.	8d/J	.	8bn\J	.	8d/	-pli-	8bn\J	-pli-	.	.	.	.
4r	.	.	16e-/LL	.	16cc\LL	.	16e-/LL	-ca-	16cc\LL	-ca-	.	.	.	.
.	.	.	16f/	.	16dd\	.	16f/JJ	.	16dd\JJ	.	.	.	.	.
.	.	.	16g/	.	16ee-\	.	16g/	-vit	16ee-\LL	-vit	.	.	.	.
.	.	.	16e-/JJ	.	16cc\JJ	.	16e-/	An-	16cc\JJ	asn-	.	.	.	.
=64	=64	=64	=64	=64	=64	=64	=64	=64	=64	=64	=64	=64	=64	=64
*tremolo	*	*	*	*	*	*	*	*	*	*	*	*	*	*
!	!	!	!	!	!	!	!	!	!LO:LB:g=original	!	!	!	!	!
8F\L	.	.	8d/L	.	8b-\L	.	4d/	-no-	4b-X\	-no-	.	.	.	.
8F\	.	.	8d/	.	8b-\	.	.	.	.	.	.	.	.	.
8F\	.	.	8c/	.	8a\	.	4c/	.	4a\	.	.	.	.	.
8F\J	.	.	8c/J	.	8a\J	.	.	.	.	.	.	.	.	.
*Xtremolo	*	*	*	*	*	*	*	*	*	*	*	*	*	*
!LO:TX:a:t=problem:mixed beam	!	!	!	!	!	!	!	!	!	!	!	!	!	!
8B-\L	.	.	4d/	.	4b-\	.	4d/	-nam	4b-\	-nam	.	.	.	.
8BB-/J	.	.	.	.	.	.	.	.	.	.	.	.	.	.
4r	.	.	4r	.	4r	.	8dd\	X-	8ff\	X-	.	.	.	.
.	.	.	.	.	.	.	8dd\	-stus	8ff\	-stus	.	.	.	.
=65	=65	=65	=65	=65	=65	=65	=65	=65	=65	=65	=65	=65	=65	=65
!	!	!	!	!	!LO:LB:g=original	!	!	!	!	!	!	!	!	!
8r	.	.	8.cc\L	.	8.ee-\L	.	8.cc\	du-	8.ee-\	du-	.	.	.	.
8F\L	.	.	.	.	.	.	.	.	.	.	.	.	.	.
.	.	.	16b-\Jk	.	16dd\Jk	.	16b-\k	-pli-	16dd\k	-pli-	.	.	.	.
.	.	.	8qb-/	.	.	.	8qb-/	.	8qdd/	.	.	.	.	.
8F\	.	.	8a\L	.	8cc\L	.	8a\	-ca-	8cc\	-ca-	.	.	.	.
8F\J	.	.	8a\J	.	8cc\J	.	8a\	-vit	8cc\	-vit	.	.	.	.
!	!	!	!	!	!	!	!LO:LB:g=original	!	!	!	!	!	!	!
8r	.	.	8.dd\L	.	8.ff\L	.	8.dd\	du-	8.ff\	{du-	.	.	.	.
8BB-/L	.	.	.	.	.	.	.	.	.	.	.	.	.	.
.	.	.	16cc\Jk	.	16ee-\Jk	.	16cc\k	-pli-	16ee-\k	-pli-	.	.	.	.
.	.	.	8qcc/	.	8qee-/	.	8qcc/	.	8qdd/	.	.	.	.	.
8BB-/	.	.	8b-\L	.	8dd\L	.	8b-\	-ca	8dd\	-ca-	.	.	.	.
8BB-/J	.	.	8b-\J	.	8dd\J	.	8b-\	-vit	8dd\	-vit}	.	.	.	.
=66	=66	=66	=66	=66	=66	=66	=66	=66	=66	=66	=66	=66	=66	=66
!	!	!	!LO:LB:g=original	!	!	!	!	!	!	!	!	!	!	!
8E-\L	.	.	8b-\L	.	8gg\L	.	8b-\	du-	8gg\	du-	00r	.	00r	.
8D\	.	.	8b-\J	.	8ff\	.	8b-\	-pli-	8ff\	-pli-	.	.	.	.
8C\	.	.	16b-\LL	.	8ee-\	.	16b-\LL	-ca-	8ee-\L	-ca-	.	.	.	.
.	.	.	16a\J	.	.	.	16a\J	.	.	.	.	.	.	.
8BB-\J	.	.	8b-\J	.	8dd\J	.	8b-\J	.	8dd\J	.	.	.	.	.
8E-\	.	.	8e-/L	.	8cc\L	.	8e-/L	.	8cc\L	.	.	.	.	.
8r	.	.	8d/J	.	8bn\J	.	8d/J	.	8bn\J	.	.	.	.	.
4r	.	.	16e-/LL	.	16cc\LL	.	16e-/LL	-vit	16cc\LL	-vit	.	.	.	.
.	.	.	16f/	.	16dd\	.	16f/JJ	.	16dd\JJ	.	.	.	.	.
.	.	.	16g/	.	16ee-\	.	16g/LL	An-	16ee-\LL	An-	.	.	.	.
.	.	.	16e-/JJ	.	16cc\JJ	.	16e-/JJ	.	16cc\JJ	.	.	.	.	.
=67	=67	=67	=67	=67	=67	=67	=67	=67	=67	=67	=67	=67	=67	=67
*tremolo	*	*	*	*	*	*	*	*	*	*	*	*	*	*
!	!	!	!	!	!	!	!	!	!LO:LB:g=original	!	!	!	!	!
8F\L	.	.	8d/L	.	8b-\L	.	4d/	-no-	4b-X\	-no-	.	.	.	.
8F\	.	.	8d/	.	8b-\	.	.	.	.	.	.	.	.	.
8F\	.	.	8c/	.	8a\	.	4c/	.	4a\	.	.	.	.	.
8F\J	.	.	8c/J	.	8a\J	.	.	.	.	.	.	.	.	.
*	*	*	*	*	*	*	*	*	*	*	*	*	*	*
!LO:TX:a:t=problem:mixed beam	!	!	!	!	!	!	!	!	!	!	!	!	!	!
8B-\L	.	.	4d/	.	4b-\	.	4d/	-nam.	4b-\	-nam	.	.	.	.
8BB-/J	.	.	.	.	.	.	.	.	.	.	.	.	.	.
4r	.	.	4r	.	4r	.	4r	.	8ff\	X-	.	.	.	.
.	.	.	.	.	.	.	.	.	8ff\	-stus	.	.	.	.
=68	=68	=68	=68	=68	=68	=68	=68	=68	=68	=68	=68	=68	=68	=68
!LO:LB:g=original	!	!	!	!	!	!	!	!	!	!	!	!	!	!
!LO:TX:a:t=problem: 4 kropki staccato	!	!	!	!	!	!	!	!	!	!	!	!	!	!
!	!	!LO:DY:t=po:	!	!	!	!	!LO:LB:g=original	!	!	!	!	!	!	!
8A-X'\L	.	p	2r	.	2r	.	1r	.	8.ff\	du-	.	.	.	.
8A-X'\	.	.	.	.	.	.	.	.	.	.	.	.	.	.
.	.	.	.	.	.	.	.	.	16ee-\k	-pli-	.	.	.	.
8A-X'\	.	.	.	.	.	.	.	.	8.dd\L	-ca-	.	.	.	.
8A-X'\J	.	.	.	.	.	.	.	.	.	.	.	.	.	.
!	!	!	!	!	!	!	!	!	!LO:LB:g=original	!	!	!	!	!
.	.	.	.	.	.	.	.	.	16cc\Jk	.	.	.	.	.
8G'\	.	.	4r	.	4r	.	.	.	16bn\LL	.	.	.	.	.
.	.	.	.	.	.	.	.	.	16dd\	.	.	.	.	.
8r	.	.	.	.	.	.	.	.	16ff\	.	.	.	.	.
.	.	.	.	.	.	.	.	.	16aa-X\JJ	.	.	.	.	.
16r	.	.	16r	.	8.gg\L	.	.	.	8.gg\	-vit	.	.	.	.
!	!	!	!	!LO:DY:t=pianiſs:	!	!	!	!	!	!	!	!	!	!
16G'\LL	.	.	16g`/LL	pp	.	.	.	.	.	.	.	.	.	.
16An'\	.	.	16a`/	.	.	.	.	.	.	.	.	.	.	.
16Bn'\JJ	.	.	16bn`/JJ	.	16ff\Jk	.	.	.	16ff\k	An-	.	.	.	.
=69	=69	=69	=69	=69	=69	=69	=69	=69	=69	=69	=69	=69	=69	=69
16c'\LL	.	.	16cc`\LL	.	16ee-\LL	.	4r	.	16ee-\L	-no-	.	.	.	.
16d'\J	.	.	16dd`\J	.	16dd\J	.	.	.	16dd\J	.	.	.	.	.
8e-'\J	.	.	8ee-`\J	.	8cc\J	.	.	.	8cc\	-nam.	.	.	.	.
4r	.	.	4r	.	4r	.	8ee-\	Chri-	4r	.	.	.	.	.
.	.	.	.	.	.	.	8ee-\	-stus	.	.	.	.	.	.
!LO:TX:a:t=problem: 4 x staccato	!	!	!LO:TX:b:t=VS:	!	!	!	!	!	!	!	!	!	!	!
8F#X'\L	.	.	2r	.	2r	.	8.ee-\	du-	2r	.	.	.	.	.
8F#X'\	.	.	.	.	.	.	.	.	.	.	.	.	.	.
.	.	.	.	.	.	.	16dd\k	-pli-	.	.	.	.	.	.
8F#X'\	.	.	.	.	.	.	8.cc\L	-ca-	.	.	.	.	.	.
8F#X'\J	.	.	.	.	.	.	.	.	.	.	.	.	.	.
.	.	.	.	.	.	.	16b-X\Jk	.	.	.	.	.	.	.
*Xtremolo	*	*	*	*	*	*	*	*	*	*	*	*	*	*
=70	=70	=70	=70	=70	=70	=70	=70	=70	=70	=70	=70	=70	=70	=70
!	!	!	!LO:PB:g=original	!	!LO:LB:g=original	!	!	!	!LO:PB:g=original	!	!	!	!	!
8Fn\	.	.	4r	.	4r	.	16a\LL	.	2r	.	0r	.	0r	.
.	.	.	.	.	.	.	16cc\	.	.	.	.	.	.	.
8r	.	.	.	.	.	.	16ee-\	.	.	.	.	.	.	.
.	.	.	.	.	.	.	16gg\JJ	.	.	.	.	.	.	.
16r	.	.	16r	.	8.ff\L	.	8.ff\	-vit	.	.	.	.	.	.
16F'\LL	.	.	16fn/LL	.	.	.	.	.	.	.	.	.	.	.
16G'\	.	.	16g/	.	.	.	.	.	.	.	.	.	.	.
16A'\JJ	.	.	16a/JJ	.	16ee-\Jk	.	16ee-\k	An-	.	.	.	.	.	.
16B-'\LL	.	.	16b-\LL	.	16dd\LL	.	16dd\L	-no-	4r	.	.	.	.	.
16c'\J	.	.	16cc\J	.	16cc\J	.	16cc\J	.	.	.	.	.	.	.
8d'\J	.	.	8dd\J	.	8b-\J	.	8b-\	-nam	.	.	.	.	.	.
8B-\L	.	.	8r	.	8r	.	8r	.	8r	.	.	.	.	.
8B-\J	.	.	8dd`\	.	8ff\	.	16r	.	16r	.	.	.	.	.
.	.	.	.	.	.	.	16dd`\	An-	16ff`\	An-	.	.	.	.
=71	=71	=71	=71	=71	=71	=71	=71	=71	=71	=71	=71	=71	=71	=71
!LO:LB:g=original	!	!	!	!	!	!	!LO:LB:g=original	!	!	!	!	!	!	!
8c\L	.	.	(16dd\LL	.	(16ff\LL	.	(16dd\LL	-no-	(16ff\LL	-no-	.	.	.	.
.	.	.	16cc\)	.	16ee-\)	.	16cc\JJ)	.	16ee-\JJ)	.	.	.	.	.
8A\	.	.	16cc`\	.	16ee-'\	.	16r	.	16r	.	.	.	.	.
.	.	.	16cc`\JJ	.	16ee-'\JJ	.	16cc`\	-An-	16ee-`\	-An-	.	.	.	.
8B-\	.	.	(16cc\LL	.	(16ee-\LL	.	(16cc\LL	-no-	(16ee-\LL	-no-	.	.	.	.
.	.	.	16b-\)	.	16dd\)	.	16b-\JJ)	.	16dd\JJ)	.	.	.	.	.
8En\J	7	.	16b-'\	.	16dd'\	.	16r	.	16r	.	.	.	.	.
.	.	.	16b-'\JJ	.	16dd'\JJ	.	16b-`\	-An-	16dd`\	-An-	.	.	.	.
8F\L	6 4	.	8b-\L	.	8dd\L	.	8b-`\	-no-	8dd\	-no-	.	.	.	.
8F\J	5 3	.	8a\J	.	8cc\J	.	8a`\	-nam	8cc\	-nam,	.	.	.	.
8r	.	.	8b-\L	.	8dd\L	.	8r	.	8r	.	.	.	.	.
8G\	.	.	8b-\J	.	8dd\J	.	16r	.	16r	.	.	.	.	.
.	.	.	.	.	.	.	16b-\	An-	16dd\	An-	.	.	.	.
=72	=72	=72	=72	=72	=72	=72	=72	=72	=72	=72	=72	=72	=72	=72
!	!	!	!	!	!	!	!LO:LB:g=original	!	!	!	!	!	!	!
8A\L	.	.	(16b-/LL	.	(16dd\LL	.	16b-\LL	-no-	16dd\LL	-no-	2r	.	2r	.
.	.	.	16a/)	.	16cc\)	.	16a\JJ	.	16cc\JJ	.	.	.	.	.
8F#X\	.	.	16a'/	.	16cc'\	.	16r	.	16r	.	.	.	.	.
.	.	.	16a'/JJ	.	16cc'\JJ	.	16a\	-An-	16cc\	-An-	.	.	.	.
8G\	.	.	16a/LL	.	(16cc\LL	.	16a\LL	-no-	16cc\LL	-no-	.	.	.	.
.	.	.	16g/	.	16b-\)	.	16g\JJ	.	16b-\JJ	.	.	.	.	.
8C#X\J	.	.	16g/	.	16b-'\	.	16r	.	16r	.	.	.	.	.
.	.	.	16g/JJ	.	16b-'\JJ	.	16g\	-An-	16b-\	-An-	.	.	.	.
!	!	!	!	!	!	!	!LO:LB:g=original	!	!LO:LB:g=original	!	!	!	!	!
8D\L	.	.	8g/L	.	8b-\L	.	8g/	-no-	8b-\	-no-	4r	.	4r	.
8D\J	.	.	8f#X/J	.	8a\J	.	8f#X/	-nam.	8a\	-nam	.	.	.	.
16D'\LL	.	.	8ff\L	f	8aa\L	.	4r	.	4r	.	8r	.	8r	.
16d'\	.	.	.	.	.	.	.	.	.	.	.	.	.	.
16D'\	.	f	8aa\J	.	8ddd`\J	f	.	.	.	.	8ff#X`\	f	8ddd\	f
16d'\JJ	.	.	.	.	.	.	.	.	.	.	.	.	.	.
=73	=73	=73	=73	=73	=73	=73	=73	=73	=73	=73	=73	=73	=73	=73
*tremolo	*	*	*	*	*	*	*	*	*	*	*	*	*	*
!LO:TX:a:t=problem:laski półnut w tremolo po prawej stronie	!	!	!	!	!LO:LB:g=original	!	!	!	!	!	!	!	!LO:LB:g=original	!
!LO:TX:a:t=problem: 4 kropki staccato	!	!	!	!	!	!	!	!	!	!	!	!	!	!
16D'\LL	.	.	8gg\L	.	8ccc#X\L	.	00r	.	0r	.	8een'\L	.	8ccc#X\L	.
16d'\	.	.	.	.	.	.	.	.	.	.	.	.	.	.
16D'\	.	.	8aa\	.	8cccn\	.	.	.	.	.	8ee-X'\	.	8cccn\	.
16d'\	.	.	.	.	.	.	.	.	.	.	.	.	.	.
16D'\	.	.	8gg\	.	8bbn\	.	.	.	.	.	8dd'\	.	8bbn\	.
16d'\	.	.	.	.	.	.	.	.	.	.	.	.	.	.
16D'\	.	.	8gg\J	.	8bb-X\J	.	.	.	.	.	8cc#X'\J	.	8bb-X\J	.
16d'\JJ	.	.	.	.	.	.	.	.	.	.	.	.	.	.
!LO:TX:a:t=problem: 4 kropki staccato	!	!	!LO:LB:g=original	!	!	!	!	!	!	!	!	!	!	!
16D'\LL	.	.	8ff#X\L	.	8aa\L	.	.	.	.	.	8ccn\L	.	8aa\L	.
16d'\	.	.	.	.	.	.	.	.	.	.	.	.	.	.
16D'\	.	.	8een\J	.	8gg\J	.	.	.	.	.	8b-X\J	.	8gg\J	.
16d'\	.	.	.	.	.	.	.	.	.	.	.	.	.	.
16D'\	.	.	8dd\L	.	8ff#X\L	.	.	.	.	.	8a\L	.	8ff#X\L	.
16d'\	.	.	.	.	.	.	.	.	.	.	.	.	.	.
16D'\	.	.	16aa\L	.	16ddd\L	.	.	.	.	.	16ff#X`\L	.	16ddd'\L	.
16d'\JJ	.	.	16aa\JJ	.	16ddd\JJ	.	.	.	.	.	16ff#`\JJ	.	16ddd'\JJ	.
=74	=74	=74	=74	=74	=74	=74	=74	=74	=74	=74	=74	=74	=74	=74
!	!	!	!	!	!	!	!	!	!	!	!LO:LB:g=original	!	!	!
16D'\LL	.	.	16gg\LL	.	16ccc#X\LL	.	.	.	.	.	16een'\LL	.	16ccc#X'\LL	.
16d'\	.	.	16gg\	.	16ccc#\	.	.	.	.	.	16ee'\	.	16ccc#'\	.
16D'\	.	.	16aa\	.	16cccn\	.	.	.	.	.	16ee-X'\	.	16cccn'\	.
16d'\	.	.	16aa\JJ	.	16ccc\JJ	.	.	.	.	.	16ee-'\JJ	.	16ccc'\JJ	.
16D'\	.	.	16gg\LL	.	16bbn\LL	.	.	.	.	.	16dd'\LL	.	16bbn'\LL	.
16d'\	.	.	16gg\	.	16bb\	.	.	.	.	.	16dd'\	.	16bb'\	.
16D'\	.	.	16gg\	.	16bb-X\	.	.	.	.	.	16cc#X'\	.	16bb-X'\	.
16d'\JJ	.	.	16gg\JJ	.	16bb-\JJ	.	.	.	.	.	16cc#'\JJ	.	16bb-'\JJ	.
16D'\LL	.	.	16ff#X\LL	.	16aa\LL	.	.	.	.	.	16ccn'\LL	.	16aa'\LL	.
16d'\	.	.	16ff#\	.	16aa\	.	.	.	.	.	16cc'\	.	16aa'\	.
16D'\	.	.	16een\	.	16gg\	.	.	.	.	.	16b-X'\	.	16gg'\	.
*	*	*	*	*	*	*	*	*	*	*	*	*	*	*
16d'\	.	.	16ee\JJ	.	16gg\JJ	.	.	.	.	.	16b-'\JJ	.	16gg'\JJ	.
16D'\	.	.	16dd\LL	.	16ff#X\LL	.	.	.	.	.	16a'\LL	.	16ff#X'\LL	.
16d'\	.	.	16dd\	.	16ff#\	.	.	.	.	.	16a'\	.	16ff#'\	.
16D'\	.	.	16cc#X\	.	16een\	.	.	.	.	.	16g'\	.	16een'\	.
16d'\JJ	.	.	16cc#\JJ	.	16ee\JJ	.	.	.	.	.	16g'\JJ	.	16ee'\JJ	.
*Xtremolo	*	*	*	*	*	*	*	*	*	*	*	*	*	*
=75	=75	=75	=75	=75	=75	=75	=75	=75	=75	=75	=75	=75	=75	=75
!	!	!	!	!	!	!	!	!	!	!	!LO:TX:a:t=problem:mixed beam	!	!LO:LB:g=original	!
8D'\L	.	.	8dd/L	.	8dd\	.	.	.	1r	.	8f#X/L	.	8dd\L	.
16D'\L	.	.	16f#X/L 16a	.	16f#X/LL 16dd	.	.	.	.	.	16ff#X\L	.	16ddd\L	.
16D'\JJ	.	.	16f#/JJ 16a	.	16f#/JJ 16dd	.	.	.	.	.	16ff#\JJ	.	16ddd\JJ	.
8D'\L	.	.	8f#/L 8a	.	8f#/L 8dd	.	.	.	.	.	8ff#\L	.	8ddd\L	.
8D'\J	.	.	8f#/J 8a	.	8f#/J 8dd	.	.	.	.	.	8ff#\J	.	8ddd\J	.
!	!	!	!	!	!LO:LB:g=original	!	!	!	!	!	!	!	!	!
4D'\	.	.	4f#/ 4a	.	4f#/ 4dd	.	.	.	.	.	4ff#\	.	4ddd\	.
16d'\LL	.	.	4r	.	4r	.	.	.	.	.	4r	.	4r	.
16cn'\	.	.	.	.	.	.	.	.	.	.	.	.	.	.
16B-X'\	.	.	.	.	.	.	.	.	.	.	.	.	.	.
16A'\JJ	.	.	.	.	.	.	.	.	.	.	.	.	.	.
=76	=76	=76	=76	=76	=76	=76	=76	=76	=76	=76	=76	=76	=76	=76
!.LO:LB:g=original	!	!	!	!	!LO:TX:a:t=Solo	!	!	!	!	!	!	!	!	!
!LO:TX:a:t=Solo	!	!	!LO:TX:a:t=Solo	!LO:DY:t=p:	!	!	!	!	!	!	!	!	!	!
8G'\	.	p	16G'/LL	p	8B-`>/ 8d	p	.	.	8g\	Sex-	0r	.	0r	.
.	.	.	16d'/	.	.	.	.	.	.	.	.	.	.	.
8r	.	.	16B-'/	.	8r	.	.	.	16g\	-ta	.	.	.	.
.	.	.	16d'/JJ	.	.	.	.	.	16a\	.	.	.	.	.
.	.	.	.	.	.	.	.	.	8qcc/	.	.	.	.	.
*	*	*	*rep	*	*	*	*	*	*	*	*	*	*	*
8G'\	.	.	16G'/LL	.	8B-`>/ 8d	.	.	.	8b-\	gin-	.	.	.	.
.	.	.	16d'/	.	.	.	.	.	.	.	.	.	.	.
8r	.	.	16B-'/	.	8r	.	.	.	16a\	-ta	.	.	.	.
.	.	.	16d'/JJ	.	.	.	.	.	16g\	jam	.	.	.	.
*	*	*	*Xrep	*	*	*	*	*	*	*	*	*	*	*
8F#X`\	.	.	16A'/LL	.	8A`>/ 8d	.	.	.	8a\	An-	.	.	.	.
.	.	.	16d'/	.	.	.	.	.	.	.	.	.	.	.
8r	.	.	16c'/	.	8r	.	.	.	8a\	-ni	.	.	.	.
.	.	.	16d'/JJ	.	.	.	.	.	.	.	.	.	.	.
*	*	*	*rep	*	*	*	*	*	*	*	*	*	*	*
8F#`\	.	.	16A'/LL	.	8A`>/ 8d	.	.	.	4d/	sunt	.	.	.	.
.	.	.	16d'/	.	.	.	.	.	.	.	.	.	.	.
8r	.	.	16c'/	.	8r	.	.	.	.	.	.	.	.	.
.	.	.	16d'/JJ	.	.	.	.	.	.	.	.	.	.	.
*	*	*	*Xrep	*	*	*	*	*	*	*	*	*	*	*
=77	=77	=77	=77	=77	=77	=77	=77	=77	=77	=77	=77	=77	=77	=77
!	!	!	!LO:LB:g=original	!	!	!	!	!	!LO:LB:g=original	!	!	!	!	!
!LO:TX:a:t=SIC:s=F#	!	!	!LO:TX:a:t=problem: znak pod grupą	!	!	!	!	!	!	!	!	!	!	!
8F`\	.	.	16A/LL	.	8A`>/ 8d	.	0r	.	8a\	cum	.	.	.	.
.	.	.	16d/	.	.	.	.	.	.	.	.	.	.	.
8r	.	.	16c/	.	8r	.	.	.	8a\	ac-	.	.	.	.
.	.	.	16d/JJ	.	.	.	.	.	.	.	.	.	.	.
*	*	*	*rep	*	*	*	*	*	*	*	*	*	*	*
!LO:TX:a:t=SIC:s=F#	!	!	!	!	!	!	!	!	!	!	!	!	!	!
8F`\	.	.	16A/LL	.	8A`>/ 8d	.	.	.	16a\	-ci-	.	.	.	.
.	.	.	16d/	.	.	.	.	.	16a\	-pi-	.	.	.	.
8r	.	.	16c/	.	8r	.	.	.	16.dd\	-o	.	.	.	.
.	.	.	16d/JJ	.	.	.	.	.	.	.	.	.	.	.
.	.	.	.	.	.	.	.	.	32cc\k	quo-	.	.	.	.
*	*	*	*Xrep	*	*	*	*	*	*	*	*	*	*	*
8G`\	.	.	16G/LL	.	8B-`>/ 8d	.	.	.	8.b-\	-ti-	.	.	.	.
.	.	.	16d/	.	.	.	.	.	.	.	.	.	.	.
8r	.	.	16B-/	.	8r	.	.	.	.	.	.	.	.	.
.	.	.	16d/JJ	.	.	.	.	.	16a\k	-di-	.	.	.	.
*	*	*	*rep	*	*	*	*	*	*	*	*	*	*	*
8G`\	.	.	16G/LL	.	8B-`>/ 8d	.	.	.	8g\	-e	.	.	.	.
.	.	.	16d/	.	.	.	.	.	.	.	.	.	.	.
8r	.	.	16B-/	.	8r	.	.	.	8dd\	quo-	.	.	.	.
.	.	.	16d/JJ	.	.	.	.	.	.	.	.	.	.	.
*	*	*	*Xrep	*	*	*	*	*	*	*	*	*	*	*
=78	=78	=78	=78	=78	=78	=78	=78	=78	=78	=78	=78	=78	=78	=78
8G`\	.	.	16G/LL	.	8B-/ 8d	.	.	.	8.b-\	-ti-	1r	.	1r	.
.	.	.	16d/	.	.	.	.	.	.	.	.	.	.	.
8r	.	.	16B-/	.	8r	.	.	.	.	.	.	.	.	.
.	.	.	16d/JJ	.	.	.	.	.	16a\k	-di-	.	.	.	.
*	*	*	*rep	*	*	*	*	*	*	*	*	*	*	*
8G`\	.	.	16G/LL	.	8B-/ 8d	.	.	.	8g\	-e	.	.	.	.
.	.	.	16d/	.	.	.	.	.	.	.	.	.	.	.
8r	.	.	16B-/	.	8r	.	.	.	8dd\	di-	.	.	.	.
.	.	.	16d/JJ	.	.	.	.	.	.	.	.	.	.	.
*	*	*	*Xrep	*	*	*	*	*	*	*	*	*	*	*
!	!	!	!	!	!	!	!	!	!LO:LB:g=original	!	!	!	!	!
8r	.	.	8r	.	8r	.	.	.	16.gg\	-mi-	.	.	.	.
.	.	.	.	.	.	.	.	.	32cc#X\K	-di-	.	.	.	.
8E-X\L	6|	.	8g/L	.	8cc#X\L	.	.	.	8cc#\	-i	.	.	.	.
8E-\	.	.	8g/	.	8cc#\	.	.	.	8cc#\	Pa-	.	.	.	.
8E-\J	.	.	8g/J	.	8cc#\J	.	.	.	16cc#\	-nis	.	.	.	.
.	.	.	.	.	.	.	.	.	16cc#\	Frag-	.	.	.	.
=79	=79	=79	=79	=79	=79	=79	=79	=79	=79	=79	=79	=79	=79	=79
!	!	!	!	!	!LO:TX:a:t=problem:mixed beam	!	!	!	!	!	!LO:PB:g=original	!	!	!
4D`\	.	.	8f#X/L 8a	.	8dd\L	.	2r	.	8dd\	-men-	4r	.	4r	.
.	.	.	8f#/J 8a	.	8d/J	.	.	.	8d\	-tum	.	.	.	.
16d'\LL	.	.	4r	.	4r	.	.	.	4r	.	16dd`\LL	.	16ddd`\LL	.
16c'\	.	.	.	.	.	.	.	.	.	.	16cc'\	.	16cccn`\	.
16B-'\	.	.	.	.	.	.	.	.	.	.	16b-'\	.	16bb-X`\	.
16A'\JJ	.	.	.	.	.	.	.	.	.	.	16a'\JJ	.	16aa'\JJ	.
!	!	!	!	!	!LO:LB:g=original	!	!	!	!	!	!	!	!	!
8G`\	.	.	16G/LL	.	8B-/ 8d	.	8g\	Sex-	2r	.	8g/	.	8gg`\	.
.	.	.	16d/	.	.	.	.	.	.	.	.	.	.	.
8r	.	.	16B-/	.	8r	.	16g\LL	-ta-	.	.	8r	.	8r	.
.	.	.	16d/JJ	.	.	.	16a\JJ	.	.	.	.	.	.	.
*	*	*	*rep	*	*	*	*	*	*	*	*	*	*	*
8G`\	.	.	16G/LL	.	8B-/ 8d	.	16cc\LL	-gin-	.	.	4r	.	4r	.
.	.	.	16d/	.	.	.	16b-\JJ	.	.	.	.	.	.	.
8r	.	.	16B-/	.	8r	.	16a\	-ta	.	.	.	.	.	.
.	.	.	16d/JJ	.	.	.	16g\	jam	.	.	.	.	.	.
*	*	*	*Xrep	*	*	*	*	*	*	*	*	*	*	*
=80	=80	=80	=80	=80	=80	=80	=80	=80	=80	=80	=80	=80	=80	=80
8F#X`\	.	.	16A/LL	.	8A/ 8d	.	8a\	An-	0r	.	0r	.	0r	.
.	.	.	16d/	.	.	.	.	.	.	.	.	.	.	.
8r	.	.	16c/	.	8r	.	8a\	-ni	.	.	.	.	.	.
.	.	.	16d/JJ	.	.	.	.	.	.	.	.	.	.	.
*	*	*	*rep	*	*	*	*	*	*	*	*	*	*	*
8F#`\	.	.	16A/LL	.	8A/ 8d	.	4d/	Sunt	.	.	.	.	.	.
.	.	.	16d/	.	.	.	.	.	.	.	.	.	.	.
8r	.	.	16c/	.	8r	.	.	.	.	.	.	.	.	.
.	.	.	16d/JJ	.	.	.	.	.	.	.	.	.	.	.
*	*	*	*Xrep	*	*	*	*	*	*	*	*	*	*	*
*	*	*	*rep	*	*	*	*	*	*	*	*	*	*	*
!LO:LB:g=original	!	!	!	!	!	!	!LO:LB:g=original	!	!	!	!	!	!	!
8F#`\	.	.	16A/LL	.	8A/ 8d	.	8a\	cum	.	.	.	.	.	.
.	.	.	16d/	.	.	.	.	.	.	.	.	.	.	.
8r	.	.	16c/	.	8r	.	8a\	ac-	.	.	.	.	.	.
.	.	.	16d/JJ	.	.	.	.	.	.	.	.	.	.	.
*	*	*	*Xrep	*	*	*	*	*	*	*	*	*	*	*
*	*	*	*rep	*	*	*	*	*	*	*	*	*	*	*
8F#`\	.	.	16A/LL	.	8A/ 8d	.	16a\	-ci-	.	.	.	.	.	.
.	.	.	16d/	.	.	.	16a\	-pi-	.	.	.	.	.	.
8r	.	.	16c/	.	8r	.	16.dd\	-o	.	.	.	.	.	.
.	.	.	16d/JJ	.	.	.	.	.	.	.	.	.	.	.
.	.	.	.	.	.	.	32cc\k	quo-	.	.	.	.	.	.
*	*	*	*Xrep	*	*	*	*	*	*	*	*	*	*	*
=81	=81	=81	=81	=81	=81	=81	=81	=81	=81	=81	=81	=81	=81	=81
!	!	!	!LO:LB:g=original	!	!	!	!	!	!	!	!	!	!	!
8G`\	.	.	16G/LL	.	8B-/ 8d	.	8.b-\	-ti-	.	.	.	.	.	.
.	.	.	16d/	.	.	.	.	.	.	.	.	.	.	.
8r	.	.	16B-/	.	8r	.	.	.	.	.	.	.	.	.
.	.	.	16d/JJ	.	.	.	16a\k	-di-	.	.	.	.	.	.
8G`\	.	.	16G/LL	.	8B-/ 8d	.	8g\	-e	.	.	.	.	.	.
.	.	.	16d/	.	.	.	.	.	.	.	.	.	.	.
8r	.	.	16A/	.	8r	.	8dd\	quo-	.	.	.	.	.	.
.	.	.	16d/JJ	.	.	.	.	.	.	.	.	.	.	.
.	.	.	.	.	.	.	8qcc/	.	.	.	.	.	.	.
8G`\	.	.	16G/LL	.	8B-/ 8d	.	8.b-\	.	.	.	.	.	.	.
.	.	.	16d/	.	.	.	.	.	.	.	.	.	.	.
8r	.	.	16B-/	.	8r	.	.	.	.	.	.	.	.	.
.	.	.	16d/JJ	.	.	.	16a\k	-di-	.	.	.	.	.	.
8G`\	.	.	16G/LL	.	8B-/ 8d	.	8g\	-e	.	.	.	.	.	.
.	.	.	16d/	.	.	.	.	.	.	.	.	.	.	.
!	!	!	!	!	!	!	!LO:TX:b:t=VS:	!	!	!	!	!	!	!
8r	.	.	16A/	.	8r	.	8dd\	di-	.	.	.	.	.	.
.	.	.	16d/JJ	.	.	.	.	.	.	.	.	.	.	.
=82	=82	=82	=82	=82	=82	=82	=82	=82	=82	=82	=82	=82	=82	=82
!	!	!	!	!	!	!	!LO:PB:g=original	!	!	!	!	!	!	!
8r	.	.	8r	.	8r	.	16.gg\	-mi-	1r	.	1r	.	1r	.
.	.	.	.	.	.	.	32cc#X\K	-di-	.	.	.	.	.	.
8E-X\L	6|	.	8g/L	.	8cc#X\L	.	8cc#\	-i	.	.	.	.	.	.
8E-\	.	.	8g/	.	8cc#\	.	8cc#\	Pa-	.	.	.	.	.	.
8E-\J	.	.	8g/J	.	8cc#\J	.	16cc#\	-nis	.	.	.	.	.	.
.	.	.	.	.	.	.	16cc#\	frag-	.	.	.	.	.	.
!	!	!	!	!	!LO:TX:a:t=problem:mixed beam	!	!	!	!	!	!	!	!	!
8D\L	#	.	8f#X/L 8a	.	8dd\L	.	8dd\	-men-	.	.	.	.	.	.
8D\J	.	.	8f#/J 8a	.	16d/L	.	8d/	-tum	.	.	.	.	.	.
.	.	.	.	.	16d/JJ	.	.	.	.	.	.	.	.	.
!	!	!	!	!	!LO:TX:a:t=V&colon;S&colon;	!	!	!	!	!	!	!	!	!
4D\	.	.	4f#/ 4a	.	4d/	.	4r	.	.	.	.	.	.	.
=83|:	=83	=83|:	=83|:	=83	=83	=83	=83|:	=83	=83|:	=83	=83|:	=83	=83|:	=83
!	!	!	!	!	!LO:PB:g=original	!	!	!	!	!	!	!	!	!
!	!	!	!	!	!	!LO:DY:t=po:	!	!	!	!	!	!	!	!
8D`\	.	.	16r	.	16r	p	4f#X	Pa-	4a\	Pa-	16r	.	16r	.
!	!	!	!	!	!	!	!	!	!	!	!	!	!	!LO:DY:t=pianiſsimo
.	.	.	16f#X`/LL	.	16a`\LL	.	.	.	.	.	16ff#X'\LL	.	16aa'\LL	pp
!	!	!	!	!LO:DY:t=pianiſs:	!	!	!	!	!	!	!	!LO:DY:t=pianiſsimo	!	!
8r	.	.	16f#`/	pp	16a`\	.	.	.	.	.	16ff#'\	pp	16aa'\	.
.	.	.	16f#`/JJ	.	16a`\JJ	.	.	.	.	.	16ff#'\JJ	.	16aa'\JJ	.
8D`\	.	.	16r	.	16r	.	8f#/	-nis	8a\	-nis	16r	.	16r	.
.	.	.	16f#`/LL	.	16a`\LL	.	.	.	.	.	16ff#'\LL	.	16aa'\LL	.
8r	.	.	16f#`/	.	16a`\	.	8f#/	frag-	8a\	frag-	16ff#'\	.	16aa'\	.
.	.	.	16f#`/JJ	.	16a`\JJ	.	.	.	.	.	16ff#'\JJ	.	16aa'\JJ	.
!	!	!	!	!	!	!	!LO:LB:g=original	!	!LO:LB:g=original	!	!	!	!	!
8D`\	.	.	16r	.	16r	.	4g\	-men-	4b-\	-men-	16r	.	16r	.
.	.	.	16g'/LL	.	16b-`\LL	.	.	.	.	.	16gg'\LL	.	16bb-'\LL	.
8r	.	.	16g'/	.	16b-`\	.	.	.	.	.	16gg'\	.	16bb-'\	.
!	!	!	!	!	!	!	!	!	!	!	!	!	!LO:LB:g=original	!
.	.	.	16g'/JJ	.	16b-`\JJ	.	.	.	.	.	16gg'\JJ	.	16bb-'\JJ	.
8D`\	.	.	16r	.	16r	.	4g\	-tum	4b-\	-tum	16r	.	16r	.
.	.	.	16g'/LL	.	16b-`\LL	.	.	.	.	.	16gg'\LL	.	16bb-'\LL	.
8r	.	.	16g'/	.	16b-`\	.	.	.	.	.	16gg'\	.	16bb-'\	.
.	.	.	16g'/JJ	.	16b-`\JJ	.	.	.	.	.	16gg'\JJ	.	16bb-'\JJ	.
=84	=84	=84	=84	=84	=84	=84	=84	=84	=84	=84	=84	=84	=84	=84
!	!	!	!LO:LB:g=original	!	!	!	!	!	!	!	!LO:LB:g=original	!	!	!
.	.	.	.	.	.	.	8qqg/	.	8qqb-/	.	.	.	.	.
8D\	.	.	16r	.	16r	.	4b-\	.	4dd\	Pa-	16r	.	16r	.
.	.	.	16g'/LL	.	16b-`\LL	.	.	.	.	.	16gg'\LL	.	16bb-'\LL	.
8r	.	.	16g'/	.	16b-`\	.	.	.	.	.	16gg'\	.	16bb-'\	.
.	.	.	16g'/JJ	.	16b-`\JJ	.	.	.	.	.	16gg'\JJ	.	16bb-'\JJ	.
8D\	.	.	16r	.	16r	.	16cc\LL	-nis	16ee-\LL	-nis	16r	.	16r	.
.	.	.	16g'/LL	.	16b-`\LL	.	16b-\JJ	.	16dd\JJ	.	16gg'\LL	.	16bb-'\LL	.
8r	.	.	16g'/	.	16b-`\	.	16a\LL	frag-	16cc\LL	frag-	16gg'\	.	16bb-'\	.
.	.	.	16g'/JJ	.	16b-`\JJ	.	16g\JJ	.	16b-\JJ	.	16gg'\JJ	.	16bb-'\JJ	.
.	.	.	.	.	.	.	8qqg/	.	8qqb-/	.	.	.	.	.
8D\	.	.	16r	.	16r	.	4f#X/	.	4a\	.	16r	.	16r	.
.	.	.	16f#X'/LL	.	16a`\LL	.	.	.	.	.	16ff#X'\LL	.	16aa'\LL	.
8r	.	.	16f#'/	.	16a`\	.	.	.	.	.	16ff#'\	.	16aa'\	.
.	.	.	16f#'/JJ	.	16a`\JJ	.	.	.	.	.	16ff#'\JJ	.	16aa'\JJ	.
8D\	.	.	16r	.	16r	.	4f#/	-tum	4a\	-tum	16r	.	16r	.
.	.	.	16f#'/LL	.	16a`\LL	.	.	.	.	.	16ff#'\LL	.	16aa'\LL	.
8r	.	.	16f#'/	.	16a`\	.	.	.	.	.	16ff#'\	.	16aa'\	.
.	.	.	16f#'/JJ	.	16a`\JJ	.	.	.	.	.	16ff#'\JJ	.	16aa'\JJ	.
=85	=85	=85	=85	=85	=85	=85	=85	=85	=85	=85	=85	=85	=85	=85
!LO:LB:g=original	!	!	!	!	!LO:LB:g=original	!	!	!	!	!	!	!	!	!
8D\	.	.	16r	.	16r	.	4a\	Pa-	4cc\	Pa-	16r	.	16r	.
.	.	.	16f#X/LL	.	16a\LL	.	.	.	.	.	16ff#X'\LL	.	16aa'\LL	.
8r	.	.	16f#/	.	16a\	.	.	.	.	.	16ff#'\	.	16aa'\	.
.	.	.	16f#/JJ	.	16a\JJ	.	.	.	.	.	16ff#'\JJ	.	16aa'\JJ	.
8D\	.	.	16r	.	16r	.	16b-\LL	-nis	16dd\LL	-nis	16r	.	16r	.
.	.	.	16f#/LL	.	16a\LL	.	16a\JJ	.	16cc\JJ	.	16ff#'\LL	.	16aa'\LL	.
8r	.	.	16f#/	.	16a\	.	16g/LL	frag-	16b-\LL	frag-	16ff#'\	.	16aa'\	.
.	.	.	16f#/JJ	.	16a\JJ	.	16f#X/JJ	.	16a\JJ	.	16ff#'\JJ	.	16aa'\JJ	.
!	!	!	!	!	!	!	!LO:LB:g=original	!	!	!	!	!	!	!
8D\	.	.	16r	.	16r	.	8.g\L	-men-	8.b-\L	-men-	16r	.	16r	.
.	.	.	16g/LL	.	16b-\LL	.	.	.	.	.	16gg'\LL	.	16bb-'\LL	.
8r	.	.	16g/	.	16b-\	.	.	.	.	.	16gg'\	.	16bb-'\	.
.	.	.	16g/JJ	.	16b-\JJ	.	16a\Jk	.	16cc\Jk	.	16gg'\JJ	.	16bb-'\JJ	.
8D\	.	.	16r	.	16r	.	8b-\	-tum	8dd\	-tum	16r	.	16r	.
.	.	.	16g/LL	.	16b-\LL	.	.	.	.	.	16gg'\LL	.	16bb-'\LL	.
8r	.	.	16g/	.	16b-\	.	8r	.	8r	.	16gg'\	.	16bb-'\	.
.	.	.	16g/JJ	.	16b-\JJ	.	.	.	.	.	16gg'\JJ	.	16bb-'\JJ	.
=86	=86	=86	=86	=86	=86	=86	=86	=86	=86	=86	=86	=86	=86	=86
!	!	!	!	!	!	!	!	!	!LO:LB:g=original	!	!LO:LB:g=original	!	!LO:LB:g=original	!
8D\	.	.	16r	.	16r	.	4a\	Pa-	4cc\	Pa-	16r	.	16r	.
.	.	.	16f#X/LL	.	16a\LL	.	.	.	.	.	16ff#X\LL	.	16aa'\LL	.
8r	.	.	16f#/	.	16a\	.	.	.	.	.	16ff#\	.	16aa'\	.
.	.	.	16f#/JJ	.	16a\JJ	.	.	.	.	.	16ff#\JJ	.	16aa'\JJ	.
8D\	.	.	16r	.	16r	.	16b-\LL	-nis	16dd\LL	-nis	16r	.	16r	.
.	.	.	16f#/LL	.	16a\LL	.	16a\JJ	.	16cc\JJ	.	16ff#\LL	.	16aa'\LL	.
8r	.	.	16f#/	.	16a\	.	16g/LL	frag-	16b-\LL	frag-	16ff#\	.	16aa'\	.
.	.	.	16f#/JJ	.	16a\JJ	.	16f#X/JJ	.	16a\JJ	.	16ff#\JJ	.	16aa'\JJ	.
8D\	.	.	16r	.	16r	.	8.g\L	-men-	8.b-\L	-men-	16r	.	16r	.
.	.	.	16g/LL	.	16b-\LL	.	.	.	.	.	16gg\LL	.	16bb-'\LL	.
8r	.	.	16g/	.	16b-\	.	.	.	.	.	16gg\	.	16bb-'\	.
.	.	.	16g/JJ	.	16b-\JJ	.	16a\Jk	.	16cc\Jk	.	16gg\JJ	.	16bb-'\JJ	.
8D\	.	.	16r	.	16r	.	8b-\	-tum	8dd\	-tum	16r	.	16r	.
.	.	.	16g/LL	.	16b-\LL	.	.	.	.	.	16gg\LL	.	16bb-'\LL	.
8r	.	.	16g/	.	16b-\	.	8r	.	8r	.	16gg\	.	16bb-'\	.
.	.	.	16g/JJ	.	16b-\JJ	.	.	.	.	.	16gg\JJ	.	16bb-'\JJ	.
=87	=87	=87	=87	=87	=87	=87	=87	=87	=87	=87	=87	=87	=87	=87
!	!	!	!LO:LB:g=original	!	!	!	!	!	!	!	!	!	!	!
16r	5_ 3_	.	16r	.	16r	.	4g\	Pa-	4ee-\	Pa-	1r	.	1r	.
16c\LL	.	.	16g/LL	.	16ee-\LL	.	.	.	.	.	.	.	.	.
16c\	.	.	16g/	.	16ee-\	.	.	.	.	.	.	.	.	.
16c\JJ	.	.	16g/JJ	.	16ee-\JJ	.	.	.	.	.	.	.	.	.
16r	6	.	16r	.	16r	.	4g\	-nis	4dd\	-nis	.	.	.	.
16B-\LL	.	.	16g/LL	.	16dd\LL	.	.	.	.	.	.	.	.	.
16B-\	.	.	16g/	.	16dd\	.	.	.	.	.	.	.	.	.
16B-\JJ	.	.	16g/JJ	.	16dd\JJ	.	.	.	.	.	.	.	.	.
!	!	!	!	!	!LO:LB:g=original	!	!LO:LB:g=original	!	!	!	!	!	!	!
16r	6|	.	16r	.	16r	.	4cc\	Pa-	4ff#X\	Pa-	.	.	.	.
16A\LL	.	.	16a/LL	.	16cc\LL	.	.	.	.	.	.	.	.	.
16A\	.	.	16a/	.	16cc\	.	.	.	.	.	.	.	.	.
16A\JJ	.	.	16a/JJ	.	16cc\JJ	.	.	.	.	.	.	.	.	.
!	!	!	!LO:TX:a:t=problem:mixed beam	!	!	!	!	!	!	!	!	!	!	!
8G\L	.	.	8d/L	.	8b-\L	.	8.b-\	-nis	16gg\LL	-nis	.	.	.	.
.	.	.	.	.	.	.	.	.	16dd\JJ	.	.	.	.	.
8c\J	.	.	16cc\L	.	16ee-\L	.	.	.	16ee-\LL	frag-	.	.	.	.
!	!	!	!	!	!	!	!LO:N:vis=16	!	!	!	!	!	!	!
.	.	.	16a\JJ	.	16cc\JJ	.	32cc\LLL	frag-	16cc\JJ	.	.	.	.	.
!	!	!	!	!	!	!	!LO:N:vis=16	!	!	!	!	!	!	!
.	.	.	.	.	.	.	32a\JJJ	.	.	.	.	.	.	.
=88	=88	=88	=88	=88	=88	=88	=88	=88	=88	=88	=88	=88	=88	=88
8d\	6 4	.	16r	.	16r	.	4g\	-men-	4b-\	-men-	16r	.	16r	.
.	.	.	16g/LL	.	16b-\LL	.	.	.	.	.	16gg\LL	.	16bb-'\LL	.
8r	.	.	16g/	.	16b-\	.	.	.	.	.	16gg\	.	16bb-'\	.
.	.	.	16g/JJ	.	16b-\JJ	.	.	.	.	.	16gg\JJ	.	16bb-'\JJ	.
8D\	5 #	.	16r	.	16r	.	4f#X\	.	4a\	.	16r	.	16r	.
.	.	.	16f#X/LL	.	16a/LL	.	.	.	.	.	16ff#X\LL	.	16aa'\LL	.
8r	.	.	16f#/	.	16a/	.	.	.	.	.	16ff#\	.	16aa'\	.
.	.	.	16f#/JJ	.	16a/JJ	.	.	.	.	.	16ff#\JJ	.	16aa'\JJ	.
!LO:LB:g=original	!	!	!	!	!	!	!	!	!LO:LB:g=original	!	!	!	!LO:TX:a:t=Solo	!
8G\	.	.	8g/	.	8g/	.	8g\	-tum.	8g\	-tum.	16gg\	.	16gg\LL	.
.	.	.	.	.	.	.	.	.	.	.	.	.	32qqccc#X/	.
.	.	.	.	.	.	.	.	.	.	.	16r	.	16ddd\JJ	.
8r	.	.	8r	.	8r	.	8r	.	8r	.	8r	.	32cccn\LLL	.
.	.	.	.	.	.	.	.	.	.	.	.	.	32bb-\	.
.	.	.	.	.	.	.	.	.	.	.	.	.	32aa\	.
.	.	.	.	.	.	.	.	.	.	.	.	.	32gg\JJJ	.
!	!	!	!	!	!	!	!	!	!LO:TX:b:t=Fine :/:	!	!	!	!	!
16r	.	.	16r	.	16r	.	4r	.	4r	.	4r	.	4ff#X\	.
16A\LL	6|	.	16cc'\LL	.	16dd\LL	.	.	.	.	.	.	.	.	.
16A\	.	.	16cc'\	.	16dd\	.	.	.	.	.	.	.	.	.
16A\JJ	.	.	16cc'\JJ	.	16dd\JJ	.	.	.	.	.	.	.	.	.
=89	=89	=89	=89	=89	=89	=89	=89	=89	=89:|	=89	=89	=89	=89	=89
!	!	!	!	!	!	!	!	!	!	!	!LO:LB:g=original	!	!	!
*>A1	*	*	*>A1	*	*>A1yy	*	*>A1yy	*	*>A1yy	*	*>A1	*	*>A1	*
!	!	!	!	!	!	!	!LO:TX:b:t=Fine:/:	!	!LO:TX:a:t=problem: repetycja tt 83-88	!	!LO:TX:a:B:t=Nro I.	!	!LO:LB:g=original	!
8G\	.	.	8b-\	.	8dd\	.	1r	.	1ryy	.	1r	.	16gg\LL	.
.	.	.	.	.	.	.	.	.	.	.	.	.	32qqccc#X/	.
.	.	.	.	.	.	.	.	.	.	.	.	.	16ddd\JJ	.
!	!	!	!LO:TX:a:B:t=Nro I.	!	!	!	!	!	!	!	!	!	!	!
8r	.	.	8r	.	8r	.	.	.	.	.	.	.	32cccn\LLL	.
.	.	.	.	.	.	.	.	.	.	.	.	.	32bb-\	.
.	.	.	.	.	.	.	.	.	.	.	.	.	32aa\	.
!	!	!	!	!	!	!	!	!	!	!	!	!	!LO:TX:a:B:t=Nro. I.	!
.	.	.	.	.	.	.	.	.	.	.	.	.	32gg\JJJ	.
16r	.	.	16r	.	16r	.	.	.	.	.	.	.	4ff#X\	.
16A\LL	6|	.	16cc\LL	.	16dd\LL	.	.	.	.	.	.	.	.	.
16A\	.	.	16cc\	.	16dd\	.	.	.	.	.	.	.	.	.
!LO:TX:a:B:t=Nro I.	!	!	!	!	!	!	!	!	!	!	!	!	!	!
16A\JJ	.	.	16cc\JJ	.	16dd\JJ	.	.	.	.	.	.	.	.	.
8G\L	.	.	8b-\	.	8dd\	.	.	.	.	.	.	.	8gg\	.
16B-`\L	.	.	8r	.	8r	.	.	.	.	.	.	.	8r	.
16A`\JJ	.	.	.	.	.	.	.	.	.	.	.	.	.	.
16G'\LL	.	.	4r	.	4r	.	.	.	.	.	.	.	4r	.
16A'\	.	.	.	.	.	.	.	.	.	.	.	.	.	.
16B-'\	.	.	.	.	.	.	.	.	.	.	.	.	.	.
16c'\JJ	.	.	.	.	.	.	.	.	.	.	.	.	.	.
=90:|	=90	=90:|	=90:|	=90	=90	=90	=90:|	=90	=90	=90	=90:|	=90	=90:|	=90
!LO:TX:a:t=problem:repetycja tt.83-88	!	!	!LO:TX:a:t=problem:repetycja tt.83-88	!	!LO:LB:g=original	!	!LO:TX:a:t=problem:repetycja tt.83-88	!	!	!	!LO:TX:a:t=problem:repetycja tt.83-88	!	!LO:TX:a:t=problem:repetycja tt.83-88	!
8D`\yy	.	.	16ryy	.	16r	.	4f#X/yy	Pa-	4a\yy	Pa-	16ryy	.	16ryy	.
!	!	!	!	!	!	!	!	!	!	!	!	!LO:DY:t=pianiſsimo	!	!LO:DY:t=pianiſsimo
.	.	.	16f#X`/LLyy	.	16a/LL	.	.	.	.	.	16ff#X'\LLyy	pp	16aa'\LLyy	pp
!	!	!	!	!LO:DY:t=pianiſs:	!	!	!	!	!	!	!	!	!	!
8ryy	.	.	16f#`/yy	pp	16a/	.	.	.	.	.	16ff#'\yy	.	16aa'\yy	.
.	.	.	16f#`/JJyy	.	16a/JJ	.	.	.	.	.	16ff#'\JJyy	.	16aa'\JJyy	.
8D`\yy	.	.	16ryy	.	16r	.	8f#/Lyy	-nis	8a\Lyy	-nis	16ryy	.	16ryy	.
.	.	.	16f#`/LLyy	.	16a/LL	.	.	.	.	.	16ff#'\LLyy	.	16aa`\LLyy	.
8ryy	.	.	16f#`/yy	.	16a/	.	8f#/Jyy	frag-	8a\Jyy	frag-	16ff#'\yy	.	16aa`\yy	.
.	.	.	16f#`/JJyy	.	16a/JJ	.	.	.	.	.	16ff#'\JJyy	.	16aa`\JJyy	.
8D`\yy	.	.	16ryy	.	16r	.	4g\yy	-men-	4b-\yy	-men-	16ryy	.	16ryy	.
.	.	.	16g'/LLyy	.	16b-/LL	.	.	.	.	.	16gg'\LLyy	.	16bb-'\LLyy	.
8ryy	.	.	16g'/yy	.	16b-/	.	.	.	.	.	16gg'\yy	.	16bb-'\yy	.
.	.	.	16g'/JJyy	.	16b-/JJ	.	.	.	.	.	16gg'\JJyy	.	16bb-'\JJyy	.
8D`\yy	.	.	16ryy	.	16r	.	4g\yy	-tum	4b-\yy	-tum	16ryy	.	16ryy	.
.	.	.	16g'/LLyy	.	16b-/LL	.	.	.	.	.	16gg'\LLyy	.	16bb-'\LLyy	.
8ryy	.	.	16g'/yy	.	16b-/	.	.	.	.	.	16gg'\yy	.	16bb-'\yy	.
.	.	.	16g'/JJyy	.	16b-/JJ	.	.	.	.	.	16gg'\JJyy	.	16bb-'\JJyy	.
=91	=91	=91	=91	=91	=91	=91	=91	=91	=91	=91	=91	=91	=91	=91
!	!	!	!	!	!	!	!	!	!	!	!LO:LB:g=original	!	!	!
.	.	.	.	.	.	.	8qqg/yy	.	8qqb-/yy	.	.	.	.	.
8D\yy	.	.	16ryy	.	16r	.	4b-\yy	.	4dd\yy	.	16ryy	.	16ryy	.
.	.	.	16g'/LLyy	.	16b-/LL	.	.	.	.	.	16gg'\LLyy	.	16bb-'\LLyy	.
8ryy	.	.	16g'/yy	.	16b-/	.	.	.	.	.	16gg'\yy	.	16bb-'\yy	.
.	.	.	16g'/JJyy	.	16b-/JJ	.	.	.	.	.	16gg'\JJyy	.	16bb-'\JJyy	.
8D\yy	.	.	16ryy	.	16r	.	16cc\LLyy	-nis	16ee-\LLyy	-nis	16ryy	.	16ryy	.
.	.	.	16g'/LLyy	.	16b-/LL	.	16b-\JJyy	.	16dd\JJyy	.	16gg'\LLyy	.	16bb-'\LLyy	.
8ryy	.	.	16g'/yy	.	16b-/	.	16a\LLyy	frag-	16cc\LLyy	frag-	16gg'\yy	.	16bb-'\yy	.
.	.	.	16g'/JJyy	.	16b-/JJ	.	16g\JJyy	.	16b-\JJyy	.	16gg'\JJyy	.	16bb-'\JJyy	.
.	.	.	.	.	.	.	8qqg/yy	.	8qqb-/yy	.	.	.	.	.
8D\yy	.	.	16ryy	.	16r	.	4f#X/yy	.	4a\yy	.	16ryy	.	16ryy	.
.	.	.	16f#X'/LLyy	.	16a/LL	.	.	.	.	.	16ff#X'\LLyy	.	16aa'\LLyy	.
8ryy	.	.	16f#'/yy	.	16a/	.	.	.	.	.	16ff#'\yy	.	16aa'\yy	.
.	.	.	16f#'/JJyy	.	16a/JJ	.	.	.	.	.	16ff#'\JJyy	.	16aa'\JJyy	.
8D\yy	.	.	16ryy	.	16r	.	4f#/yy	-tum	4a\yy	-tum	16ryy	.	16ryy	.
.	.	.	16f#'/LLyy	.	16a/LL	.	.	.	.	.	16ff#'\LLyy	.	16aa'\LLyy	.
8ryy	.	.	16f#'/yy	.	16a/	.	.	.	.	.	16ff#'\yy	.	16aa'\yy	.
.	.	.	16f#'/JJyy	.	16a/JJ	.	.	.	.	.	16ff#'\JJyy	.	16aa'\JJyy	.
=92	=92	=92	=92	=92	=92	=92	=92	=92	=92	=92	=92	=92	=92	=92
!LO:LB:g=original	!	!	!	!	!	!	!	!	!	!	!	!	!	!
8D\yy	.	.	16ryy	.	16r	.	4a\yy	Pa-	4cc\yy	Pa-	16ryy	.	16ryy	.
.	.	.	16f#X/LLyy	.	16a/LL	.	.	.	.	.	16ff#X'\LLyy	.	16aa'\LLyy	.
8ryy	.	.	16f#/yy	.	16a/	.	.	.	.	.	16ff#'\yy	.	16aa'\yy	.
.	.	.	16f#/JJyy	.	16a/JJ	.	.	.	.	.	16ff#'\JJyy	.	16aa'\JJyy	.
8D\yy	.	.	16ryy	.	16r	.	16b-\LLyy	-nis	16dd\LLyy	-nis	16ryy	.	16ryy	.
.	.	.	16f#/LLyy	.	16a/LL	.	16a\JJyy	.	16cc\JJyy	.	16ff#'\LLyy	.	16aa'\LLyy	.
8ryy	.	.	16f#/yy	.	16a/	.	16g/LLyy	frag-	16b-\LLyy	frag-	16ff#'\yy	.	16aa'\yy	.
.	.	.	16f#/JJyy	.	16a/JJ	.	16f#X/JJyy	.	16a\JJyy	.	16ff#'\JJyy	.	16aa'\JJyy	.
!	!	!	!	!	!LO:LB:g=original	!	!	!	!	!	!	!	!	!
8D\yy	.	.	16ryy	.	16r	.	8.g\Lyy	-men-	8.b-\Lyy	-men-	16ryy	.	16ryy	.
.	.	.	16g/LLyy	.	16b-/LL	.	.	.	.	.	16gg'\LLyy	.	16bb-'\LLyy	.
8ryy	.	.	16g/yy	.	16b-/	.	.	.	.	.	16gg'\yy	.	16bb-'\yy	.
.	.	.	16g/JJyy	.	16b-/JJ	.	16a\Jkyy	.	16cc\Jkyy	.	16gg'\JJyy	.	16bb-'\JJyy	.
8D\yy	.	.	16ryy	.	16r	.	8b-\yy	-tum	8dd\yy	-tum	16ryy	.	16ryy	.
.	.	.	16g/LLyy	.	16b-/LL	.	.	.	.	.	16gg'\LLyy	.	16bb-'\LLyy	.
8ryy	.	.	16g/yy	.	16b-/	.	8ryy	.	8ryy	.	16gg'\yy	.	16bb-'\yy	.
.	.	.	16g/JJyy	.	16b-/JJ	.	.	.	.	.	16gg'\JJyy	.	16bb-'\JJyy	.
=93	=93	=93	=93	=93	=93	=93	=93	=93	=93	=93	=93	=93	=93	=93
!	!	!	!	!	!	!	!	!	!	!	!LO:LB:g=original	!	!	!
8D\yy	.	.	16ryy	.	16r	.	4a\yy	Pa-	4cc\yy	Pa-	16ryy	.	16ryy	.
.	.	.	16f#X/LLyy	.	16a/LL	.	.	.	.	.	16ff#X\LLyy	.	16aa'\LLyy	.
8ryy	.	.	16f#/yy	.	16a/	.	.	.	.	.	16ff#\yy	.	16aa'\yy	.
.	.	.	16f#/JJyy	.	16a/JJ	.	.	.	.	.	16ff#\JJyy	.	16aa'\JJyy	.
8D\yy	.	.	16ryy	.	16r	.	16b-\LLyy	-nis	16dd\LLyy	-nis	16ryy	.	16ryy	.
.	.	.	16f#/LLyy	.	16a/LL	.	16a\JJyy	.	16cc\JJyy	.	16ff#\LLyy	.	16aa'\LLyy	.
8ryy	.	.	16f#/yy	.	16a/	.	16g/LLyy	frag-	16b-\LLyy	frag-	16ff#\yy	.	16aa'\yy	.
.	.	.	16f#/JJyy	.	16a/JJ	.	16f#X/JJyy	.	16a\JJyy	.	16ff#\JJyy	.	16aa'\JJyy	.
8D\yy	.	.	16ryy	.	16r	.	8.g\Lyy	-men-	8.b-\Lyy	-men-	16ryy	.	16ryy	.
.	.	.	16g/LLyy	.	16b-/LL	.	.	.	.	.	16gg\LLyy	.	16bb-'\LLyy	.
8ryy	.	.	16g/yy	.	16b-/	.	.	.	.	.	16gg\yy	.	16bb-'\yy	.
.	.	.	16g/JJyy	.	16b-/JJ	.	16a\Jkyy	.	16cc\Jkyy	.	16gg\JJyy	.	16bb-'\JJyy	.
8D\yy	.	.	16ryy	.	16r	.	8b-\yy	-tum	8dd\yy	-tum	16ryy	.	16ryy	.
.	.	.	16g/LLyy	.	16b-/LL	.	.	.	.	.	16gg\LLyy	.	16bb-'\LLyy	.
8ryy	.	.	16g/yy	.	16b-/	.	8ryy	.	8ryy	.	16gg\yy	.	16bb-'\yy	.
.	.	.	16g/JJyy	.	16b-/JJ	.	.	.	.	.	16gg\JJyy	.	16bb-'\JJyy	.
=94	=94	=94	=94	=94	=94	=94	=94	=94	=94	=94	=94	=94	=94	=94
16ryy	5_ 3_	.	16ryy	.	16r	.	4g\yy	Pa-	4ee-\yy	Pa-	1ryy	.	1ryy	.
16c\LLyy	.	.	16g/LLyy	.	16ee-\LL	.	.	.	.	.	.	.	.	.
16c\yy	.	.	16g/yy	.	16ee-\	.	.	.	.	.	.	.	.	.
16c\JJyy	.	.	16g/JJyy	.	16ee-\JJ	.	.	.	.	.	.	.	.	.
16ryy	6	.	16ryy	.	16r	.	4g\yy	-nis	4dd\yy	-nis	.	.	.	.
16B-\LLyy	.	.	16g/LLyy	.	16dd\LL	.	.	.	.	.	.	.	.	.
16B-\yy	.	.	16g/yy	.	16dd\	.	.	.	.	.	.	.	.	.
16B-\JJyy	.	.	16g/JJyy	.	16dd\JJ	.	.	.	.	.	.	.	.	.
16ryy	6|	.	16ryy	.	16r	.	4cc\yy	Pa-	4ff#X\yy	Pa-	.	.	.	.
16A\LLyy	.	.	16a/LLyy	.	16cc\LL	.	.	.	.	.	.	.	.	.
16A\yy	.	.	16a/yy	.	16cc\	.	.	.	.	.	.	.	.	.
16A\JJyy	.	.	16a/JJyy	.	16cc\JJ	.	.	.	.	.	.	.	.	.
!	!	!	!LO:TX:a:t=problem:mixed beam	!	!	!	!	!	!	!	!	!	!	!
8G\Lyy	.	.	8d/Lyy	.	8b-\L	.	8.b-\yy	-nis	16gg\LLyy	-nis	.	.	.	.
.	.	.	.	.	.	.	.	.	16dd\JJyy	.	.	.	.	.
8c\Jyy	.	.	16cc\Lyy	.	16ee-\L	.	.	.	16ee-\LLyy	frag-	.	.	.	.
!	!	!	!	!	!	!	!LO:N:vis=16	!	!	!	!	!	!	!
.	.	.	16a\JJyy	.	16cc\JJ	.	32cc\LLLyy	frag-	16cc\JJyy	.	.	.	.	.
!	!	!	!	!	!	!	!LO:N:vis=16	!	!	!	!	!	!	!
.	.	.	.	.	.	.	32a\JJJyy	.	.	.	.	.	.	.
=95	=95	=95	=95	=95	=95	=95	=95	=95	=95	=95	=95	=95	=95	=95
!	!	!	!	!	!LO:LB:g=original	!	!	!	!	!	!	!	!	!
8d\yy	6 4	.	16ryy	.	16r	.	4g\yy	-men-	4b-\yy	-men-	16ryy	.	16ryy	.
.	.	.	16g/LLyy	.	16b-\LL	.	.	.	.	.	16gg\LLyy	.	16bb-'\LLyy	.
8ryy	.	.	16g/yy	.	16b-\	.	.	.	.	.	16gg\yy	.	16bb-'\yy	.
.	.	.	16g/JJyy	.	16b-\JJ	.	.	.	.	.	16gg\JJyy	.	16bb-'\JJyy	.
8D\yy	5 #	.	16ryy	.	16r	.	4f#X\yy	.	4a\yy	.	16ryy	.	16ryy	.
.	.	.	16f#X/LLyy	.	16a/LL	.	.	.	.	.	16ff#X\LLyy	.	16aa'\LLyy	.
8ryy	.	.	16f#/yy	.	16a/	.	.	.	.	.	16ff#\yy	.	16aa'\yy	.
.	.	.	16f#/JJyy	.	16a/JJ	.	.	.	.	.	16ff#\JJyy	.	16aa'\JJyy	.
!LO:LB:g=original	!	!	!	!	!	!	!	!	!	!	!	!	!	!
8G\yy	.	.	8g/yy	.	8g/	.	8g\yy	-tum.	8g\yy	-tum.	16gg\yy	.	16gg\LLyy	.
.	.	.	.	.	.	.	.	.	.	.	.	.	32qqccc#X/yy	.
.	.	.	.	.	.	.	.	.	.	.	16ryy	.	16ddd\JJyy	.
8ryy	.	.	8ryy	.	8r	.	8ryy	.	8ryy	.	8ryy	.	32cccn\LLLyy	.
.	.	.	.	.	.	.	.	.	.	.	.	.	32bb-\yy	.
.	.	.	.	.	.	.	.	.	.	.	.	.	32aa\yy	.
.	.	.	.	.	.	.	.	.	.	.	.	.	32gg\JJJyy	.
16ryy	.	.	16ryy	.	16r	.	4ryy	.	4ryy	.	4ryy	.	4ff#X\yy	.
16A\LLyy	6|	.	16cc'\LLyy	.	16dd\LL	.	.	.	.	.	.	.	.	.
16A\yy	.	.	16cc'\yy	.	16dd\	.	.	.	.	.	.	.	.	.
16A\JJyy	.	.	16cc'\JJyy	.	16dd\JJ	.	.	.	.	.	.	.	.	.
=96	=96	=96	=96	=96	=96	=96	=96	=96	=96	=96	=96	=96	=96	=96
!	!	!	!	!	!	!	!	!	!	!	!LO:LB:g=original	!	!	!
*>A2	*	*	*>A2	*	*>A2yy	*	*>A2yy	*	*>A2yy	*	*>A2	*	*>A2	*
!	!	!	!LO:TX:a:B:t=Nro II.	!	!	!	!	!	!	!	!LO:TX:a:B:t=Nro II.	!	!	!
8G\	.	.	8b-\	.	8dd\	.	1ryy	.	1ryy	.	2r	.	16gg\LL	.
.	.	.	.	.	.	.	.	.	.	.	.	.	32qqccc#X/	.
.	.	.	.	.	.	.	.	.	.	.	.	.	16ddd\JJ	.
8r	.	.	8r	.	8r	.	.	.	.	.	.	.	(32cccn\LLL	.
.	.	.	.	.	.	.	.	.	.	.	.	.	32bb-\	.
.	.	.	.	.	.	.	.	.	.	.	.	.	32aa\	.
.	.	.	.	.	.	.	.	.	.	.	.	.	32gg\JJJ)	.
!	!	!	!	!	!	!	!	!	!	!	!	!	!LO:TX:a:B:t=Nro II	!
16r	.	.	16r	.	16r	.	.	.	.	.	.	.	4ff#X\	.
16A\LL	6|	.	16cc\LL	.	16dd\LL	.	.	.	.	.	.	.	.	.
!LO:TX:a:B:t=Nro II	!	!	!	!	!	!	!	!	!	!	!	!	!	!
16A\	.	.	16cc\	.	16dd\	.	.	.	.	.	.	.	.	.
16A\JJ	.	.	16cc\JJ	.	16dd\JJ	.	.	.	.	.	.	.	.	.
!	!	!	!LO:TX:a:t=problem:mixed beam	!	!	!	!	!	!	!	!	!	!	!
8G\L	.	.	8b-\L	.	8dd\	.	.	.	.	.	8r	.	8gg\L	.
8G\J	.	.	8G/J 8g	.	8G/ 8d 8b- 8gg	.	.	.	.	.	8g/	.	8gg\J	.
!LO:TX:b:t=Da Capo al Segno	!	!	!LO:TX:b:t=Da Capo al Segno	!	!LO:TX:a:t=Da Capo usque ad Signum;;	!	!	!	!	!	!LO:TX:a:t=Da Capo al Segno;;	!	!LO:TX:a:t=Da Capo al Segno;;	!
4G\	.	.	4G/ 4g	.	4G/ 4d 4b- 4gg	.	.	.	.	.	4g/	.	4gg\	.
==	==	==	==	==	==	==	==	==	==	==	==	==	==	==
*-	*-	*-	*-	*-	*-	*-	*-	*-	*-	*-	*-	*-	*-	*-
!!!system-decoration: [(g1)][(g2)][(g3)][(g4)]
!!!RDF**dynam: p=po
!!!RDF**dynam: f=for
!!!RDF**kern: >= above
!!!RDF**kern: <= below
!!!ENC: Anna Matuszewska
!!!END: 2020-06-25
!!!YEC: Copyright 2022 Narodowy Instytut Fryderyka Chopina (https://polishscores.org)
!!!YEM: Licence CC BY 4.0 (https://creativecommons.org/licenses/by/4.0)
